core-styles/BL.cube
#Created by: Adobe Photoshop Export Color Lookup Plugin
#Copyright: (C) Copyright 2026 汉图
TITLE "Ricotta调色优化.psd"
#LUT size
LUT_3D_SIZE 4
#data domain
DOMAIN_MIN 0.0 0.0 0.0
DOMAIN_MAX 1.0 1.0 1.0
#LUT data points
0.000000 0.000000 0.000000
0.295166 0.000000 0.000000
0.619934 0.000000 0.001160
0.949005 0.000000 0.039062
0.000000 0.304413 0.004730
0.286499 0.304474 0.011261
0.615967 0.302490 0.032990
0.947174 0.305603 0.057281
0.000000 0.633545 0.071472
0.247559 0.633545 0.073975
0.601685 0.633636 0.082306
0.941589 0.637695 0.091217
0.000000 0.951965 0.122650
0.220184 0.951965 0.124481
0.584015 0.951965 0.130066
0.913483 0.951965 0.139496
0.000000 0.000000 0.334076
0.298340 0.000000 0.334595
0.617798 0.000000 0.336029
0.947235 0.016418 0.339813
0.000000 0.305756 0.336304
0.281555 0.304260 0.337219
0.614807 0.302155 0.339905
0.945068 0.311188 0.343536
0.000000 0.633026 0.346832
0.248108 0.633087 0.347290
0.600494 0.633331 0.349579
0.939575 0.639008 0.351807
0.000000 0.951965 0.360626
0.261047 0.951965 0.361084
0.596191 0.951965 0.362915
0.915680 0.951477 0.365906
0.000000 0.000000 0.673492
0.284332 0.000000 0.673523
0.610229 0.000000 0.673798
0.945068 0.008301 0.679535
0.000000 0.301636 0.673340
0.275940 0.303101 0.673370
0.604492 0.306763 0.673676
0.943939 0.306976 0.678009
0.000000 0.625458 0.673889
0.264709 0.626678 0.673859
0.604095 0.631836 0.673645
0.936432 0.643738 0.672913
0.000000 0.951965 0.653687
0.223267 0.951965 0.649231
0.630371 0.950775 0.672729
0.923767 0.949432 0.673798
0.000000 0.000000 0.951965
0.271393 0.008240 0.951965
0.585419 0.050262 0.951965
0.897186 0.098541 0.951965
0.037750 0.303772 0.951965
0.288239 0.306000 0.951965
0.591187 0.313477 0.951965
0.898926 0.327515 0.951965
0.192047 0.625397 0.951965
0.358002 0.629547 0.951965
0.619598 0.632324 0.951965
0.908752 0.638672 0.951965
0.060211 0.951965 0.951965
0.307648 0.951965 0.951965
0.648529 0.951965 0.951965
0.951965 0.951965 0.951965
