core-styles/BL.cube
#Created by: Adobe Photoshop Export Color Lookup Plugin
#Copyright: (C) Copyright 2026 汉图
TITLE "Ricotta调色优化.psd"
#LUT size
LUT_3D_SIZE 34
#data domain
DOMAIN_MIN 0.0 0.0 0.0
DOMAIN_MAX 1.0 1.0 1.0
#LUT data points
0.000000 0.000000 0.000000
0.006805 0.000000 0.000000
0.035370 0.000000 0.000000
0.063690 0.000000 0.000000
0.092133 0.000000 0.000000
0.120819 0.000000 0.000000
0.149658 0.000000 0.000000
0.178497 0.000000 0.000000
0.207520 0.000000 0.000000
0.236633 0.000000 0.000000
0.265900 0.000000 0.000000
0.295166 0.000000 0.000000
0.324432 0.000000 0.000000
0.353790 0.000000 0.000000
0.383270 0.000000 0.000000
0.412811 0.000000 0.000000
0.442383 0.000000 0.000000
0.471802 0.000000 0.000000
0.501373 0.000000 0.000000
0.531006 0.000000 0.000000
0.560608 0.000000 0.000000
0.590271 0.000000 0.000000
0.619934 0.000000 0.001160
0.649658 0.000000 0.005157
0.679474 0.000000 0.008423
0.709290 0.000000 0.012085
0.739197 0.000000 0.015533
0.769043 0.000000 0.019165
0.798981 0.000000 0.022675
0.828918 0.000000 0.026093
0.858826 0.000000 0.029480
0.888794 0.000000 0.032806
0.918854 0.000000 0.036163
0.949005 0.000000 0.039062
0.000000 0.008453 0.000000
0.005920 0.008392 0.000000
0.034058 0.008392 0.000000
0.062866 0.008362 0.000000
0.091614 0.008392 0.000000
0.120239 0.008728 0.000000
0.149109 0.008850 0.000000
0.178192 0.008728 0.000000
0.207214 0.008698 0.000000
0.236359 0.008789 0.000000
0.265594 0.008728 0.000000
0.294891 0.008636 0.000000
0.324249 0.008148 0.000000
0.353699 0.007477 0.000000
0.383179 0.006866 0.000000
0.412720 0.006073 0.000000
0.442200 0.005768 0.000000
0.471680 0.005035 0.000000
0.501282 0.004608 0.000000
0.530914 0.004059 0.000000
0.560547 0.003601 0.000000
0.590210 0.003357 0.000000
0.619843 0.003143 0.002716
0.649567 0.003265 0.005829
0.679413 0.003204 0.009277
0.709229 0.003143 0.013031
0.739136 0.003448 0.016632
0.769012 0.004150 0.020111
0.798889 0.005280 0.023682
0.828827 0.006805 0.026947
0.858765 0.008484 0.030212
0.888733 0.010437 0.033508
0.918793 0.013245 0.036682
0.948975 0.016876 0.039795
0.000000 0.037384 0.000000
0.004364 0.037567 0.000000
0.033203 0.037323 0.000000
0.061859 0.037292 0.000000
0.090607 0.037415 0.000000
0.119476 0.037567 0.000000
0.148560 0.037659 0.000000
0.177704 0.037598 0.000000
0.206818 0.037628 0.000000
0.236084 0.037567 0.000000
0.265381 0.037323 0.000000
0.294678 0.037109 0.000000
0.324005 0.036926 0.000000
0.353516 0.036377 0.000000
0.382965 0.035797 0.000000
0.412476 0.035248 0.000000
0.441986 0.034821 0.000000
0.471558 0.034515 0.000000
0.501129 0.033936 0.000000
0.530731 0.033600 0.000000
0.560425 0.033112 0.000000
0.590057 0.032806 0.000000
0.619720 0.032623 0.004211
0.649506 0.032623 0.006989
0.679291 0.032684 0.010651
0.709137 0.032684 0.014069
0.739014 0.033081 0.017578
0.768890 0.033752 0.021088
0.798798 0.034729 0.024506
0.828735 0.036041 0.027740
0.858704 0.037506 0.030945
0.888702 0.039246 0.034210
0.918701 0.041290 0.037445
0.948944 0.043762 0.040436
0.000000 0.066589 0.000000
0.001862 0.066620 0.000000
0.031555 0.066742 0.000000
0.061188 0.066650 0.000000
0.089691 0.066284 0.000000
0.118652 0.066315 0.000000
0.147919 0.066406 0.000000
0.177094 0.066406 0.000000
0.206268 0.066376 0.000000
0.235626 0.066254 0.000000
0.265015 0.066071 0.000000
0.294464 0.065826 0.000000
0.323822 0.065521 0.000000
0.353241 0.065277 0.000000
0.382721 0.064880 0.000000
0.412262 0.064575 0.000000
0.441803 0.064331 0.000000
0.471313 0.064117 0.000000
0.500946 0.063660 0.000000
0.530609 0.063385 0.000000
0.560211 0.063080 0.000000
0.589905 0.062927 0.002655
0.619537 0.062805 0.005524
0.649353 0.062775 0.008606
0.679169 0.062836 0.012299
0.709045 0.062988 0.015533
0.738861 0.063263 0.018921
0.768768 0.063904 0.022339
0.798706 0.064575 0.025726
0.828644 0.065521 0.028961
0.858582 0.066589 0.032043
0.888611 0.067932 0.035095
0.918640 0.069519 0.038361
0.948822 0.071442 0.041412
0.000000 0.096100 0.000000
0.000000 0.096191 0.000000
0.028717 0.096191 0.000000
0.059357 0.096222 0.000000
0.089294 0.096252 0.000000
0.117706 0.095398 0.000000
0.147003 0.095306 0.000000
0.176361 0.095306 0.000000
0.205627 0.095245 0.000000
0.235046 0.095215 0.000000
0.264496 0.095062 0.000000
0.293976 0.094940 0.000000
0.323425 0.094666 0.000000
0.352966 0.094421 0.000000
0.382446 0.094177 0.000000
0.411957 0.093994 0.000000
0.441528 0.093842 0.000000
0.471039 0.093628 0.000000
0.500671 0.093323 0.000000
0.530334 0.093170 0.000000
0.559937 0.092957 0.000977
0.589600 0.092834 0.004730
0.619354 0.092804 0.007690
0.649139 0.092804 0.010773
0.679016 0.092834 0.013977
0.708862 0.093079 0.017426
0.738708 0.093384 0.020660
0.768616 0.093781 0.023987
0.798523 0.094360 0.027191
0.828491 0.095001 0.030334
0.858429 0.095856 0.033539
0.888458 0.096954 0.036560
0.918518 0.098206 0.039490
0.948730 0.099792 0.042450
0.000000 0.125732 0.000000
0.000000 0.125763 0.000000
0.024017 0.125763 0.000000
0.056152 0.125793 0.000000
0.087036 0.125824 0.000000
0.117249 0.125885 0.000000
0.145905 0.124756 0.000000
0.175323 0.124573 0.000000
0.204773 0.124451 0.000000
0.234283 0.124420 0.000000
0.263885 0.124329 0.000000
0.293396 0.124176 0.000000
0.322876 0.123993 0.000000
0.352417 0.123810 0.000000
0.381989 0.123657 0.000000
0.411530 0.123535 0.000000
0.441101 0.123444 0.000000
0.470673 0.123169 0.000000
0.500336 0.123016 0.000000
0.529968 0.122986 0.000916
0.559662 0.122894 0.004456
0.589294 0.122742 0.007050
0.619110 0.122711 0.010254
0.648895 0.122650 0.013458
0.678772 0.122772 0.016418
0.708649 0.122955 0.019653
0.738525 0.123260 0.022919
0.768433 0.123596 0.025970
0.798370 0.123993 0.029053
0.828308 0.124603 0.032043
0.858276 0.125275 0.035065
0.888275 0.126190 0.038300
0.918396 0.127258 0.041046
0.948608 0.128601 0.043854
0.000000 0.155426 0.000000
0.000000 0.155426 0.000000
0.017059 0.155426 0.000000
0.051208 0.155426 0.000000
0.083618 0.155457 0.000000
0.114685 0.155518 0.000000
0.145264 0.155548 0.000000
0.174377 0.154480 0.000000
0.203827 0.154175 0.000000
0.233276 0.153900 0.000000
0.262970 0.153809 0.000000
0.292603 0.153717 0.000000
0.322174 0.153534 0.000000
0.351776 0.153442 0.000000
0.381409 0.153320 0.000000
0.411011 0.153137 0.000000
0.440643 0.153076 0.000000
0.470276 0.152893 0.000000
0.499908 0.152802 0.001740
0.529541 0.152771 0.004852
0.559265 0.152740 0.007385
0.588989 0.152649 0.010193
0.618713 0.152588 0.013428
0.648621 0.152588 0.016205
0.678467 0.152649 0.019318
0.708313 0.152832 0.022369
0.738251 0.153076 0.025360
0.768188 0.153412 0.028442
0.798126 0.153717 0.031281
0.828064 0.154205 0.034119
0.858063 0.154907 0.036987
0.888092 0.155640 0.040009
0.918213 0.156586 0.042847
0.948456 0.157684 0.045593
0.000000 0.185242 0.000000
0.000000 0.185242 0.000000
0.008392 0.185272 0.000000
0.044464 0.185242 0.000000
0.078918 0.185242 0.000000
0.111176 0.185242 0.000000
0.142517 0.185242 0.000000
0.173340 0.185333 0.000000
0.203003 0.184570 0.000000
0.232300 0.183868 0.000000
0.261871 0.183563 0.000000
0.291656 0.183441 0.000000
0.321320 0.183289 0.000000
0.350983 0.183197 0.000000
0.380646 0.183136 0.000000
0.410339 0.182953 0.000000
0.440033 0.182861 0.000000
0.469727 0.182770 0.003784
0.499420 0.182678 0.005890
0.529083 0.182648 0.008362
0.558838 0.182587 0.011261
0.588562 0.182526 0.013855
0.618347 0.182495 0.016754
0.648193 0.182526 0.019775
0.678131 0.182556 0.022369
0.707977 0.182770 0.025299
0.737885 0.182922 0.028168
0.767822 0.183258 0.030945
0.797852 0.183594 0.033813
0.827850 0.183990 0.036560
0.857819 0.184509 0.039246
0.887848 0.185272 0.042084
0.917999 0.186096 0.044830
0.948273 0.186981 0.047455
0.000000 0.214996 0.000000
0.000000 0.214966 0.000000
0.000000 0.214996 0.000000
0.036194 0.214996 0.000000
0.073242 0.214996 0.000000
0.107056 0.214996 0.000000
0.139191 0.214966 0.000000
0.170502 0.214996 0.000000
0.201538 0.215027 0.000000
0.231689 0.214630 0.000000
0.260773 0.213654 0.000000
0.290436 0.213379 0.000000
0.320251 0.213196 0.000000
0.350006 0.213074 0.000000
0.379761 0.212982 0.000549
0.409576 0.212860 0.003906
0.439270 0.212708 0.005463
0.468994 0.212646 0.007629
0.498718 0.212555 0.010254
0.528503 0.212494 0.012756
0.558258 0.212494 0.015289
0.587982 0.212494 0.017944
0.617798 0.212494 0.020569
0.647705 0.212494 0.023376
0.677704 0.212555 0.026001
0.707642 0.212585 0.028412
0.737579 0.212860 0.031128
0.767548 0.213074 0.033875
0.797516 0.213470 0.036530
0.827545 0.213867 0.039185
0.857544 0.214294 0.041748
0.887604 0.214905 0.044495
0.917725 0.215668 0.047150
0.948059 0.216431 0.049744
0.000000 0.244720 0.000000
0.000000 0.244690 0.000000
0.000000 0.244690 0.000000
0.026794 0.244781 0.000000
0.066437 0.244751 0.000000
0.102173 0.244751 0.000000
0.135376 0.244751 0.000000
0.167389 0.244781 0.000000
0.198730 0.244781 0.000000
0.229797 0.244781 0.000000
0.260254 0.244659 0.000000
0.289276 0.243561 0.000000
0.319000 0.243195 0.002838
0.348907 0.243073 0.004578
0.378723 0.242950 0.006256
0.408630 0.242798 0.008087
0.438446 0.242645 0.010498
0.468201 0.242584 0.012634
0.497955 0.242523 0.014740
0.527802 0.242462 0.017212
0.557587 0.242432 0.019684
0.587402 0.242432 0.022064
0.617279 0.242462 0.024597
0.647217 0.242493 0.027130
0.677155 0.242523 0.029633
0.707184 0.242706 0.032074
0.737152 0.242798 0.034363
0.767151 0.243011 0.037140
0.797180 0.243347 0.039612
0.827179 0.243713 0.042053
0.857178 0.244171 0.044556
0.887268 0.244720 0.047150
0.917450 0.245300 0.049652
0.947845 0.246063 0.052185
0.000000 0.274536 0.000000
0.000000 0.274536 0.000000
0.000000 0.274536 0.000000
0.016479 0.274536 0.000000
0.058350 0.274567 0.000000
0.096497 0.274536 0.000000
0.131042 0.274536 0.000000
0.163910 0.274567 0.000214
0.195770 0.274567 0.001862
0.227112 0.274536 0.003387
0.258087 0.274597 0.004242
0.288666 0.274536 0.005280
0.317780 0.273438 0.007721
0.347595 0.273071 0.009613
0.377594 0.272949 0.011627
0.407532 0.272858 0.013397
0.437439 0.272705 0.015594
0.467285 0.272644 0.017639
0.497101 0.272583 0.019562
0.526978 0.272491 0.021820
0.556824 0.272369 0.024200
0.586700 0.272369 0.026337
0.616699 0.272400 0.028625
0.646667 0.272461 0.031036
0.676666 0.272552 0.033356
0.706635 0.272675 0.035675
0.736694 0.272827 0.038025
0.766724 0.273041 0.040344
0.796722 0.273315 0.042999
0.826782 0.273621 0.045197
0.856812 0.274017 0.047516
0.886932 0.274536 0.049988
0.917145 0.275116 0.052429
0.947510 0.275787 0.054688
0.000000 0.304413 0.004730
0.000000 0.304413 0.005066
0.000000 0.304382 0.005127
0.005768 0.304413 0.005432
0.049194 0.304413 0.005707
0.090149 0.304413 0.006195
0.126160 0.304443 0.006744
0.159943 0.304443 0.007355
0.192535 0.304443 0.008057
0.224304 0.304443 0.009094
0.255585 0.304443 0.010223
0.286499 0.304474 0.011261
0.317139 0.304443 0.012726
0.346375 0.303345 0.015289
0.376251 0.303009 0.017059
0.406281 0.302887 0.018829
0.436279 0.302795 0.020630
0.466217 0.302704 0.022675
0.496185 0.302643 0.024536
0.526093 0.302551 0.026581
0.556000 0.302490 0.028809
0.585938 0.302460 0.030884
0.615967 0.302490 0.032990
0.645996 0.302490 0.035156
0.676086 0.302582 0.037354
0.706085 0.302704 0.039490
0.736115 0.302856 0.041687
0.766144 0.303040 0.043915
0.796265 0.303284 0.045990
0.826324 0.303589 0.048492
0.856415 0.303955 0.050598
0.886566 0.304413 0.052856
0.916840 0.304962 0.055176
0.947174 0.305603 0.057281
0.000000 0.334351 0.011505
0.000000 0.334351 0.011627
0.000000 0.334320 0.011841
0.000000 0.334351 0.012207
0.038300 0.334351 0.012543
0.083069 0.334320 0.012970
0.120819 0.334351 0.013519
0.155640 0.334381 0.013977
0.188873 0.334381 0.014618
0.221191 0.334381 0.015472
0.252899 0.334412 0.016418
0.284088 0.334412 0.017395
0.315033 0.334473 0.018524
0.345703 0.334442 0.019867
0.375031 0.333344 0.022491
0.404938 0.332916 0.024323
0.435028 0.332825 0.025879
0.465088 0.332764 0.027710
0.495087 0.332733 0.029510
0.525085 0.332642 0.031525
0.555054 0.332581 0.033447
0.585144 0.332520 0.035553
0.615204 0.332550 0.037445
0.645294 0.332611 0.039398
0.675354 0.332703 0.041412
0.705444 0.332794 0.043549
0.735535 0.332947 0.045593
0.765625 0.333130 0.047638
0.795715 0.333344 0.049622
0.825836 0.333618 0.051697
0.855957 0.333954 0.053864
0.886139 0.334381 0.055847
0.916504 0.334869 0.057922
0.946869 0.335510 0.059906
0.000000 0.364288 0.018341
0.000000 0.364288 0.018280
0.000000 0.364288 0.018402
0.000000 0.364319 0.018768
0.026459 0.364319 0.019104
0.074677 0.364319 0.019409
0.114929 0.364288 0.019928
0.150818 0.364319 0.020355
0.184814 0.364349 0.020935
0.217712 0.364349 0.021698
0.249847 0.364380 0.022583
0.281494 0.364410 0.023499
0.312653 0.364441 0.024414
0.343689 0.364471 0.025635
0.374451 0.364441 0.026886
0.403809 0.363373 0.029541
0.433777 0.363007 0.031281
0.463776 0.362823 0.032959
0.493896 0.362793 0.034637
0.524017 0.362732 0.036469
0.554108 0.362671 0.038239
0.584198 0.362640 0.040009
0.614349 0.362671 0.041901
0.644470 0.362732 0.043671
0.674622 0.362793 0.045532
0.704742 0.362915 0.047516
0.734833 0.363037 0.049500
0.765015 0.363281 0.051422
0.795166 0.363464 0.053284
0.825287 0.363708 0.055176
0.855408 0.363953 0.057281
0.885712 0.364380 0.058990
0.916046 0.364807 0.060852
0.946564 0.365448 0.062683
0.000000 0.394318 0.024780
0.000000 0.394318 0.024750
0.000000 0.394287 0.024841
0.000000 0.394318 0.025146
0.016510 0.394348 0.025482
0.064178 0.394348 0.025787
0.108093 0.394318 0.026154
0.145599 0.394348 0.026642
0.180542 0.394379 0.027222
0.214020 0.394379 0.027924
0.246613 0.394409 0.028625
0.278625 0.394440 0.029480
0.310181 0.394470 0.030334
0.341309 0.394501 0.031403
0.372375 0.394501 0.032715
0.403168 0.394501 0.033783
0.432709 0.393616 0.036194
0.462585 0.393158 0.038025
0.492615 0.392853 0.039825
0.522827 0.392792 0.041412
0.553009 0.392731 0.043030
0.583191 0.392761 0.044586
0.613434 0.392822 0.046265
0.643616 0.392883 0.048004
0.673828 0.392914 0.049713
0.704010 0.393066 0.051483
0.734161 0.393219 0.053253
0.764343 0.393372 0.055084
0.794556 0.393585 0.056915
0.824738 0.393799 0.058594
0.854889 0.394043 0.060486
0.885223 0.394440 0.062378
0.915619 0.394928 0.063904
0.946106 0.395477 0.065643
0.000000 0.424377 0.031158
0.000000 0.424408 0.031281
0.000000 0.424408 0.031372
0.000000 0.424438 0.031525
0.005981 0.424438 0.031769
0.050537 0.424469 0.032166
0.099762 0.424469 0.032440
0.139679 0.424469 0.032745
0.175873 0.424500 0.033325
0.210114 0.424500 0.033997
0.243164 0.424500 0.034637
0.275574 0.424530 0.035461
0.307404 0.424530 0.036285
0.338867 0.424561 0.037048
0.370117 0.424591 0.038177
0.401123 0.424652 0.039246
0.431915 0.424683 0.040375
0.461792 0.423889 0.042175
0.491486 0.423309 0.044373
0.521515 0.422974 0.046234
0.551819 0.422943 0.047729
0.582123 0.422974 0.049225
0.612396 0.423065 0.050781
0.642670 0.423126 0.052429
0.672943 0.423157 0.054047
0.703156 0.423279 0.055634
0.733368 0.423401 0.057281
0.763611 0.423523 0.058899
0.793823 0.423767 0.060486
0.824036 0.423950 0.062195
0.854340 0.424225 0.063812
0.884705 0.424622 0.065521
0.915192 0.425049 0.067139
0.945679 0.425568 0.068726
0.000000 0.454529 0.037354
0.000000 0.454559 0.037476
0.000000 0.454559 0.037537
0.000000 0.454559 0.037537
0.000000 0.454559 0.037689
0.036377 0.454559 0.038025
0.090302 0.454559 0.038422
0.132965 0.454559 0.038818
0.170593 0.454590 0.039276
0.205658 0.454590 0.039795
0.239288 0.454590 0.040466
0.272156 0.454620 0.041260
0.304443 0.454651 0.042084
0.336243 0.454681 0.042755
0.367645 0.454681 0.043457
0.398895 0.454712 0.044525
0.429962 0.454773 0.045715
0.460785 0.454742 0.046722
0.490814 0.454193 0.048462
0.520447 0.453430 0.050537
0.550507 0.453156 0.052277
0.580933 0.453217 0.053680
0.611328 0.453308 0.055115
0.641693 0.453308 0.056641
0.671967 0.453369 0.058075
0.702271 0.453491 0.059479
0.732574 0.453552 0.061035
0.762878 0.453735 0.062592
0.793152 0.453949 0.064087
0.823364 0.454132 0.065674
0.853668 0.454407 0.067352
0.884125 0.454773 0.068756
0.914642 0.455231 0.070038
0.945190 0.455780 0.071655
0.000000 0.484589 0.043121
0.000000 0.484558 0.043396
0.000000 0.484589 0.043152
0.000000 0.484619 0.043182
0.000000 0.484650 0.043396
0.027740 0.484680 0.043823
0.079041 0.484680 0.044250
0.125397 0.484680 0.044373
0.164734 0.484711 0.044739
0.200928 0.484711 0.045380
0.235291 0.484741 0.045929
0.268616 0.484772 0.046600
0.301239 0.484802 0.047211
0.333344 0.484772 0.047882
0.365082 0.484772 0.048645
0.396515 0.484802 0.049622
0.427643 0.484772 0.050507
0.458740 0.484772 0.051392
0.489502 0.484772 0.052704
0.519775 0.484375 0.054443
0.549500 0.483704 0.056488
0.579712 0.483429 0.058075
0.610138 0.483490 0.059357
0.640564 0.483521 0.060669
0.670959 0.483612 0.061951
0.701355 0.483765 0.063232
0.731689 0.483856 0.064758
0.761993 0.484009 0.066284
0.792328 0.484131 0.067749
0.822662 0.484314 0.069183
0.853058 0.484558 0.070709
0.883545 0.484955 0.072083
0.914154 0.485443 0.073242
0.944702 0.485962 0.074646
0.000000 0.514557 0.048737
0.000000 0.514557 0.048828
0.000000 0.514557 0.049194
0.000000 0.514557 0.049286
0.000000 0.514557 0.049316
0.015259 0.514557 0.049622
0.065186 0.514557 0.049927
0.117126 0.514557 0.050171
0.158356 0.514557 0.050507
0.195648 0.514557 0.051056
0.230865 0.514557 0.051575
0.264679 0.514587 0.052155
0.297699 0.514557 0.052856
0.330109 0.514557 0.053558
0.362152 0.514557 0.054291
0.393738 0.514557 0.055115
0.425079 0.514557 0.056061
0.456207 0.514557 0.056915
0.487213 0.514557 0.057922
0.518066 0.514557 0.059052
0.548523 0.514404 0.060455
0.578552 0.513947 0.062195
0.608917 0.513794 0.063660
0.639404 0.513824 0.064819
0.669922 0.513916 0.065979
0.700317 0.514008 0.067352
0.730774 0.514069 0.068726
0.761139 0.514221 0.070007
0.791534 0.514404 0.071442
0.821899 0.514587 0.072876
0.852325 0.514893 0.074219
0.882904 0.515289 0.075439
0.913544 0.515717 0.076569
0.944153 0.516174 0.077911
0.000000 0.544403 0.054596
0.000000 0.544373 0.054749
0.000000 0.544373 0.054718
0.000000 0.544373 0.054993
0.000000 0.544403 0.055084
0.001038 0.544373 0.055298
0.049225 0.544373 0.055634
0.107635 0.544373 0.055939
0.151428 0.544373 0.056305
0.189972 0.544373 0.056732
0.225983 0.544373 0.057281
0.260529 0.544373 0.057770
0.294006 0.544373 0.058350
0.326782 0.544342 0.059052
0.359070 0.544312 0.059723
0.390869 0.544342 0.060425
0.422424 0.544373 0.061249
0.453705 0.544342 0.062103
0.484772 0.544342 0.063171
0.515747 0.544373 0.064209
0.546600 0.544403 0.065216
0.577209 0.544342 0.066376
0.607635 0.544128 0.067749
0.638184 0.544159 0.069000
0.668762 0.544250 0.070160
0.699249 0.544342 0.071411
0.729706 0.544464 0.072754
0.760193 0.544586 0.074036
0.790649 0.544739 0.075226
0.821106 0.544952 0.076508
0.851624 0.545258 0.077759
0.882294 0.545593 0.078918
0.912933 0.546051 0.080048
0.943573 0.546539 0.081207
0.000000 0.574127 0.060211
0.000000 0.574127 0.060486
0.000000 0.574127 0.060425
0.000000 0.574097 0.060608
0.000000 0.574127 0.060699
0.000000 0.574127 0.060883
0.036285 0.574127 0.061157
0.097290 0.574127 0.061401
0.144012 0.574127 0.061859
0.184143 0.574127 0.062317
0.221069 0.574127 0.062744
0.256226 0.574127 0.063202
0.290222 0.574127 0.063721
0.323364 0.574097 0.064301
0.355896 0.574066 0.064972
0.387970 0.574097 0.065735
0.419739 0.574127 0.066437
0.451141 0.574097 0.067291
0.482330 0.574127 0.068268
0.513428 0.574127 0.069244
0.544342 0.574127 0.070221
0.575165 0.574158 0.071350
0.605865 0.574158 0.072296
0.636688 0.574371 0.073303
0.667511 0.574615 0.074249
0.698151 0.574707 0.075470
0.728638 0.574799 0.076660
0.759186 0.574890 0.077881
0.789703 0.575043 0.079132
0.820251 0.575287 0.080200
0.850891 0.575592 0.081329
0.881561 0.575989 0.082428
0.912292 0.576447 0.083435
0.942993 0.576874 0.084503
0.000000 0.603790 0.065857
0.000000 0.603821 0.065979
0.000000 0.603821 0.066040
0.000000 0.603790 0.066162
0.000000 0.603790 0.066406
0.000000 0.603821 0.066498
0.026184 0.603821 0.066772
0.086060 0.603790 0.067017
0.136383 0.603821 0.067322
0.178131 0.603821 0.067749
0.216095 0.603821 0.068207
0.251862 0.603821 0.068665
0.286346 0.603821 0.069153
0.319885 0.603821 0.069672
0.352722 0.603790 0.070221
0.385040 0.603821 0.071045
0.416962 0.603821 0.071716
0.448547 0.603821 0.072510
0.479919 0.603821 0.073395
0.511108 0.603851 0.074280
0.542145 0.603851 0.075226
0.573029 0.603851 0.076263
0.603760 0.603882 0.077393
0.634521 0.603973 0.078308
0.665710 0.604492 0.079010
0.696777 0.604950 0.079620
0.727539 0.605164 0.080688
0.758148 0.605225 0.081757
0.788727 0.605408 0.082886
0.819366 0.605713 0.083954
0.850067 0.606049 0.084900
0.880829 0.606384 0.085968
0.911560 0.606812 0.086914
0.942291 0.607269 0.087830
0.000000 0.633545 0.071472
0.000000 0.633545 0.071503
0.000000 0.633545 0.071655
0.000000 0.633545 0.071777
0.000000 0.633545 0.071899
0.000000 0.633545 0.072113
0.014435 0.633545 0.072266
0.073242 0.633545 0.072510
0.128632 0.633545 0.072845
0.172058 0.633545 0.073181
0.211060 0.633545 0.073608
0.247559 0.633545 0.073975
0.282562 0.633606 0.074524
0.316437 0.633606 0.075104
0.349579 0.633545 0.075653
0.382141 0.633606 0.076324
0.414246 0.633606 0.076996
0.445953 0.633606 0.077728
0.477539 0.633606 0.078583
0.508789 0.633606 0.079437
0.539856 0.633636 0.080322
0.570862 0.633636 0.081268
0.601685 0.633636 0.082306
0.632446 0.633667 0.083313
0.663177 0.633759 0.084351
0.694702 0.634583 0.084595
0.726074 0.635284 0.084930
0.757019 0.635651 0.085754
0.787750 0.635864 0.086792
0.818481 0.636139 0.087708
0.849243 0.636414 0.088531
0.880035 0.636871 0.089447
0.910858 0.637268 0.090363
0.941589 0.637695 0.091217
0.000000 0.663269 0.077026
0.000000 0.663239 0.077087
0.000000 0.663239 0.077118
0.000000 0.663239 0.077332
0.000000 0.663239 0.077454
0.000000 0.663269 0.077576
0.003754 0.663239 0.077820
0.058533 0.663269 0.077972
0.120636 0.663239 0.078278
0.165985 0.663269 0.078583
0.206055 0.663269 0.078979
0.243317 0.663269 0.079407
0.278809 0.663269 0.079834
0.313080 0.663269 0.080383
0.346497 0.663269 0.081024
0.379303 0.663269 0.081573
0.411591 0.663269 0.082306
0.443451 0.663300 0.082825
0.475067 0.663300 0.083710
0.506500 0.663300 0.084564
0.537689 0.663330 0.085449
0.568726 0.663330 0.086365
0.599609 0.663361 0.087280
0.630402 0.663391 0.088318
0.661163 0.663422 0.089386
0.691864 0.663544 0.090393
0.723602 0.664581 0.090332
0.755402 0.665680 0.090302
0.786682 0.666321 0.090729
0.817535 0.666595 0.091553
0.848358 0.666962 0.092285
0.879242 0.667358 0.092957
0.910095 0.667725 0.093781
0.940857 0.668121 0.094635
0.000000 0.692963 0.082489
0.000000 0.692932 0.082581
0.000000 0.692932 0.082581
0.000000 0.692932 0.082672
0.000000 0.692932 0.082825
0.000000 0.692932 0.083008
0.000000 0.692963 0.083160
0.043640 0.692932 0.083405
0.112244 0.692963 0.083710
0.160065 0.692963 0.084076
0.201202 0.692963 0.084412
0.239166 0.692963 0.084778
0.275146 0.692963 0.085205
0.309845 0.692963 0.085693
0.343567 0.692963 0.086212
0.376587 0.692963 0.086823
0.409027 0.692993 0.087585
0.441040 0.692993 0.088043
0.472778 0.693054 0.088776
0.504303 0.693054 0.089661
0.535583 0.693054 0.090485
0.566711 0.693054 0.091309
0.597656 0.693054 0.092194
0.628510 0.693085 0.093201
0.659271 0.693146 0.094208
0.689941 0.693176 0.095306
0.720612 0.693390 0.096313
0.752563 0.694641 0.096039
0.784882 0.696198 0.095337
0.816559 0.697113 0.095306
0.847473 0.697479 0.095917
0.878418 0.697876 0.096588
0.909271 0.698242 0.097229
0.940094 0.698547 0.098022
0.000000 0.722595 0.087738
0.000000 0.722565 0.087799
0.000000 0.722595 0.087860
0.000000 0.722595 0.087982
0.000000 0.722595 0.088104
0.000000 0.722595 0.088318
0.000000 0.722595 0.088562
0.037476 0.722626 0.088745
0.104095 0.722626 0.088959
0.154297 0.722626 0.089294
0.196655 0.722626 0.089661
0.235321 0.722626 0.090057
0.271759 0.722626 0.090363
0.306763 0.722656 0.090759
0.340759 0.722656 0.091309
0.373993 0.722656 0.091858
0.406616 0.722687 0.092499
0.438843 0.722748 0.093170
0.470612 0.722778 0.093811
0.502258 0.722809 0.094635
0.533630 0.722839 0.095398
0.564758 0.722870 0.096130
0.595795 0.722870 0.096893
0.626740 0.722900 0.097900
0.657562 0.722931 0.098969
0.688232 0.722992 0.099884
0.718872 0.723083 0.100891
0.749634 0.723267 0.101837
0.781586 0.724640 0.101440
0.814484 0.726715 0.100098
