core-styles/BL.cube
#Created by: Adobe Photoshop Export Color Lookup Plugin
#Copyright: (C) Copyright 2026 汉图
TITLE "Ricotta调色优化.psd"
#LUT size
LUT_3D_SIZE 7
#data domain
#LUT data points
DOMAIN_MIN 0.000000 0.000000 0.000000
DOMAIN_MAX 0.909091 0.909091 0.909091
0.000000 0.000000 0.000000
0.120819 0.000000 0.000000
0.265900 0.000000 0.000000
0.412811 0.000000 0.000000
0.560608 0.000000 0.000000
0.709290 0.000000 0.012085
0.858826 0.000000 0.029480
0.000000 0.125732 0.000000
0.117249 0.125885 0.000000
0.263885 0.124329 0.000000
0.411530 0.123535 0.000000
0.559662 0.122894 0.004456
0.708649 0.122955 0.019653
0.858276 0.125275 0.035065
0.000000 0.274536 0.000000
0.096497 0.274536 0.000000
0.258087 0.274597 0.004242
0.407532 0.272858 0.013397
0.556824 0.272369 0.024200
0.706635 0.272675 0.035675
0.856812 0.274017 0.047516
0.000000 0.424377 0.031158
0.050537 0.424469 0.032166
0.243164 0.424500 0.034637
0.401123 0.424652 0.039246
0.551819 0.422943 0.047729
0.703156 0.423279 0.055634
0.854340 0.424225 0.063812
0.000000 0.574127 0.060211
0.000000 0.574127 0.060883
0.221069 0.574127 0.062744
0.387970 0.574097 0.065735
0.544342 0.574127 0.070221
0.698151 0.574707 0.075470
0.850891 0.575592 0.081329
0.000000 0.722595 0.087738
0.000000 0.722595 0.088318
0.196655 0.722626 0.089661
0.373993 0.722656 0.091858
0.533630 0.722839 0.095398
0.688232 0.722992 0.099884
0.846527 0.728027 0.099548
0.000000 0.871399 0.110870
0.000000 0.871429 0.111237
0.179413 0.871429 0.112335
0.364624 0.871429 0.114105
0.526093 0.871429 0.117035
0.681091 0.871368 0.120850
0.833130 0.871185 0.125916
0.000000 0.000000 0.142151
0.125275 0.000000 0.142578
0.265259 0.000000 0.141663
0.411560 0.000000 0.148621
0.560425 0.000000 0.149597
0.709167 0.000000 0.153320
0.858398 0.000000 0.157898
0.000000 0.127533 0.143616
0.113220 0.125824 0.144257
0.263000 0.124329 0.145844
0.411163 0.122711 0.147858
0.559448 0.122101 0.151001
0.708374 0.122314 0.154938
0.857910 0.125916 0.159424
0.000000 0.274170 0.150879
0.090942 0.274536 0.149323
0.256073 0.274536 0.150299
0.406921 0.273285 0.152557
0.556580 0.272583 0.155548
0.706421 0.272614 0.159271
0.856476 0.274384 0.163452
0.000000 0.424408 0.156891
0.041779 0.424469 0.157227
0.240997 0.424530 0.158020
0.400116 0.424652 0.159668
0.551544 0.423218 0.162842
0.702911 0.423340 0.166168
0.854034 0.424469 0.169952
0.000000 0.574097 0.168030
0.000000 0.574097 0.168335
0.218903 0.574066 0.169189
0.386902 0.574097 0.170715
0.543732 0.574066 0.172943
0.697845 0.574768 0.175598
0.850525 0.575745 0.178741
0.000000 0.722443 0.182281
0.000000 0.722473 0.182617
0.197632 0.722504 0.183289
0.374390 0.722595 0.184692
0.533783 0.722687 0.186707
0.688171 0.722931 0.189453
0.846252 0.727936 0.189301
0.000000 0.871216 0.195953
0.000000 0.871216 0.196228
0.186340 0.871246 0.196930
0.367554 0.871246 0.198181
0.527649 0.871216 0.199951
0.681885 0.871216 0.202576
0.833405 0.871063 0.205963
0.000000 0.000000 0.302124
0.120209 0.000000 0.302277
0.269257 0.000000 0.302643
0.411102 0.000000 0.299713
0.558655 0.000000 0.303772
0.707092 0.002899 0.308563
0.856903 0.006165 0.309998
0.000000 0.124969 0.302643
0.107330 0.125031 0.302795
0.263336 0.125183 0.303192
0.409271 0.127625 0.302246
0.557373 0.129974 0.306183
0.706329 0.132324 0.310272
0.856720 0.130920 0.309631
0.000000 0.275848 0.304230
0.087616 0.275299 0.304413
0.253265 0.274384 0.304993
0.405182 0.274017 0.306427
0.555878 0.272186 0.307526
0.705688 0.272644 0.309174
0.855316 0.276459 0.311127
0.000000 0.423828 0.308838
0.049774 0.423889 0.309540
0.237152 0.424377 0.308777
0.397980 0.424500 0.309235
0.550720 0.423401 0.310822
0.702026 0.423645 0.312500
0.852844 0.425873 0.314392
0.000000 0.573730 0.315186
0.000000 0.573853 0.314270
0.215881 0.573914 0.314056
0.385406 0.573914 0.314819
0.542511 0.573944 0.316040
0.696930 0.574890 0.317383
0.849457 0.576447 0.319061
0.000000 0.722015 0.320923
0.000000 0.722015 0.321045
0.205292 0.722076 0.321503
0.377686 0.722168 0.322266
0.535065 0.722382 0.323456
0.688202 0.722687 0.325104
0.845428 0.727722 0.325043
0.000000 0.870514 0.328461
0.000000 0.870544 0.328583
0.208160 0.870544 0.329041
0.377441 0.870605 0.329742
0.533051 0.870667 0.330872
0.684753 0.870728 0.332489
0.834381 0.870728 0.334534
0.000000 0.000000 0.462585
0.112366 0.000000 0.462646
0.265564 0.000000 0.462860
0.415771 0.000000 0.463348
0.558868 0.000000 0.459076
0.706451 0.000000 0.460968
0.855927 0.009888 0.462036
0.000000 0.123322 0.462860
0.099243 0.123413 0.462952
0.260040 0.123596 0.463226
0.412598 0.123901 0.463715
0.557343 0.128326 0.460327
0.705627 0.131836 0.462189
0.855377 0.135162 0.462585
0.000000 0.274536 0.463837
0.071411 0.274200 0.463959
0.248810 0.273621 0.464264
0.405640 0.273743 0.464691
0.553650 0.275299 0.463318
0.703491 0.276733 0.464630
0.854126 0.278137 0.463104
0.000000 0.426178 0.465485
0.026276 0.425873 0.465637
0.234436 0.425201 0.466034
0.395203 0.424255 0.466675
0.548431 0.424438 0.467346
0.699280 0.427155 0.467590
0.849335 0.433197 0.468872
0.000000 0.573212 0.466766
0.000000 0.573242 0.467072
0.220062 0.573303 0.467682
0.387909 0.573273 0.468811
0.542145 0.573486 0.470123
0.694794 0.575775 0.470581
0.846863 0.579407 0.471069
0.000000 0.721985 0.464081
0.000000 0.721954 0.464172
0.217865 0.721466 0.467926
0.390045 0.721191 0.472137
0.540558 0.721588 0.472626
0.689484 0.722229 0.473297
0.844269 0.727417 0.472748
0.000000 0.869476 0.471771
0.069824 0.869446 0.472473
0.243652 0.869476 0.472870
0.394623 0.869659 0.473145
0.542755 0.869843 0.473541
0.689972 0.870056 0.474182
0.836487 0.870239 0.475067
0.000000 0.000000 0.615234
0.101166 0.000000 0.615234
0.257751 0.000000 0.615295
0.407593 0.000000 0.615417
0.556030 0.000000 0.615631
0.704071 0.000000 0.616028
0.854767 0.005615 0.617310
0.000000 0.121918 0.615204
0.091217 0.122223 0.615234
0.253540 0.123230 0.615265
0.404938 0.124939 0.615417
0.553955 0.127869 0.615601
0.703003 0.131378 0.616608
0.854248 0.133911 0.617615
0.000000 0.272064 0.615234
0.070557 0.272614 0.615234
0.246002 0.273132 0.615295
0.399567 0.274017 0.615448
0.549316 0.275513 0.615631
0.700958 0.276611 0.618164
0.853088 0.277588 0.617706
0.000000 0.421082 0.615417
0.039764 0.421356 0.615448
0.238403 0.422150 0.615448
0.395111 0.423767 0.615479
0.544312 0.424927 0.615723
0.698608 0.425110 0.618774
0.851593 0.425262 0.615234
0.000000 0.568848 0.615967
0.017242 0.568909 0.615997
0.228882 0.569214 0.616028
0.390350 0.570374 0.616028
0.543549 0.572723 0.616028
0.695862 0.574280 0.615295
0.846771 0.580231 0.614990
0.000000 0.721558 0.617432
0.000000 0.721558 0.617004
0.202881 0.721619 0.615875
0.378540 0.721710 0.613556
0.544312 0.721161 0.615082
0.692261 0.721741 0.616638
0.844604 0.726715 0.616119
0.000000 0.871002 0.604706
0.000000 0.871002 0.603851
0.179413 0.870972 0.601532
0.390228 0.869812 0.607513
0.554688 0.868835 0.615936
0.697205 0.869171 0.616272
0.839966 0.869537 0.616791
0.000000 0.000000 0.759766
0.091034 0.000000 0.759766
0.249512 0.000000 0.759796
0.398254 0.000000 0.759827
0.545166 0.000916 0.759888
0.691284 0.022766 0.760010
0.841156 0.034851 0.763489
0.000000 0.121979 0.759705
0.087006 0.122650 0.759705
0.247955 0.124451 0.759735
0.397186 0.127777 0.759766
0.544159 0.132751 0.759857
0.690369 0.139709 0.759949
0.841187 0.143799 0.764038
0.000000 0.271881 0.759491
0.084839 0.272217 0.759521
0.246643 0.273102 0.759552
0.395813 0.274658 0.759583
0.542603 0.277161 0.759674
0.688721 0.280670 0.759796
0.841919 0.281616 0.765533
0.000000 0.419525 0.759369
0.089111 0.420349 0.759308
0.251190 0.422363 0.759247
0.397919 0.423584 0.759247
0.543182 0.425140 0.759369
0.688232 0.427277 0.759521
0.844879 0.426392 0.766968
0.000000 0.565063 0.759460
0.078766 0.565552 0.759430
0.248138 0.566956 0.759369
0.399750 0.569275 0.759216
0.547729 0.572540 0.759094
0.690948 0.573853 0.759247
0.848938 0.572693 0.765076
0.000000 0.710938 0.759705
0.056244 0.711212 0.759674
0.240723 0.712158 0.759613
0.395386 0.713928 0.759430
0.545807 0.716736 0.759216
0.695770 0.720795 0.758881
0.848175 0.723663 0.756897
0.000000 0.870300 0.763641
0.000000 0.870300 0.763000
0.189575 0.870270 0.761322
0.372864 0.870239 0.758118
0.535797 0.870056 0.752838
0.707306 0.868164 0.757416
0.845001 0.868744 0.758484
0.000000 0.000000 0.899536
0.086975 0.000000 0.899536
0.244171 0.000000 0.899506
0.391052 0.000061 0.899445
0.536041 0.022034 0.899353
0.680481 0.043488 0.899292
0.824493 0.065125 0.899139
0.000000 0.124176 0.899353
0.090546 0.125122 0.899353
0.245605 0.127655 0.899323
0.391754 0.132233 0.899231
0.536316 0.138763 0.899200
0.680603 0.147430 0.899078
0.824493 0.158203 0.898987
0.000000 0.272369 0.898895
0.105194 0.272858 0.898895
0.251251 0.274078 0.898834
0.394775 0.276215 0.898804
0.538055 0.279388 0.898712
0.681458 0.283936 0.898651
0.824890 0.289703 0.898560
0.055969 0.423553 0.897949
0.139343 0.422089 0.898071
0.266785 0.422577 0.898041
0.403625 0.423950 0.897980
0.543610 0.425964 0.897949
0.684998 0.428558 0.897858
0.826965 0.431763 0.897766
0.084473 0.566223 0.897186
0.164581 0.566986 0.897125
0.285980 0.568939 0.896973
0.419708 0.571594 0.896790
0.553711 0.572449 0.896759
0.691925 0.574158 0.896667
0.831512 0.576477 0.896545
0.082977 0.707397 0.896454
0.163666 0.707886 0.896393
0.285400 0.709290 0.896240
0.420837 0.711884 0.895905
0.561584 0.715912 0.895447
0.703827 0.721069 0.894897
0.839417 0.723419 0.894684
0.047211 0.854614 0.894440
0.144287 0.855011 0.894379
0.274780 0.856049 0.894226
0.414551 0.857910 0.893890
0.559387 0.860840 0.893372
0.709900 0.864868 0.892578
0.854248 0.870453 0.891632
