core-styles/blue.cube
#Created by: Adobe Photoshop Export Color Lookup Plugin
#Copyright: (C) Copyright 2026 小米
TITLE "样片2-sRGB-lut应用.psd"
#LUT size
LUT_3D_SIZE 6
#data domain
DOMAIN_MIN 0.0 0.0 0.0
DOMAIN_MAX 1.0 1.0 1.0
#LUT data points
0.143585 0.143341 0.158508
0.205109 0.140869 0.159515
0.321136 0.143524 0.162231
0.536896 0.140564 0.169159
0.828857 0.114532 0.176697
0.965912 0.070160 0.162018
0.144714 0.202667 0.160645
0.206116 0.203278 0.162994
0.327728 0.209869 0.167816
0.548218 0.233185 0.170410
0.832489 0.250427 0.162079
0.954407 0.239777 0.135406
0.149780 0.341888 0.166840
0.224762 0.346375 0.169159
0.367004 0.359863 0.171417
0.592773 0.406647 0.156372
0.843048 0.436188 0.126068
0.957611 0.434906 0.130493
0.072968 0.580261 0.096222
0.225372 0.601776 0.116089
0.430389 0.613159 0.129242
0.635712 0.621918 0.142426
0.858398 0.639587 0.160980
0.966705 0.633850 0.167969
0.110504 0.801758 0.143005
0.142273 0.811371 0.152924
0.428528 0.836121 0.181213
0.650818 0.842041 0.193573
0.864746 0.846313 0.206360
0.976959 0.829834 0.209778
0.127808 0.904327 0.164673
0.133942 0.906433 0.166687
0.400757 0.942505 0.204651
0.612640 0.951599 0.217133
0.809845 0.958160 0.228729
0.984344 0.963257 0.239746
0.136475 0.142944 0.217163
0.199677 0.143219 0.219086
0.318298 0.146606 0.226379
0.541351 0.084198 0.236511
0.799438 0.027893 0.217407
0.926636 0.031311 0.206207
0.147797 0.202301 0.221527
0.203735 0.203369 0.223114
0.328674 0.205719 0.227234
0.554840 0.204773 0.232941
0.829834 0.191895 0.236908
0.959656 0.169067 0.230438
0.105743 0.341248 0.224579
0.206757 0.345764 0.227295
0.361389 0.355347 0.231384
0.589569 0.393036 0.228485
0.841492 0.416626 0.220245
0.961426 0.414429 0.206848
0.073151 0.583374 0.171509
0.158325 0.596039 0.181824
0.413940 0.610565 0.190033
0.631287 0.617920 0.188202
0.857758 0.632080 0.174744
0.967072 0.624176 0.172668
0.109955 0.799133 0.142365
0.110138 0.797607 0.141846
0.406128 0.832123 0.179138
0.642609 0.839630 0.192566
0.861572 0.843231 0.205505
0.976715 0.825470 0.208923
0.128571 0.904999 0.168030
0.132843 0.906311 0.169495
0.395630 0.943146 0.208771
0.611267 0.952698 0.222687
0.810059 0.959747 0.236145
0.986633 0.965576 0.250214
0.124603 0.146210 0.358643
0.201904 0.144745 0.359589
0.334747 0.140472 0.364563
0.550903 0.056183 0.409760
0.806458 0.030426 0.419830
0.927124 0.033691 0.399078
0.106873 0.210571 0.367462
0.194794 0.205444 0.367035
0.341370 0.200256 0.371521
0.567505 0.159576 0.407074
0.816254 0.030487 0.401672
0.927124 0.033478 0.382294
0.036407 0.352142 0.381805
0.159393 0.355469 0.385590
0.359131 0.359009 0.390533
0.608795 0.363251 0.398865
0.859894 0.365692 0.408386
0.961060 0.365112 0.411896
0.045776 0.604889 0.403625
0.045807 0.605865 0.395233
0.369720 0.618896 0.402893
0.637360 0.627319 0.411713
0.874207 0.632477 0.420074
0.974915 0.621887 0.427917
0.100983 0.823730 0.393188
0.100769 0.823334 0.393066
0.382507 0.847900 0.419434
0.645020 0.854736 0.430603
0.874725 0.858673 0.443207
0.988831 0.838348 0.457794
0.118774 0.929718 0.440735
0.183777 0.944153 0.452850
0.432953 0.961273 0.474396
0.636353 0.968964 0.487213
0.828033 0.975281 0.502869
0.998718 0.980591 0.521942
0.049164 0.153290 0.636902
0.198334 0.130707 0.625183
0.385834 0.086212 0.625671
0.572968 0.027496 0.622528
0.806763 0.033600 0.647034
0.925232 0.036713 0.643921
0.018829 0.188141 0.610687
0.143188 0.208374 0.638306
0.377502 0.177887 0.634674
0.594971 0.118622 0.644745
0.814606 0.033752 0.645508
0.925323 0.036621 0.638153
0.031555 0.369476 0.633270
0.030914 0.359528 0.633606
0.341736 0.362274 0.654907
0.610718 0.356415 0.661316
0.856812 0.350525 0.671814
0.958771 0.362488 0.667267
0.047729 0.607971 0.657196
0.047729 0.607758 0.657013
0.333893 0.625763 0.675690
0.630371 0.630127 0.682312
0.867371 0.635254 0.690704
0.974304 0.639038 0.696533
0.063080 0.841461 0.672638
0.063049 0.840881 0.673431
0.390686 0.854340 0.692963
0.649719 0.857666 0.703583
0.870392 0.860962 0.713013
0.988098 0.845276 0.721893
0.311615 0.967102 0.718903
0.388855 0.968719 0.724091
0.525208 0.972107 0.731750
0.682129 0.976288 0.738953
0.845520 0.980774 0.748108
0.997681 0.984985 0.759583
0.029297 0.096344 0.859283
0.118347 0.105011 0.889404
0.373322 0.033203 0.864777
0.587463 0.033630 0.865845
0.803497 0.037598 0.871216
0.921326 0.040222 0.868408
0.017365 0.167023 0.850067
0.064728 0.205261 0.897125
0.360840 0.152374 0.878265
0.594147 0.047638 0.880585
0.805267 0.037659 0.873016
0.921356 0.040192 0.866791
0.030731 0.346222 0.866333
0.030365 0.341217 0.865265
0.309113 0.366852 0.896851
0.592804 0.355865 0.895935
0.835175 0.351562 0.903107
0.954285 0.362000 0.894257
0.048096 0.597626 0.883362
0.048065 0.597015 0.883179
0.320374 0.626923 0.911926
0.614716 0.629456 0.910706
0.847992 0.635773 0.916473
0.971130 0.649933 0.908325
0.063873 0.832245 0.898132
0.063812 0.831726 0.897552
0.380920 0.855469 0.921875
0.649506 0.856628 0.924408
0.861725 0.861389 0.931152
0.985626 0.864746 0.936035
0.334290 0.977814 0.905334
0.411987 0.977264 0.906647
0.567230 0.978912 0.915436
0.739014 0.982574 0.933868
0.878448 0.985931 0.949341
0.994354 0.988708 0.955902
0.000031 0.020874 0.936371
0.059784 0.071777 1.000000
0.324921 0.042206 0.989746
0.541412 0.037048 0.988281
0.746460 0.039215 0.990875
0.918182 0.042603 0.994751
0.014648 0.139557 0.965546
0.052887 0.168671 1.000000
0.307861 0.133148 1.000000
0.536926 0.042816 0.994019
0.742981 0.039154 0.990814
0.918182 0.042603 0.994751
0.029358 0.322449 0.980896
0.029205 0.321198 0.980743
0.266785 0.360168 1.000000
0.538391 0.346771 1.000000
0.758240 0.355316 1.000000
0.928345 0.391205 1.000000
0.046326 0.564606 0.999695
0.051025 0.569550 1.000000
0.369385 0.610962 1.000000
0.595551 0.620453 1.000000
0.789948 0.645996 1.000000
0.936249 0.678864 1.000000
0.205597 0.808533 1.000000
0.332306 0.806274 1.000000
0.526794 0.812836 1.000000
0.714539 0.835510 1.000000
0.862030 0.866730 1.000000
0.956635 0.894196 1.000000
0.548584 0.944214 1.000000
0.598877 0.945496 1.000000
0.710358 0.949799 1.000000
0.843689 0.959290 1.000000
0.953552 0.977509 1.000000
1.000000 1.000000 1.000000
