core-styles/blue.cube
#Created by: Adobe Photoshop Export Color Lookup Plugin
#Copyright: (C) Copyright 2026 小米
TITLE "样片2-sRGB-lut应用.psd"
#LUT size
LUT_3D_SIZE 8
#data domain
DOMAIN_MIN 0.0 0.0 0.0
DOMAIN_MAX 1.0 1.0 1.0
#LUT data points
0.143585 0.143341 0.158508
0.180267 0.140533 0.159271
0.247009 0.142090 0.159729
0.344849 0.143585 0.163391
0.498657 0.141937 0.168274
0.702942 0.130127 0.172760
0.909332 0.099274 0.182587
0.965912 0.070160 0.162018
0.142456 0.178802 0.157928
0.180817 0.179260 0.159241
0.246887 0.178375 0.162292
0.345795 0.183594 0.166138
0.499817 0.193878 0.169586
0.707642 0.203186 0.168945
0.896851 0.199127 0.163879
0.956635 0.184753 0.145142
0.150208 0.246460 0.166412
0.185547 0.247467 0.167786
0.254028 0.250031 0.170715
0.359528 0.263733 0.172638
0.522980 0.292328 0.170380
0.719635 0.318726 0.160828
0.899963 0.327850 0.145752
0.953918 0.321320 0.117584
0.145691 0.373962 0.163177
0.196503 0.376465 0.164825
0.286896 0.382507 0.166840
0.402924 0.394623 0.167236
0.560181 0.426056 0.155365
0.741028 0.455017 0.129547
0.908997 0.466675 0.131134
0.958801 0.463104 0.135437
0.072113 0.545654 0.095093
0.175537 0.563293 0.107452
0.313446 0.571533 0.114838
0.454987 0.579529 0.122711
0.598938 0.585968 0.132019
0.758881 0.602142 0.145996
0.918243 0.612091 0.159760
0.965332 0.605713 0.162231
0.095673 0.715424 0.124756
0.104919 0.718079 0.127136
0.303741 0.742371 0.153015
0.467285 0.749786 0.162781
0.622925 0.755280 0.172150
0.777069 0.760437 0.181793
0.926208 0.761169 0.191467
0.972595 0.747650 0.191956
0.119080 0.852600 0.153564
0.119293 0.852173 0.153625
0.277222 0.880951 0.183136
0.456482 0.890656 0.195404
0.615814 0.894684 0.204010
0.768799 0.897186 0.212372
0.916840 0.897461 0.221008
0.979980 0.884949 0.222137
0.127808 0.904327 0.164673
0.127808 0.904327 0.164673
0.259186 0.932556 0.193481
0.432587 0.944122 0.206696
0.583527 0.950531 0.215393
0.726807 0.955505 0.223816
0.864014 0.959839 0.231995
0.984344 0.963257 0.239746
0.136536 0.143494 0.193726
0.177673 0.141327 0.195160
0.243622 0.145142 0.196045
0.342072 0.144928 0.202362
0.497284 0.123718 0.206848
0.707947 0.066498 0.220551
0.869415 0.035248 0.192413
0.926239 0.030762 0.173340
0.143585 0.178680 0.196045
0.179474 0.179382 0.197235
0.243988 0.180969 0.199585
0.345551 0.182495 0.203186
0.502197 0.181305 0.207306
0.705963 0.173096 0.210632
0.896973 0.155396 0.212860
0.964569 0.130463 0.205750
0.149963 0.246307 0.201935
0.184387 0.247375 0.202667
0.253357 0.250031 0.204895
0.361023 0.262482 0.207092
0.524414 0.284180 0.207367
0.717926 0.302887 0.203827
0.898285 0.308197 0.197815
0.957031 0.302155 0.182465
0.118042 0.371429 0.197906
0.180817 0.374268 0.200012
0.278717 0.380188 0.202393
0.397705 0.390198 0.204376
0.555817 0.418823 0.198914
0.738190 0.446594 0.186523
0.907776 0.457031 0.173218
0.959961 0.451752 0.153473
0.067078 0.547028 0.144562
0.129181 0.558380 0.151794
0.297363 0.569550 0.159302
0.447449 0.576843 0.158936
0.595367 0.582550 0.154785
0.756226 0.596405 0.144623
0.916840 0.605530 0.158447
0.965027 0.598877 0.160858
0.095520 0.713104 0.124176
0.095612 0.712646 0.124146
0.279510 0.737732 0.150696
0.455719 0.746094 0.161530
0.616425 0.751709 0.170837
0.774048 0.757538 0.180939
0.926666 0.759460 0.191193
0.972473 0.744659 0.191223
0.119293 0.852173 0.153625
0.118988 0.852051 0.153503
0.255676 0.878693 0.181061
0.447510 0.889740 0.194733
0.611176 0.893799 0.203552
0.765564 0.895325 0.211823
0.915009 0.895538 0.220490
0.979889 0.882690 0.221558
0.127808 0.904327 0.164673
0.127808 0.904327 0.164673
0.255035 0.932098 0.192963
0.431091 0.944031 0.206512
0.583069 0.950500 0.215424
0.726776 0.955475 0.223785
0.864014 0.959778 0.231995
0.984344 0.963257 0.239746
0.135010 0.143250 0.262024
0.172089 0.143890 0.263062
0.242340 0.147034 0.265228
0.342896 0.144623 0.276947
0.502808 0.101196 0.300323
0.687500 0.025452 0.291199
0.875183 0.030731 0.274506
0.927032 0.032166 0.268219
0.142181 0.180756 0.264893
0.177063 0.180908 0.265564
0.245026 0.181610 0.267761
0.349152 0.177551 0.278320
0.511658 0.145630 0.292938
0.695404 0.027283 0.275177
0.874817 0.030670 0.269653
0.927002 0.032104 0.264160
0.142426 0.248901 0.271332
0.176758 0.249725 0.272217
0.251465 0.251282 0.274658
0.369629 0.253845 0.278748
0.537292 0.254974 0.283752
0.728424 0.252350 0.288147
0.907166 0.245789 0.291931
0.957703 0.237701 0.287964
0.040894 0.373810 0.282471
0.119904 0.377106 0.279633
0.256042 0.382568 0.280090
0.395386 0.389893 0.284088
0.564758 0.411835 0.286194
0.749207 0.429504 0.286682
0.919098 0.435120 0.287872
0.963531 0.430115 0.284271
0.058838 0.554993 0.258087
0.058990 0.555511 0.257477
0.244202 0.569641 0.269867
0.430634 0.577820 0.275208
0.596069 0.584564 0.278290
0.766205 0.597443 0.277832
0.928101 0.602600 0.279358
0.971985 0.594147 0.279724
0.098358 0.724670 0.228363
0.097839 0.724182 0.227631
0.216766 0.742950 0.245514
0.439331 0.754395 0.256348
0.615662 0.760193 0.261353
0.781342 0.765381 0.266113
0.936096 0.764526 0.272369
0.980621 0.748199 0.282379
0.124329 0.861603 0.222229
0.124603 0.861237 0.222046
0.210144 0.881805 0.244110
0.438965 0.897736 0.264343
0.611572 0.902008 0.272339
0.771149 0.904083 0.280426
0.923248 0.904175 0.288696
0.989288 0.890717 0.304565
0.133453 0.917969 0.277130
0.133606 0.917877 0.276764
0.269287 0.945190 0.305298
0.444641 0.956329 0.320770
0.596252 0.962769 0.332275
0.739563 0.968018 0.345612
0.876343 0.972687 0.360352
0.996826 0.976807 0.381134
0.119781 0.146851 0.391174
0.171387 0.144653 0.390961
0.259521 0.142426 0.392792
0.364960 0.134186 0.397278
0.512573 0.084900 0.425842
0.693848 0.027588 0.445801
0.878845 0.032928 0.453308
0.927032 0.034119 0.437042
0.108307 0.186066 0.395844
0.165375 0.182800 0.394592
0.257904 0.178589 0.396057
0.367645 0.170837 0.399963
0.519714 0.136810 0.426575
0.698456 0.027618 0.439117
0.880920 0.032867 0.443146
0.927032 0.033997 0.427246
0.046265 0.272552 0.411346
0.127838 0.262115 0.406189
0.244537 0.253479 0.407257
0.379456 0.250702 0.412476
0.546173 0.236115 0.432465
0.739380 0.195740 0.448029
0.925385 0.132507 0.457092
0.972290 0.106964 0.459259
0.031097 0.377808 0.409943
0.043610 0.390594 0.422821
0.226562 0.390472 0.423279
0.394135 0.393768 0.428009
0.576996 0.397217 0.434021
0.760345 0.399994 0.440796
0.926727 0.402283 0.448059
0.962494 0.402710 0.449860
0.043610 0.565704 0.439545
0.043671 0.567108 0.436829
0.124573 0.576935 0.437347
0.405121 0.584412 0.440643
0.597504 0.589691 0.446564
0.774567 0.595276 0.452545
0.934509 0.595673 0.459778
0.972931 0.588531 0.464050
0.069763 0.742371 0.434387
0.068939 0.742523 0.432587
0.075958 0.742126 0.431763
0.412689 0.759186 0.450165
0.607819 0.764587 0.457672
0.782440 0.769379 0.466064
0.938965 0.766846 0.475891
0.983154 0.750732 0.483643
0.104462 0.877258 0.444458
0.104523 0.876831 0.444366
0.187775 0.890625 0.459503
0.435608 0.903564 0.476166
0.612305 0.907379 0.483856
0.773865 0.909576 0.492432
0.926361 0.909943 0.501007
0.992798 0.894592 0.510559
0.111694 0.933563 0.480225
0.141541 0.939850 0.485229
0.318085 0.957214 0.503510
0.470367 0.963959 0.513763
0.612976 0.969116 0.523132
0.750031 0.973572 0.532928
0.881744 0.977661 0.543060
0.998779 0.981232 0.555695
0.051086 0.158386 0.600433
0.154297 0.140167 0.587311
0.277130 0.122986 0.584076
0.408783 0.088104 0.587738
0.539337 0.029358 0.585999
0.697571 0.030029 0.601013
0.877319 0.035065 0.619843
0.925659 0.036285 0.611176
0.036987 0.183319 0.588043
0.119904 0.186432 0.595520
0.266327 0.167358 0.588623
0.406097 0.143555 0.591339
0.554291 0.088623 0.601074
0.701508 0.030090 0.600464
0.879425 0.035065 0.615784
0.925690 0.036194 0.606445
0.023071 0.248322 0.580719
0.023956 0.243134 0.582214
0.221436 0.255341 0.602509
0.399231 0.242645 0.604279
0.563019 0.225220 0.610291
0.739685 0.188660 0.626831
0.923584 0.121674 0.645721
0.972534 0.098572 0.646088
0.033569 0.400757 0.598236
0.033356 0.396942 0.598389
0.123444 0.414124 0.625977
0.384613 0.397491 0.621460
0.578247 0.396301 0.626190
0.759399 0.394470 0.634216
0.924133 0.395935 0.638153
0.961395 0.408936 0.636810
0.045044 0.570679 0.617157
0.045044 0.570892 0.617340
0.057678 0.583344 0.629761
0.385437 0.588379 0.635956
0.591949 0.591827 0.641022
0.771088 0.595490 0.647095
0.928375 0.598999 0.653381
0.972351 0.601471 0.656830
0.056854 0.749756 0.632812
0.056854 0.749573 0.632294
0.056793 0.749054 0.631256
0.404541 0.764191 0.648804
0.605530 0.767700 0.655914
0.779327 0.771667 0.663086
0.931946 0.769562 0.671051
0.982635 0.759674 0.676117
0.066254 0.894226 0.644348
0.066193 0.893707 0.645447
0.239441 0.903625 0.660706
0.462463 0.907257 0.671753
0.625305 0.909821 0.677795
0.778198 0.911438 0.684418
0.923859 0.911835 0.691101
0.992035 0.897064 0.697540
0.291138 0.965088 0.687805
0.332977 0.966034 0.688812
0.418915 0.968079 0.691742
0.529968 0.971191 0.697296
0.648682 0.974518 0.703247
0.769836 0.977966 0.709991
0.889221 0.981323 0.716949
0.998016 0.984375 0.726227
0.039703 0.125000 0.773163
0.074188 0.141693 0.798492
0.266418 0.087860 0.772614
0.410400 0.029144 0.765259
0.559631 0.030609 0.768188
0.712311 0.033600 0.772888
0.871613 0.037445 0.779419
0.923248 0.038605 0.773224
0.015717 0.146301 0.750885
0.058167 0.182953 0.793762
0.248413 0.150909 0.779633
0.412384 0.105865 0.777466
0.555695 0.030548 0.768066
0.712463 0.033569 0.773041
0.874176 0.037506 0.779419
0.923279 0.038605 0.771271
0.022705 0.236847 0.763916
0.022491 0.233856 0.763275
0.174225 0.260284 0.797852
0.393402 0.234436 0.788727
0.568146 0.209961 0.791595
0.739166 0.172455 0.800018
0.920929 0.107452 0.820740
0.968170 0.100830 0.813416
0.033936 0.395294 0.778839
0.033569 0.390015 0.778168
0.055267 0.401520 0.800201
0.367676 0.400909 0.804626
0.571075 0.397766 0.807159
0.750916 0.396301 0.812317
0.916748 0.397095 0.814331
0.958801 0.411774 0.802734
0.045898 0.570892 0.791931
0.045807 0.569916 0.791779
0.045685 0.567871 0.791504
0.373474 0.592651 0.817902
0.583923 0.594666 0.819611
0.762268 0.598145 0.824219
0.919983 0.603882 0.824890
0.970673 0.615631 0.820160
0.057678 0.746613 0.806122
0.057678 0.746887 0.806427
0.059448 0.748444 0.807983
0.397034 0.767944 0.828247
0.601929 0.769409 0.830841
0.773102 0.772858 0.835876
0.919281 0.776398 0.841248
0.981445 0.778778 0.844604
0.067352 0.893555 0.807495
0.067291 0.893097 0.807831
0.236481 0.914124 0.831299
0.468445 0.910309 0.832794
0.641174 0.910645 0.841919
0.786591 0.911621 0.850586
0.919037 0.912720 0.855804
0.990021 0.902771 0.860443
0.325226 0.973145 0.825684
0.372009 0.973267 0.827576
0.467316 0.974487 0.834229
0.587494 0.977051 0.847473
0.704285 0.979919 0.862671
0.802063 0.982300 0.867401
0.902283 0.984833 0.872711
0.995819 0.987213 0.879547
0.020294 0.074707 0.902130
0.055267 0.096191 0.937744
0.222260 0.047607 0.923248
0.393463 0.035248 0.918793
0.548035 0.034821 0.920013
0.700684 0.036774 0.922791
0.854858 0.039825 0.926575
0.919922 0.041321 0.927643
0.013519 0.122955 0.896332
0.046600 0.149811 0.929504
0.201660 0.135376 0.936890
0.386292 0.063354 0.923981
0.540924 0.034729 0.918213
0.697083 0.036652 0.921082
0.853455 0.039764 0.925201
0.919952 0.041260 0.925873
0.021912 0.224365 0.907043
0.021667 0.221191 0.906647
0.086914 0.278290 0.971832
0.366272 0.228058 0.937988
0.545593 0.201263 0.937561
0.714142 0.165375 0.943451
0.889130 0.113434 0.960876
0.963562 0.084778 0.968811
0.032806 0.373199 0.919312
0.032593 0.370880 0.918762
0.056641 0.393280 0.942688
0.341064 0.399506 0.951599
0.544983 0.393829 0.949860
0.720673 0.393066 0.953247
0.886230 0.394836 0.958160
0.954742 0.404144 0.955383
0.045441 0.555145 0.932129
0.045471 0.555695 0.932526
0.069336 0.579865 0.955963
0.370148 0.590637 0.962372
0.567932 0.591156 0.961029
0.737610 0.595367 0.963989
0.895813 0.601654 0.968018
0.967255 0.613098 0.962524
0.056885 0.724426 0.941925
0.056915 0.724945 0.941864
0.100739 0.769836 0.985321
0.410400 0.756561 0.969452
0.602509 0.761444 0.969543
0.762726 0.770477 0.972870
0.904663 0.776550 0.977325
0.978973 0.784973 0.972260
0.067383 0.881348 0.950867
0.077759 0.891571 0.961090
0.249451 0.914307 0.984131
0.471588 0.906616 0.977051
0.640167 0.907562 0.978912
0.787537 0.909821 0.982239
0.912689 0.912323 0.985992
0.987976 0.914307 0.988831
0.341736 0.980865 0.958069
0.386261 0.980042 0.957733
0.478058 0.979767 0.959259
0.594635 0.980957 0.964050
0.716553 0.983154 0.972412
0.832306 0.985809 0.985474
0.921631 0.987946 0.995697
0.993408 0.989594 0.999725
0.000031 0.020874 0.936371
0.040588 0.053589 0.991364
0.169617 0.060120 1.000000
0.358368 0.040070 0.989502
0.511841 0.037018 0.988190
0.658783 0.037933 0.989380
0.805084 0.040283 0.992096
0.918182 0.042603 0.994751
0.010345 0.098511 0.961182
0.034485 0.115448 0.985321
0.135559 0.128143 1.000000
0.345459 0.047333 0.990234
0.504883 0.037079 0.988220
0.655273 0.037903 0.989349
0.803436 0.040253 0.992065
0.918182 0.042603 0.994751
0.020966 0.213531 0.972046
0.020782 0.210449 0.971863
0.092072 0.265869 1.000000
0.332062 0.225098 1.000000
0.506500 0.198547 1.000000
0.664398 0.172272 1.000000
0.815338 0.149384 1.000000
0.927277 0.164001 1.000000
0.031555 0.353882 0.983246
0.031555 0.353485 0.983246
0.064911 0.380005 1.000000
0.312683 0.389465 1.000000
0.505524 0.383453 1.000000
0.671265 0.395142 1.000000
0.819580 0.410309 1.000000
0.929169 0.441345 1.000000
0.044067 0.532318 0.997101
0.044220 0.533997 0.997284
0.141724 0.586884 1.000000
0.387329 0.577759 1.000000
0.552765 0.582458 1.000000
0.701141 0.596527 1.000000
0.836182 0.620544 1.000000
0.934723 0.644348 1.000000
0.072723 0.697601 1.000000
0.143433 0.721710 1.000000
0.324127 0.730530 1.000000
0.499084 0.738800 1.000000
0.649048 0.759064 1.000000
0.767273 0.777588 1.000000
0.868042 0.794800 1.000000
0.945740 0.815643 1.000000
0.329926 0.852814 1.000000
0.402161 0.853424 1.000000
0.497681 0.856659 1.000000
0.616394 0.865326 1.000000
0.733429 0.878754 1.000000
0.840607 0.898895 1.000000
0.920410 0.922333 1.000000
0.968353 0.942047 1.000000
0.548584 0.944214 1.000000
0.577606 0.944916 1.000000
0.640869 0.946838 1.000000
0.729218 0.950775 1.000000
0.825134 0.957489 1.000000
0.911713 0.968323 1.000000
0.974060 0.984344 1.000000
1.000000 1.000000 1.000000
