core-styles/blue.cube
#Created by: Adobe Photoshop Export Color Lookup Plugin
#Copyright: (C) Copyright 2026 小米
TITLE "样片2-sRGB-lut应用.psd"
#LUT size
LUT_3D_SIZE 36
#data domain
DOMAIN_MIN 0.0 0.0 0.0
DOMAIN_MAX 1.0 1.0 1.0
#LUT data points
0.143585 0.143341 0.158508
0.143646 0.143402 0.158569
0.149017 0.142761 0.158691
0.156799 0.142151 0.158752
0.167847 0.141144 0.158997
0.180267 0.140533 0.159271
0.192200 0.140778 0.159302
0.205109 0.140869 0.159515
0.218292 0.141235 0.159515
0.232239 0.141571 0.159637
0.247009 0.142090 0.159729
0.263000 0.142761 0.159973
0.280640 0.142975 0.160736
0.299957 0.143127 0.161407
0.321136 0.143524 0.162231
0.344849 0.143585 0.163391
0.370270 0.144012 0.164459
0.398499 0.143951 0.165375
0.429108 0.143738 0.166473
0.462463 0.143127 0.167297
0.498657 0.141937 0.168274
0.536896 0.140564 0.169159
0.576172 0.138916 0.169983
0.616516 0.136597 0.170959
0.658325 0.133759 0.171906
0.702942 0.130127 0.172760
0.746338 0.125671 0.173798
0.788391 0.120422 0.175323
0.828857 0.114532 0.176697
0.869171 0.107452 0.179169
0.909332 0.099274 0.182587
0.947662 0.091278 0.185425
0.973083 0.083313 0.185913
0.973846 0.078156 0.179657
0.969818 0.074097 0.170868
0.965912 0.070160 0.162018
0.142303 0.145416 0.158356
0.145477 0.145660 0.158325
0.150269 0.146210 0.158386
0.158630 0.146118 0.158600
0.169037 0.146118 0.158661
0.180450 0.146149 0.158875
0.192261 0.146301 0.158997
0.204803 0.146515 0.159119
0.218170 0.146515 0.159149
0.232147 0.146820 0.159454
0.246704 0.147186 0.159851
0.262848 0.147522 0.160309
0.280243 0.148041 0.160950
0.299469 0.148376 0.161774
0.320923 0.148682 0.162842
0.344086 0.149323 0.163544
0.369904 0.149658 0.164642
0.397858 0.150055 0.165619
0.428680 0.150024 0.166687
0.461945 0.149902 0.167633
0.498108 0.149414 0.168457
0.535919 0.148743 0.169189
0.575134 0.147705 0.170074
0.615387 0.146088 0.170807
0.657074 0.143951 0.171387
0.701233 0.141113 0.172211
0.743622 0.137909 0.172821
0.784454 0.133942 0.173401
0.823975 0.129456 0.174164
0.862762 0.124268 0.175079
0.901001 0.118317 0.176605
0.939484 0.111176 0.179321
0.966095 0.103943 0.179932
0.972565 0.096863 0.177551
0.974396 0.089966 0.174561
0.975586 0.083252 0.170837
0.141144 0.150940 0.157898
0.145874 0.151306 0.157959
0.151459 0.151398 0.158112
0.159241 0.151917 0.158234
0.169250 0.152130 0.158325
0.180756 0.152191 0.158417
0.192444 0.152222 0.158600
0.204803 0.152283 0.158722
0.218048 0.152191 0.159149
0.231873 0.152405 0.159332
0.246765 0.152618 0.159912
0.262756 0.152924 0.160797
0.280457 0.153259 0.161438
0.299530 0.153931 0.162262
0.320648 0.154602 0.163025
0.344391 0.155151 0.164062
0.370026 0.155762 0.165070
0.397919 0.156494 0.166046
0.428650 0.156860 0.166901
0.461792 0.157288 0.167694
0.497955 0.157318 0.168701
0.535767 0.157196 0.169342
0.574738 0.156769 0.169891
0.615173 0.155945 0.170502
0.657074 0.154633 0.171051
0.700317 0.152710 0.171539
0.742004 0.150238 0.171570
0.782196 0.147400 0.171814
0.821198 0.143890 0.172119
0.859344 0.139587 0.172668
0.896149 0.135284 0.172791
0.933380 0.129669 0.173920
0.959198 0.124054 0.173462
0.966888 0.117767 0.171326
0.967957 0.112183 0.167633
0.970154 0.105530 0.164520
0.140900 0.159180 0.157501
0.146271 0.159454 0.157471
0.152557 0.159546 0.157593
0.160309 0.159637 0.157776
0.170135 0.159729 0.157959
0.181000 0.159821 0.158203
0.192810 0.159576 0.158569
0.204987 0.159515 0.158905
0.218140 0.159363 0.159241
0.232178 0.159363 0.159821
0.246613 0.159668 0.160492
0.262787 0.160034 0.161102
0.280457 0.160400 0.162079
0.299713 0.161255 0.162720
0.320923 0.162079 0.163635
0.344421 0.162842 0.164734
0.370331 0.163666 0.165588
0.398132 0.164764 0.166412
0.428680 0.165619 0.167236
0.461823 0.166565 0.167969
0.497681 0.167328 0.168945
0.535248 0.167908 0.169525
0.574188 0.168182 0.169952
0.614655 0.168091 0.170502
0.656494 0.167633 0.170746
0.698975 0.166718 0.170593
0.740204 0.165161 0.170563
0.780090 0.163086 0.170471
0.818817 0.160553 0.170044
0.856415 0.157745 0.170013
0.893402 0.153961 0.169830
0.929321 0.150116 0.169495
0.954956 0.145447 0.168549
0.961700 0.140991 0.164917
0.961945 0.136658 0.160034
0.963196 0.131256 0.156464
0.141327 0.168732 0.157410
0.147430 0.168610 0.157410
0.153473 0.168640 0.157593
0.160950 0.168915 0.157684
0.170227 0.169098 0.157928
0.181274 0.168945 0.158203
0.192871 0.168579 0.158875
0.204926 0.168457 0.159302
0.217926 0.168182 0.159821
0.231842 0.168060 0.160583
0.246887 0.168121 0.161255
0.262573 0.168823 0.161926
0.280640 0.169220 0.162903
0.299957 0.170105 0.163574
0.321381 0.171173 0.164398
0.344879 0.172302 0.165405
0.370667 0.173553 0.166199
0.398499 0.175079 0.166992
0.429138 0.176544 0.167786
0.462494 0.177979 0.168488
0.498230 0.179535 0.169281
0.535736 0.180878 0.169739
0.574707 0.181976 0.170044
0.614990 0.182770 0.170288
0.656708 0.183289 0.170288
0.698608 0.183197 0.169830
0.739563 0.182434 0.169861
0.778931 0.181580 0.169067
0.817444 0.179749 0.168365
0.854706 0.177826 0.167694
0.891266 0.175232 0.166901
0.926636 0.172272 0.165924
0.951935 0.168884 0.164185
0.958588 0.165253 0.159943
0.958893 0.161438 0.155121
0.959015 0.157501 0.150299
0.142456 0.178802 0.157928
0.147583 0.178894 0.157898
0.154022 0.178711 0.157990
0.161255 0.178894 0.158295
0.170013 0.179169 0.158661
0.180817 0.179260 0.159241
0.192688 0.179077 0.159729
0.205017 0.178741 0.160156
0.217896 0.178436 0.160767
0.231995 0.178101 0.161713
0.246887 0.178375 0.162292
0.263184 0.178894 0.163055
0.281189 0.179565 0.163849
0.300598 0.180695 0.164795
0.322052 0.182129 0.165253
0.345795 0.183594 0.166138
0.371643 0.185394 0.166931
0.399841 0.187195 0.168030
0.430511 0.189362 0.168793
0.463928 0.191559 0.169250
0.499817 0.193878 0.169586
0.537384 0.196045 0.169983
0.576782 0.198059 0.170197
0.617188 0.199677 0.170135
0.663208 0.201843 0.169586
0.707642 0.203186 0.168945
0.748260 0.203217 0.168427
0.787140 0.203125 0.167267
0.824738 0.202301 0.166382
0.861450 0.200897 0.165039
0.896851 0.199127 0.163879
0.929688 0.196838 0.162567
0.950684 0.194275 0.159698
0.956757 0.191223 0.155426
0.956573 0.188080 0.150146
0.956635 0.184753 0.145142
0.143646 0.189941 0.159058
0.148651 0.190033 0.159180
0.154541 0.189972 0.159424
0.161438 0.190308 0.159576
0.170410 0.190308 0.159912
0.180786 0.190460 0.160400
0.192535 0.190613 0.160919
0.205231 0.190613 0.161530
0.218597 0.190308 0.161865
0.232483 0.190216 0.162750
0.247894 0.190277 0.163666
0.264587 0.190857 0.164337
0.282593 0.191986 0.165009
0.302490 0.193298 0.165741
0.324554 0.194916 0.166443
0.348511 0.196899 0.167480
0.374786 0.199097 0.168121
0.402802 0.201752 0.168915
0.433838 0.204468 0.169434
0.467468 0.207367 0.170044
0.503540 0.210419 0.170349
0.541901 0.213562 0.170288
0.581879 0.216522 0.170197
0.623260 0.219269 0.169739
0.664917 0.221558 0.168976
0.718079 0.225372 0.167694
0.758575 0.226349 0.166718
0.797577 0.226593 0.165588
0.834503 0.226715 0.164124
0.870667 0.225830 0.162750
0.905304 0.224579 0.160950
0.937866 0.222931 0.159241
0.955719 0.220825 0.155853
0.955688 0.218170 0.150879
0.955414 0.215515 0.145569
0.955261 0.212585 0.139893
0.144714 0.202667 0.160645
0.150146 0.202606 0.160706
0.155548 0.202667 0.160950
0.162567 0.202789 0.161285
0.171204 0.202911 0.161469
0.181152 0.203156 0.161926
0.193237 0.203156 0.162415
0.206116 0.203278 0.162994
0.219910 0.203369 0.163483
0.234161 0.203339 0.164368
0.249573 0.203827 0.165161
0.266724 0.204590 0.165833
0.285400 0.205841 0.166504
0.305817 0.207520 0.167206
0.327728 0.209869 0.167816
0.352417 0.212219 0.168610
0.378998 0.214905 0.169312
0.407623 0.218079 0.170105
0.438782 0.221497 0.170593
0.472687 0.225128 0.170837
0.509277 0.229095 0.170624
0.548218 0.233185 0.170410
0.589020 0.237305 0.169678
0.631165 0.240997 0.169159
0.673584 0.244202 0.167938
0.715302 0.246826 0.166779
0.755951 0.248901 0.165253
0.795166 0.249817 0.163849
0.832489 0.250427 0.162079
0.868408 0.250397 0.159912
0.902985 0.249725 0.158081
0.935852 0.248627 0.155762
0.955261 0.247009 0.152100
0.955048 0.244843 0.146667
0.954803 0.242310 0.141266
0.954407 0.239777 0.135406
0.146332 0.215485 0.162445
0.151306 0.215485 0.162323
0.156586 0.215576 0.162720
0.163666 0.215637 0.162872
0.171844 0.215942 0.163269
0.182037 0.216003 0.163757
0.193542 0.216309 0.164154
0.206390 0.216431 0.164673
0.220001 0.216766 0.165314
0.234650 0.217041 0.166168
0.250122 0.217834 0.166626
0.267273 0.218933 0.167480
0.286102 0.220581 0.168274
0.306702 0.222687 0.168884
0.329559 0.225037 0.169586
0.354126 0.227966 0.170380
0.380707 0.231415 0.170685
0.409546 0.235077 0.170990
0.440918 0.239044 0.171204
0.475128 0.243469 0.171265
0.512543 0.248413 0.171021
0.551727 0.253418 0.170410
0.591980 0.258240 0.169464
0.633270 0.262512 0.168274
0.674683 0.266479 0.166992
0.715607 0.269836 0.165466
0.755829 0.272400 0.163422
0.794403 0.274170 0.161530
0.831451 0.275146 0.159302
0.866974 0.275604 0.157013
0.901398 0.275360 0.154907
0.934601 0.274628 0.152374
0.954865 0.273224 0.148468
0.954803 0.271576 0.142609
0.954407 0.269440 0.136475
0.954163 0.266785 0.130676
0.148315 0.229919 0.164398
0.153290 0.229980 0.164520
0.158142 0.230194 0.164764
0.165161 0.230286 0.165100
0.173401 0.230621 0.165375
0.183594 0.230682 0.165680
0.194885 0.230927 0.166321
0.207336 0.231415 0.166779
0.221008 0.231812 0.167419
0.235565 0.232330 0.168213
0.251526 0.232635 0.168823
0.268616 0.234253 0.169556
0.287933 0.236267 0.170044
0.308990 0.238800 0.170624
0.331909 0.241760 0.171204
0.356598 0.245331 0.171631
0.383514 0.249176 0.171844
0.412598 0.253418 0.172028
0.444366 0.258270 0.171875
0.479706 0.263947 0.171478
0.517426 0.269592 0.171021
0.556122 0.275238 0.170013
0.595825 0.280548 0.168823
0.636414 0.285614 0.167236
0.677307 0.290131 0.165619
0.717712 0.293976 0.163422
0.757324 0.297089 0.161438
0.795410 0.299377 0.158752
0.832153 0.300690 0.156464
0.867371 0.301544 0.153625
0.901245 0.301697 0.150787
0.934143 0.301178 0.147919
0.954285 0.300110 0.143768
0.954773 0.298462 0.137451
0.954376 0.296356 0.131165
0.953796 0.294220 0.124573
0.150208 0.246460 0.166412
0.155304 0.246643 0.166473
0.160187 0.246857 0.166748
0.166779 0.247070 0.166962
0.175415 0.247284 0.167236
0.185547 0.247467 0.167786
0.196686 0.247955 0.168304
0.209442 0.248383 0.168793
0.223236 0.248871 0.169312
0.238342 0.249268 0.169983
0.254028 0.250031 0.170715
0.270905 0.250641 0.171387
0.289978 0.252991 0.171783
0.311127 0.256042 0.171997
0.334198 0.259644 0.172485
0.359528 0.263733 0.172638
0.387115 0.268280 0.172638
0.417419 0.273529 0.172699
0.450073 0.279633 0.172333
0.485779 0.285980 0.171509
0.522980 0.292328 0.170380
0.561401 0.298462 0.169067
0.600616 0.304260 0.167389
0.640259 0.309875 0.165100
0.680237 0.314697 0.163239
0.719635 0.318726 0.160828
0.758118 0.322205 0.158051
0.795349 0.324646 0.155273
0.831390 0.326385 0.152161
0.866333 0.327362 0.149292
0.899963 0.327850 0.145752
0.932648 0.327576 0.142548
0.953308 0.326691 0.137970
0.954834 0.325226 0.131378
0.954407 0.323334 0.124481
0.953918 0.321320 0.117584
0.151489 0.265259 0.168030
0.156708 0.265228 0.168213
0.161957 0.265564 0.168182
0.168335 0.266052 0.168671
0.177368 0.266205 0.168945
0.187592 0.266632 0.169189
0.199493 0.266998 0.169647
0.212463 0.267609 0.170135
0.226685 0.268219 0.170746
0.241821 0.268982 0.171295
0.258240 0.269806 0.171814
0.275146 0.270874 0.172455
0.293182 0.271698 0.173218
0.314423 0.274811 0.173492
0.338043 0.279083 0.173737
0.364197 0.283997 0.173553
0.392212 0.289429 0.173218
0.422913 0.295380 0.172943
0.455872 0.302094 0.171997
0.491486 0.309082 0.170898
0.528137 0.316071 0.169189
0.566040 0.322571 0.167542
0.604950 0.328766 0.165314
0.644196 0.334595 0.162903
0.683258 0.339905 0.160278
0.722076 0.344269 0.157532
0.759827 0.348022 0.154022
0.796570 0.350677 0.150879
0.832062 0.352600 0.147308
0.866455 0.353882 0.143219
0.899872 0.354279 0.139465
0.932190 0.354248 0.135651
0.952820 0.353516 0.130859
0.954987 0.352295 0.124695
0.954742 0.350861 0.120117
0.954559 0.349091 0.117950
0.152191 0.286774 0.168640
0.157288 0.287018 0.168915
0.162964 0.287231 0.169067
0.170288 0.287537 0.169373
0.179321 0.287994 0.169708
0.190033 0.288513 0.170166
0.202362 0.289093 0.170563
0.215912 0.289795 0.170837
0.230408 0.290649 0.171478
0.246582 0.291412 0.171967
0.263763 0.292633 0.172424
0.282135 0.293915 0.172974
0.300720 0.295471 0.173492
0.323608 0.299683 0.174194
0.347931 0.304504 0.174225
0.374725 0.310059 0.173981
0.403992 0.316437 0.173218
0.435547 0.323334 0.172302
0.469727 0.330719 0.170746
0.505676 0.338287 0.169067
0.542480 0.345703 0.166687
0.580353 0.352570 0.164062
0.618683 0.358978 0.161407
0.657074 0.364868 0.158203
0.695374 0.369965 0.155121
0.732880 0.374268 0.151672
0.769745 0.377747 0.147858
0.805206 0.380219 0.143707
0.839600 0.381744 0.139252
0.872925 0.382629 0.135284
0.905151 0.383026 0.131317
0.935608 0.382904 0.128998
0.954346 0.382446 0.126801
0.955627 0.381287 0.123505
0.955505 0.379883 0.121918
0.955505 0.378204 0.121399
0.152008 0.312378 0.168427
0.157410 0.312714 0.168732
0.163727 0.312927 0.168823
0.171295 0.313538 0.169098
0.181458 0.313995 0.169556
0.192810 0.314758 0.169891
0.205872 0.315491 0.170258
0.220398 0.316467 0.170471
0.236145 0.317444 0.171112
0.253082 0.318604 0.171753
0.271576 0.320099 0.172089
0.290985 0.321930 0.172668
0.311249 0.323883 0.173035
0.332214 0.326019 0.173370
0.357025 0.330811 0.173767
0.383057 0.335663 0.173615
0.412628 0.342377 0.172577
0.444977 0.350128 0.171143
0.479492 0.358215 0.168945
0.515106 0.366211 0.166473
0.551941 0.373749 0.163696
0.589355 0.380890 0.160614
0.627167 0.387451 0.156982
0.665070 0.393372 0.153259
0.702515 0.398376 0.149323
0.739105 0.402496 0.145203
0.774933 0.405853 0.140808
0.809601 0.408081 0.136047
0.843231 0.409698 0.131592
0.876160 0.410645 0.127838
0.908386 0.411255 0.127991
0.939117 0.411438 0.126923
0.956726 0.410980 0.126709
0.956665 0.409973 0.126373
0.956604 0.408569 0.126343
0.956573 0.406799 0.125977
0.149780 0.341888 0.166840
0.156067 0.342224 0.166992
0.163086 0.342468 0.167175
0.171387 0.343140 0.167694
0.182343 0.343628 0.167999
0.195282 0.344360 0.168396
0.209564 0.345215 0.168640
0.224762 0.346375 0.169159
0.241943 0.347443 0.169617
0.260284 0.348846 0.169861
0.279785 0.350586 0.170349
0.300232 0.352600 0.170624
0.321533 0.354919 0.170959
0.343933 0.357239 0.171173
0.367004 0.359863 0.171417
0.390442 0.362457 0.171600
0.418304 0.367523 0.170898
0.449890 0.375092 0.169098
0.484192 0.383575 0.166534
0.519531 0.391663 0.163635
0.555756 0.399445 0.160217
0.592773 0.406647 0.156372
0.630005 0.413361 0.151917
0.666931 0.419342 0.147095
0.703644 0.424377 0.142334
0.739746 0.428528 0.137390
0.774963 0.431793 0.132843
0.809296 0.434204 0.127411
0.843048 0.436188 0.126068
0.875946 0.437714 0.125092
0.907990 0.438538 0.126434
0.939331 0.438995 0.129425
0.957794 0.438843 0.131348
0.957733 0.438019 0.131042
0.957642 0.436584 0.130798
0.957611 0.434906 0.130493
0.145691 0.373962 0.163177
0.152985 0.374359 0.163361
0.160706 0.374786 0.163544
0.170837 0.375122 0.163910
0.182617 0.375732 0.164368
0.196503 0.376465 0.164825
0.212158 0.377167 0.165344
0.228821 0.378204 0.165802
0.246826 0.379364 0.166107
0.266388 0.380707 0.166412
0.286896 0.382507 0.166840
0.308563 0.384521 0.166992
0.330841 0.386932 0.167358
0.354370 0.389374 0.167236
0.378296 0.392059 0.167084
0.402924 0.394623 0.167236
0.427734 0.397095 0.167053
0.456482 0.402283 0.165863
0.489502 0.409882 0.163269
0.524384 0.418182 0.159485
0.560181 0.426056 0.155365
0.596649 0.433319 0.150696
0.633087 0.440094 0.145050
0.669434 0.445923 0.139526
0.705414 0.450928 0.133972
0.741028 0.455017 0.129547
0.775940 0.458466 0.124908
0.810120 0.461243 0.122406
0.843903 0.463715 0.124573
0.876923 0.465424 0.128265
0.908997 0.466675 0.131134
0.940216 0.467255 0.134308
0.958893 0.467133 0.136017
0.958893 0.466309 0.136017
0.958801 0.464966 0.135559
0.958801 0.463104 0.135437
0.139313 0.408112 0.156860
0.147705 0.408722 0.157135
0.156128 0.409424 0.157715
0.167572 0.409912 0.158020
0.181152 0.410492 0.158386
0.196564 0.411194 0.158936
0.213715 0.412018 0.159332
0.232391 0.412872 0.159882
0.251770 0.414124 0.160126
0.272522 0.415680 0.160522
0.294342 0.417542 0.160583
0.317261 0.419556 0.160706
0.340698 0.421906 0.160858
0.365082 0.424347 0.160736
0.389862 0.426971 0.160522
0.415466 0.429535 0.160248
0.441193 0.431946 0.159668
0.467194 0.434296 0.159149
0.496185 0.438629 0.157745
0.529663 0.445770 0.153809
0.565033 0.453644 0.148499
0.600677 0.460876 0.142700
0.636658 0.467377 0.136475
0.672272 0.472992 0.131653
0.707672 0.478027 0.126770
0.742676 0.482117 0.121277
0.777771 0.486115 0.123383
0.812042 0.489319 0.126892
0.845459 0.491882 0.130066
0.878296 0.493774 0.133514
0.910339 0.495056 0.136597
0.941345 0.495758 0.139435
0.960114 0.495697 0.141174
0.960205 0.494873 0.140717
0.960144 0.493530 0.140594
0.960114 0.491760 0.140594
0.128571 0.443756 0.147034
0.138428 0.444763 0.147736
0.149200 0.445496 0.148132
0.162323 0.446228 0.148804
0.177948 0.446960 0.149414
0.195007 0.448151 0.149872
0.214600 0.448975 0.150482
0.234711 0.450317 0.150879
0.255981 0.451782 0.151245
0.278259 0.453400 0.151459
0.301666 0.455109 0.151672
0.325592 0.457214 0.151489
0.350159 0.459290 0.151459
0.375366 0.461365 0.151215
0.400909 0.463470 0.150787
0.426819 0.465607 0.149963
0.453094 0.467590 0.149506
0.479584 0.469391 0.148560
0.506378 0.471313 0.147766
0.535583 0.474731 0.145386
0.569214 0.481262 0.140015
0.604340 0.488251 0.133514
0.639557 0.494598 0.126556
0.675049 0.500427 0.121613
0.710541 0.505920 0.122162
0.745911 0.510681 0.126068
0.780609 0.514801 0.129486
0.814545 0.518097 0.132812
0.847839 0.520721 0.136108
0.880463 0.522675 0.139008
0.912201 0.523956 0.142029
0.943024 0.524597 0.144775
0.961487 0.524506 0.146545
0.961456 0.523529 0.146210
0.961395 0.522064 0.146057
0.961304 0.520203 0.145630
0.112274 0.478760 0.132782
0.125824 0.479919 0.133820
0.138611 0.480988 0.134583
0.154053 0.482086 0.135498
0.171570 0.483307 0.136383
0.191345 0.484528 0.137115
0.212585 0.485809 0.137634
0.234711 0.487183 0.138031
0.257874 0.488586 0.138306
0.281830 0.490204 0.138611
0.306458 0.491943 0.138367
0.331665 0.493683 0.138245
0.357117 0.495667 0.137756
0.383118 0.497681 0.137238
0.409637 0.499542 0.136475
0.436310 0.501404 0.135468
0.463287 0.503174 0.134186
0.490326 0.504883 0.132904
0.517639 0.506500 0.131500
0.545319 0.508057 0.129486
0.574463 0.510651 0.126648
0.607910 0.516510 0.122620
0.643372 0.523285 0.122101
0.678864 0.529541 0.125183
0.714111 0.535095 0.128815
0.749084 0.539978 0.131989
0.783447 0.544037 0.135406
0.817169 0.547272 0.138885
0.850250 0.549927 0.141754
0.882629 0.551697 0.144989
0.914124 0.552979 0.147858
0.944611 0.553650 0.150574
0.962921 0.553467 0.151978
0.962891 0.552368 0.151855
0.962708 0.550842 0.151459
0.962677 0.548737 0.151123
0.086914 0.510468 0.107880
0.105255 0.513672 0.110687
0.119568 0.521637 0.108948
0.139130 0.524139 0.110291
0.161469 0.525879 0.111359
0.184753 0.527466 0.112732
0.208862 0.528961 0.113739
0.233612 0.530365 0.114349
0.259369 0.531647 0.114532
0.285217 0.533325 0.114594
0.311859 0.534851 0.114197
0.338806 0.536469 0.114075
0.365845 0.538177 0.115540
0.393188 0.539948 0.116730
0.420807 0.541595 0.118286
0.448517 0.543213 0.119385
0.476349 0.544739 0.120728
0.504364 0.546051 0.121826
0.532379 0.547302 0.123199
0.560760 0.548523 0.124939
0.589203 0.549774 0.126251
0.618408 0.551758 0.127319
0.651855 0.556671 0.128845
0.686646 0.562347 0.132629
0.721100 0.567505 0.135895
0.755432 0.571808 0.139313
0.789001 0.575500 0.142578
0.821991 0.578186 0.145599
0.854218 0.580322 0.148529
0.885895 0.581879 0.151123
0.916809 0.582794 0.153839
0.946442 0.583191 0.156281
0.964264 0.582764 0.157654
0.964203 0.581512 0.157288
0.964111 0.579681 0.157043
0.964050 0.577393 0.156769
0.072113 0.545654 0.095093
0.076233 0.546631 0.095490
0.096619 0.551086 0.098999
0.122467 0.557526 0.102112
0.149048 0.560699 0.105255
0.175537 0.563293 0.107452
0.202820 0.565186 0.109406
0.230377 0.566772 0.110535
0.257568 0.568390 0.112213
0.285522 0.569885 0.113403
0.313446 0.571533 0.114838
0.341705 0.573181 0.116150
0.369904 0.574829 0.117371
0.398132 0.576508 0.118958
0.426575 0.578033 0.120697
0.454987 0.579529 0.122711
0.483582 0.580933 0.124481
0.512177 0.582184 0.126343
0.540985 0.583405 0.128113
0.569855 0.584595 0.130219
0.598938 0.585968 0.132019
0.628143 0.587219 0.134308
0.657593 0.588776 0.136566
0.690826 0.593170 0.139496
0.725037 0.597992 0.142761
0.758881 0.602142 0.145996
0.792114 0.605530 0.148987
0.824646 0.608124 0.151947
0.856628 0.610046 0.154694
0.887848 0.611359 0.157288
0.918243 0.612091 0.159760
0.947937 0.612274 0.161987
0.965637 0.611603 0.163330
0.965607 0.610168 0.163208
0.965485 0.608185 0.162781
0.965332 0.605713 0.162231
0.072968 0.580261 0.096222
0.072510 0.581146 0.096741
0.076721 0.582520 0.097198
0.099335 0.586731 0.101471
0.133728 0.593323 0.107483
0.164764 0.597137 0.111450
0.195404 0.599701 0.113831
0.225372 0.601776 0.116089
0.254578 0.603638 0.118286
0.284088 0.605255 0.120178
0.313446 0.606873 0.122101
0.342834 0.608551 0.123566
0.372131 0.610107 0.125580
0.401215 0.611694 0.127167
0.430389 0.613159 0.129242
0.459656 0.614502 0.130981
0.488861 0.615906 0.132721
0.517944 0.617188 0.134583
0.547241 0.618408 0.136414
0.576569 0.619476 0.138458
0.606049 0.620667 0.140472
0.635712 0.621918 0.142426
0.665466 0.623322 0.144440
0.695374 0.624725 0.146637
0.728271 0.628387 0.149536
0.761566 0.632202 0.152771
0.794525 0.635437 0.155640
0.826904 0.637878 0.158203
0.858398 0.639587 0.160980
0.889282 0.640625 0.163452
0.919373 0.641144 0.165833
0.948730 0.641144 0.167969
0.966827 0.640381 0.169189
0.966980 0.638763 0.168976
0.966919 0.636566 0.168427
0.966705 0.633850 0.167969
0.078552 0.614502 0.103607
0.078613 0.615112 0.103760
0.078674 0.615723 0.103882
0.083679 0.616730 0.104431
0.111572 0.623840 0.111115
0.151337 0.630249 0.117493
0.186066 0.633667 0.121094
0.218842 0.636322 0.124023
0.250519 0.638306 0.126221
0.281891 0.640015 0.128113
0.312317 0.641785 0.130188
0.342834 0.643341 0.132080
0.373016 0.644928 0.133789
0.403168 0.646362 0.135620
0.433197 0.647766 0.137329
0.463013 0.649170 0.139038
0.492767 0.650513 0.141022
0.522583 0.651764 0.142792
0.552490 0.652985 0.144745
0.582245 0.654236 0.146637
0.612396 0.655579 0.148499
0.642578 0.656860 0.150726
0.672760 0.658325 0.152863
0.703125 0.659760 0.155060
0.733734 0.661163 0.157227
0.766022 0.664185 0.159821
0.798676 0.667084 0.162689
0.830780 0.669342 0.165344
0.862061 0.670837 0.167847
0.892609 0.671661 0.170258
0.922272 0.671906 0.172333
0.950562 0.671539 0.174347
0.968079 0.670471 0.175385
0.968536 0.668518 0.175110
0.968414 0.665985 0.174744
0.968201 0.662994 0.174072
0.084473 0.649231 0.110901
0.084229 0.649780 0.111206
0.084595 0.650146 0.110931
0.084747 0.650421 0.111206
0.091400 0.652130 0.112610
0.133240 0.661774 0.122101
0.175079 0.667175 0.127716
0.211395 0.670410 0.131134
0.245575 0.672699 0.133759
0.278442 0.674622 0.136169
0.310577 0.676453 0.138123
0.342255 0.678101 0.139923
0.373444 0.679596 0.141998
0.404449 0.681000 0.143799
0.435120 0.682373 0.145599
0.465515 0.683777 0.147400
0.496063 0.684967 0.148987
0.526337 0.686127 0.150970
0.556641 0.687439 0.152802
0.587036 0.688629 0.154877
0.617462 0.689972 0.156647
0.647980 0.691284 0.158691
0.678619 0.692596 0.160706
0.709290 0.694031 0.162933
0.740112 0.695496 0.165131
0.770996 0.696869 0.167480
0.802856 0.699127 0.169891
0.834595 0.701050 0.172363
0.865631 0.702271 0.174835
0.895935 0.702881 0.176819
0.925354 0.702850 0.179016
0.953766 0.702209 0.181000
0.970154 0.700745 0.181915
0.970032 0.698425 0.181366
0.969879 0.695526 0.180817
0.969727 0.692108 0.179962
0.090302 0.683899 0.118073
0.090424 0.684113 0.118042
0.090118 0.684418 0.118378
0.090393 0.684479 0.118225
0.090240 0.684540 0.118408
0.108582 0.689026 0.122955
0.161163 0.699066 0.133209
0.202515 0.703522 0.137939
0.239410 0.706360 0.141144
0.274048 0.708679 0.143677
0.307953 0.710449 0.145813
0.340759 0.712250 0.147919
0.373108 0.713776 0.149872
0.404907 0.715240 0.151794
0.436218 0.716644 0.153412
0.467407 0.717926 0.155487
