core-styles/classic.cube
#Created by: Adobe Photoshop Export Color Lookup Plugin
#Copyright: (C) Copyright 2026 小米
TITLE "复古胶片2"
#LUT size
LUT_3D_SIZE 36
#data domain
DOMAIN_MIN 0.0 0.0 0.0
DOMAIN_MAX 1.0 1.0 1.0
#LUT data points
0.156036 0.160583 0.145721
0.151947 0.160797 0.145782
0.134735 0.161652 0.145935
0.111725 0.162231 0.146210
0.091705 0.161377 0.146637
0.080872 0.159912 0.146820
0.081543 0.158722 0.146637
0.095062 0.158020 0.146210
0.120972 0.158081 0.145508
0.154785 0.158997 0.144226
0.192291 0.160736 0.142212
0.234009 0.163422 0.139160
0.280273 0.165924 0.134644
0.331024 0.168915 0.128265
0.386322 0.170715 0.119781
0.445496 0.171417 0.107971
0.507202 0.170715 0.092651
0.570038 0.168213 0.074768
0.633911 0.163971 0.064178
0.695892 0.158569 0.062744
0.753326 0.152069 0.062744
0.805145 0.144867 0.062744
0.851166 0.138580 0.062744
0.888763 0.134186 0.062744
0.919250 0.132813 0.062744
0.945404 0.133026 0.062744
0.967896 0.135803 0.062744
0.987488 0.141022 0.062744
0.997528 0.148224 0.062744
1.000000 0.157318 0.062744
1.000000 0.168030 0.062744
1.000000 0.179901 0.062744
1.000000 0.192719 0.062744
1.000000 0.206573 0.062744
1.000000 0.221191 0.062744
1.000000 0.236420 0.062744
0.156769 0.157684 0.144714
0.153107 0.156616 0.145203
0.138580 0.154175 0.145874
0.119720 0.153168 0.146118
0.101257 0.153076 0.146179
0.089203 0.153259 0.146027
0.087585 0.153656 0.145782
0.098816 0.154388 0.145172
0.122620 0.155609 0.144196
0.155090 0.157532 0.142609
0.192078 0.160065 0.139984
0.233124 0.163147 0.136414
0.278687 0.166809 0.131561
0.329224 0.170654 0.124786
0.384460 0.173767 0.115936
0.443390 0.175690 0.103882
0.504913 0.176147 0.088531
0.567535 0.174927 0.071686
0.631134 0.172363 0.062927
0.693085 0.168365 0.062744
0.751038 0.163208 0.062744
0.803406 0.157928 0.062744
0.849060 0.153351 0.062744
0.886627 0.149475 0.062744
0.917450 0.147919 0.062744
0.943756 0.148346 0.062744
0.966492 0.150757 0.062744
0.986176 0.155151 0.062744
0.997101 0.161499 0.062744
1.000000 0.169250 0.062744
1.000000 0.178650 0.062744
1.000000 0.189606 0.062744
1.000000 0.201599 0.062744
1.000000 0.214630 0.062744
1.000000 0.228363 0.062744
1.000000 0.242737 0.062744
0.159546 0.147949 0.141968
0.153534 0.149597 0.141907
0.144318 0.146851 0.144073
0.126160 0.145294 0.145203
0.109833 0.145020 0.145325
0.097565 0.146179 0.145081
0.094666 0.147919 0.144501
0.104187 0.149963 0.143585
0.126068 0.152405 0.142090
0.156921 0.155365 0.139984
0.192871 0.158844 0.136963
0.233368 0.163025 0.133301
0.278595 0.167786 0.127991
0.328888 0.172852 0.120941
0.383820 0.177277 0.111450
0.442505 0.180389 0.098816
0.503693 0.182037 0.083557
0.566101 0.182251 0.069733
0.629395 0.180908 0.062744
0.691223 0.178253 0.062744
0.749359 0.174530 0.062744
0.801849 0.170715 0.062744
0.846985 0.167267 0.062744
0.884338 0.164276 0.062744
0.915039 0.162872 0.062744
0.941315 0.163361 0.062744
0.964111 0.165192 0.062744
0.983948 0.168640 0.062744
0.996429 0.173950 0.062744
1.000000 0.180878 0.062744
1.000000 0.189087 0.062744
1.000000 0.198792 0.062744
1.000000 0.209717 0.062744
1.000000 0.221771 0.062744
1.000000 0.234772 0.062744
1.000000 0.248322 0.062744
0.159241 0.138367 0.138184
0.152863 0.140442 0.138245
0.146851 0.140320 0.138336
0.135651 0.137695 0.140900
0.118042 0.137360 0.141815
0.106812 0.138458 0.141663
0.103424 0.140961 0.140930
0.110870 0.144348 0.139893
0.130066 0.148254 0.138336
0.158752 0.152740 0.136139
0.193359 0.157715 0.133057
0.232941 0.163452 0.128998
0.277344 0.169830 0.123566
0.327301 0.176361 0.116302
0.381683 0.182190 0.106201
0.440002 0.186798 0.093140
0.501129 0.189972 0.077240
0.563568 0.191803 0.067352
0.627197 0.192047 0.062744
0.689178 0.190979 0.062744
0.747589 0.188843 0.062744
0.800385 0.186249 0.062744
0.845032 0.183746 0.062744
0.882263 0.181671 0.062744
0.913055 0.180939 0.062744
0.939575 0.180878 0.062744
0.962524 0.182373 0.062744
0.982513 0.185486 0.062744
0.995819 0.189697 0.062744
1.000000 0.195526 0.062744
1.000000 0.202850 0.062744
1.000000 0.211517 0.062744
1.000000 0.221222 0.062744
1.000000 0.232147 0.062744
1.000000 0.244110 0.062744
1.000000 0.257141 0.062744
0.155273 0.130859 0.133575
0.150574 0.132538 0.133759
0.145477 0.134186 0.133209
0.140076 0.132721 0.133881
0.128906 0.130676 0.136322
0.114746 0.131805 0.136902
0.110779 0.134613 0.136383
0.117249 0.138794 0.135223
0.134186 0.144226 0.133575
0.160614 0.150513 0.131287
0.193665 0.157379 0.128052
0.232208 0.164978 0.123840
0.275940 0.173096 0.118011
0.325317 0.181152 0.110107
0.379395 0.188751 0.099030
0.437500 0.195129 0.085938
0.498474 0.200195 0.071564
0.560730 0.203705 0.064789
0.624237 0.205750 0.062744
0.686768 0.206421 0.062744
0.745270 0.205933 0.062744
0.797882 0.204559 0.062744
0.842255 0.203064 0.062744
0.879456 0.201874 0.062744
0.910461 0.201080 0.062744
0.937439 0.201141 0.062744
0.960724 0.202301 0.062744
0.981049 0.204895 0.062744
0.995392 0.208527 0.062744
1.000000 0.213409 0.062744
1.000000 0.219543 0.062744
1.000000 0.227203 0.062744
1.000000 0.236053 0.062744
1.000000 0.245880 0.062744
1.000000 0.256927 0.062744
1.000000 0.269104 0.062744
0.150146 0.125641 0.128998
0.146851 0.126770 0.129181
0.143280 0.128113 0.128998
0.138855 0.129089 0.128357
0.133942 0.127502 0.129456
0.124878 0.126251 0.131104
0.117310 0.129456 0.131317
0.121796 0.134552 0.130341
0.137390 0.141235 0.128479
0.162079 0.149506 0.125885
0.193848 0.158661 0.122314
0.231628 0.168213 0.117737
0.274872 0.178223 0.111206
0.323883 0.188232 0.102234
0.377777 0.197632 0.090698
0.435883 0.205841 0.076813
0.496765 0.212860 0.068665
0.559143 0.218170 0.062744
0.622406 0.221985 0.062744
0.685089 0.224396 0.062744
0.743744 0.225494 0.062744
0.795715 0.225342 0.062744
0.839752 0.224670 0.062744
0.876953 0.223999 0.062744
0.908173 0.223389 0.062744
0.935364 0.223389 0.062744
0.958923 0.224548 0.062744
0.986023 0.229614 0.062744
0.994873 0.232971 0.062744
1.000000 0.237244 0.062744
1.000000 0.242645 0.062744
1.000000 0.249298 0.062744
1.000000 0.257233 0.062744
1.000000 0.266205 0.062744
1.000000 0.276337 0.062744
1.000000 0.287567 0.062744
0.143707 0.123260 0.124847
0.141388 0.123871 0.124939
0.139099 0.124451 0.124786
0.136078 0.125366 0.124359
0.132690 0.125519 0.123962
0.128998 0.125000 0.124695
0.124146 0.125946 0.125580
0.126862 0.132324 0.124847
0.141327 0.140747 0.122864
0.165344 0.150909 0.119873
0.196838 0.162720 0.115601
0.234741 0.175079 0.109833
0.278320 0.187561 0.102081
0.327728 0.199585 0.091797
0.382111 0.210907 0.079254
0.440613 0.220947 0.069977
0.501953 0.229614 0.064667
0.564331 0.236786 0.062744
0.628723 0.242401 0.062744
0.691833 0.246460 0.062744
0.750549 0.248901 0.062744
0.801514 0.249817 0.062744
0.844757 0.249786 0.062744
0.881226 0.249451 0.062744
0.911926 0.249207 0.062744
0.938599 0.249329 0.062744
0.961761 0.250336 0.062744
0.984283 0.253174 0.062744
0.998657 0.257507 0.062744
1.000000 0.261292 0.062744
1.000000 0.266083 0.062744
1.000000 0.272003 0.062744
1.000000 0.278992 0.062744
1.000000 0.287231 0.062744
1.000000 0.296417 0.062744
1.000000 0.306763 0.062744
0.135651 0.124725 0.121490
0.134399 0.124664 0.121429
0.132965 0.124603 0.121002
0.131287 0.124664 0.120575
0.129456 0.124512 0.120087
0.127472 0.125153 0.119904
0.126251 0.126862 0.119873
0.127747 0.131134 0.119843
0.143555 0.141876 0.117554
0.167786 0.154083 0.114044
0.199066 0.167786 0.109131
0.237274 0.183167 0.101929
0.281433 0.198639 0.092590
0.331573 0.213898 0.080597
0.386719 0.227173 0.069366
0.445801 0.239105 0.064484
0.507507 0.249573 0.062744
0.570618 0.258423 0.062744
0.635925 0.265961 0.062744
0.699249 0.271423 0.062744
0.758179 0.275024 0.062744
0.808289 0.276703 0.062744
0.850555 0.277161 0.062744
0.886108 0.277039 0.062744
0.916199 0.276947 0.062744
0.942352 0.277100 0.062744
0.965088 0.277863 0.062744
0.984863 0.279358 0.062744
0.996765 0.281464 0.062744
1.000000 0.284546 0.062744
1.000000 0.288635 0.062744
1.000000 0.293762 0.062744
1.000000 0.299988 0.062744
1.000000 0.307251 0.062744
1.000000 0.315613 0.062744
1.000000 0.325012 0.062744
0.125580 0.130829 0.119415
0.125549 0.129974 0.119049
0.125092 0.129333 0.118408
0.124573 0.128479 0.117676
0.124359 0.127350 0.117096
0.124115 0.126801 0.116821
0.123901 0.129517 0.116394
0.126923 0.134399 0.115540
0.137085 0.142242 0.113983
0.166168 0.158081 0.109650
0.197937 0.173706 0.103851
0.235413 0.190491 0.095947
0.279449 0.208466 0.085266
0.329865 0.227142 0.071655
0.385529 0.243805 0.064697
0.445007 0.258423 0.062744
0.507019 0.270660 0.062744
0.570923 0.281464 0.062744
0.636017 0.290253 0.062744
0.699860 0.297333 0.062744
0.757233 0.301605 0.062744
0.806580 0.303680 0.062744
0.848419 0.304504 0.062744
0.883728 0.304535 0.062744
0.913910 0.304291 0.062744
0.940186 0.304291 0.062744
0.963013 0.304626 0.062744
0.982971 0.305634 0.062744
0.996216 0.307312 0.062744
1.000000 0.309753 0.062744
1.000000 0.313110 0.062744
1.000000 0.317413 0.062744
1.000000 0.322845 0.062744
1.000000 0.329315 0.062744
1.000000 0.336823 0.062744
1.000000 0.345245 0.062744
0.111267 0.141968 0.118835
0.112427 0.140442 0.118011
0.113495 0.139069 0.117035
0.114624 0.137360 0.115997
0.116211 0.135132 0.115082
0.118164 0.132782 0.114594
0.119843 0.133148 0.114349
0.122742 0.139008 0.113251
0.131989 0.147705 0.111237
0.152283 0.159821 0.107819
0.194427 0.181122 0.100037
0.233307 0.199982 0.091156
0.277374 0.219604 0.079590
0.327759 0.239746 0.065979
0.383820 0.259888 0.063110
0.444000 0.278503 0.062744
0.506958 0.294586 0.062744
0.571320 0.307068 0.062744
0.636780 0.317383 0.062744
0.699005 0.324860 0.062744
0.755096 0.329651 0.062744
0.803619 0.332092 0.062744
0.845032 0.332947 0.062744
0.880280 0.332886 0.062744
0.910431 0.332520 0.062744
0.936859 0.332275 0.062744
0.959961 0.332275 0.062744
0.980194 0.332825 0.062744
0.994934 0.333923 0.062744
1.000000 0.335876 0.062744
1.000000 0.338562 0.062744
1.000000 0.342102 0.062744
1.000000 0.346710 0.062744
1.000000 0.352295 0.062744
1.000000 0.359070 0.062744
1.000000 0.366760 0.062744
0.091064 0.157654 0.120026
0.093018 0.156006 0.118652
0.095825 0.154022 0.117279
0.099365 0.151398 0.115906
0.103394 0.148163 0.114594
0.108093 0.144348 0.113556
0.112946 0.141693 0.113220
0.117157 0.144745 0.112610
0.125061 0.154205 0.110443
0.142090 0.166962 0.106842
0.172760 0.183380 0.100861
0.226410 0.209595 0.088745
0.274170 0.232239 0.075806
0.325531 0.254364 0.064240
0.381897 0.276154 0.062744
0.443024 0.297516 0.062744
0.507477 0.318115 0.062744
0.572784 0.334869 0.062744
0.637726 0.346893 0.062744
0.699127 0.354950 0.062744
0.754364 0.360016 0.062744
0.802185 0.362457 0.062744
0.843018 0.363251 0.062744
0.877899 0.362976 0.062744
0.908142 0.362396 0.062744
0.934692 0.361786 0.062744
0.957916 0.361511 0.062744
0.978333 0.361694 0.062744
0.994171 0.362396 0.062744
1.000000 0.363770 0.062744
1.000000 0.365906 0.062744
1.000000 0.368805 0.062744
1.000000 0.372650 0.062744
1.000000 0.377502 0.062744
1.000000 0.383545 0.062744
1.000000 0.390625 0.062744
0.065460 0.177765 0.123474
0.068817 0.175629 0.121735
0.072479 0.173279 0.119965
0.077637 0.170166 0.117767
0.083771 0.166138 0.115509
0.091522 0.161316 0.113586
0.101105 0.155792 0.112823
0.109985 0.153961 0.112823
0.116974 0.161499 0.111359
0.131287 0.174652 0.107971
0.157257 0.191589 0.102570
0.197968 0.212402 0.092834
0.262756 0.243683 0.075439
0.321503 0.270416 0.064087
0.380371 0.294891 0.062744
0.442261 0.317749 0.062744
0.506561 0.339264 0.062744
0.571716 0.358856 0.062744
0.638397 0.376190 0.062744
0.699738 0.387451 0.062744
0.754303 0.392639 0.062744
0.801544 0.395142 0.062744
0.842102 0.395782 0.062744
0.877045 0.395264 0.062744
0.907288 0.394440 0.062744
0.933716 0.393646 0.062744
0.956787 0.392883 0.062744
0.976959 0.392487 0.062744
0.993408 0.392609 0.062744
1.000000 0.393280 0.062744
1.000000 0.394714 0.062744
1.000000 0.397064 0.062744
1.000000 0.400330 0.062744
1.000000 0.404572 0.062744
1.000000 0.409943 0.062744
1.000000 0.416260 0.062744
0.062836 0.201721 0.128876
0.062836 0.199219 0.126862
0.062897 0.196503 0.124573
0.063019 0.192902 0.121948
0.063232 0.188263 0.119049
0.068909 0.182709 0.116119
0.080078 0.176270 0.113831
0.095245 0.169250 0.113678
0.109039 0.169342 0.113983
0.119629 0.183014 0.111115
0.141663 0.200104 0.106110
0.177368 0.221130 0.097626
0.228180 0.247192 0.083557
0.305786 0.284332 0.064819
0.376678 0.315002 0.062744
0.440613 0.339722 0.062744
0.504669 0.362030 0.062744
0.569458 0.382263 0.062744
0.645721 0.405945 0.062744
0.719116 0.426849 0.062744
0.771698 0.435455 0.062744
0.816406 0.437744 0.062744
0.854370 0.437225 0.062744
0.887024 0.435577 0.062744
0.915436 0.433777 0.062744
0.940338 0.432037 0.062744
0.962219 0.430634 0.062744
0.981506 0.429657 0.062744
0.995087 0.429230 0.062744
1.000000 0.429352 0.062744
1.000000 0.430115 0.062744
1.000000 0.431732 0.062744
1.000000 0.434174 0.062744
1.000000 0.437683 0.062744
1.000000 0.442261 0.062744
1.000000 0.447968 0.062744
0.062744 0.233704 0.137970
0.062744 0.230957 0.135406
0.062744 0.227844 0.132843
0.062744 0.223572 0.129395
0.062744 0.218231 0.125641
0.062744 0.211548 0.121521
0.063812 0.203827 0.117981
0.072388 0.195221 0.115967
0.090118 0.188751 0.116364
0.108002 0.193756 0.116333
0.126282 0.212097 0.112305
0.158447 0.234497 0.105072
0.205322 0.261871 0.092224
0.269470 0.294708 0.070221
0.362000 0.337280 0.063263
0.446136 0.370972 0.062744
0.515259 0.395813 0.062744
0.581207 0.416595 0.062744
0.646423 0.434296 0.062744
0.710052 0.449982 0.062744
0.763580 0.460541 0.062744
0.809296 0.467346 0.062744
0.848236 0.470642 0.062744
0.881866 0.468994 0.062744
0.911011 0.467102 0.062744
0.936432 0.465057 0.062744
0.958618 0.463165 0.062744
0.978027 0.461731 0.062744
0.994080 0.460663 0.062744
1.000000 0.460175 0.062744
1.000000 0.460449 0.062744
1.000000 0.461487 0.062744
1.000000 0.463531 0.062744
1.000000 0.466553 0.062744
1.000000 0.470612 0.062744
1.000000 0.475616 0.062744
0.062744 0.265411 0.147980
0.062744 0.262451 0.145203
0.062744 0.258972 0.142303
0.062744 0.254364 0.138336
0.062744 0.248474 0.133850
0.062744 0.241516 0.128998
0.062744 0.233337 0.124359
0.062744 0.224091 0.120544
0.071930 0.213623 0.119690
0.090332 0.209076 0.121460
0.110107 0.221649 0.119995
0.137054 0.244263 0.114441
0.178436 0.271515 0.104462
0.235718 0.303986 0.085754
0.311035 0.340912 0.063873
0.415070 0.386505 0.062744
0.508942 0.421753 0.062744
0.579987 0.445038 0.062744
0.644836 0.462830 0.062744
0.705048 0.476746 0.062744
0.758331 0.487000 0.062744
0.804321 0.494415 0.062744
0.843781 0.499664 0.062744
0.877930 0.502625 0.062744
0.907288 0.502258 0.062744
0.932892 0.499786 0.062744
0.955231 0.497345 0.062744
0.974792 0.495300 0.062744
0.991974 0.493835 0.062744
0.999512 0.492889 0.062744
1.000000 0.492645 0.062744
1.000000 0.493164 0.062744
1.000000 0.494659 0.062744
1.000000 0.497101 0.062744
1.000000 0.500580 0.062744
1.000000 0.504913 0.062744
0.062744 0.300842 0.159973
0.062744 0.297638 0.157013
0.062744 0.294037 0.153717
0.062744 0.289185 0.149597
0.062744 0.282928 0.144592
0.062744 0.275391 0.139038
0.062744 0.266357 0.133392
0.062744 0.256073 0.128174
0.062744 0.244629 0.124146
0.073669 0.231750 0.124908
0.094604 0.230042 0.127625
0.114838 0.252045 0.123962
0.151031 0.278839 0.116913
0.201569 0.310638 0.103271
0.268494 0.346771 0.079376
0.353973 0.386505 0.062744
0.466705 0.433655 0.062744
0.567139 0.468933 0.062744
0.638428 0.489532 0.062744
0.698334 0.503448 0.062744
0.751526 0.513489 0.062744
0.797760 0.520721 0.062744
0.837677 0.526001 0.062744
0.872284 0.530090 0.062744
0.902100 0.532593 0.062744
0.927917 0.534271 0.062744
0.950684 0.531525 0.062744
0.970581 0.529022 0.062744
0.988068 0.527191 0.062744
0.998352 0.525940 0.062744
1.000000 0.525269 0.062744
1.000000 0.525360 0.062744
1.000000 0.526398 0.062744
1.000000 0.528320 0.062744
1.000000 0.531281 0.062744
1.000000 0.535065 0.062744
0.062744 0.338470 0.173737
0.062744 0.335266 0.170624
0.062744 0.331604 0.167206
0.062744 0.326569 0.162598
0.062744 0.320068 0.157074
0.062744 0.311920 0.150879
0.062744 0.302399 0.144409
0.062744 0.291290 0.138031
0.062744 0.278717 0.132507
0.062744 0.264893 0.129547
0.075104 0.251556 0.132629
0.093994 0.259369 0.133209
0.123138 0.285706 0.128662
0.168732 0.316803 0.119568
0.228790 0.352112 0.102234
0.305450 0.391205 0.074341
0.399872 0.432922 0.062744
0.518463 0.480621 0.062744
0.624390 0.514587 0.062744
0.692535 0.531433 0.062744
0.745453 0.541351 0.062744
0.791718 0.548309 0.062744
0.831940 0.553406 0.062744
0.866852 0.557220 0.062744
0.897064 0.560425 0.062744
0.923309 0.563232 0.062744
0.946320 0.565277 0.062744
0.966522 0.564697 0.062744
0.984375 0.562561 0.062744
0.996674 0.561066 0.062744
1.000000 0.560150 0.062744
1.000000 0.559906 0.062744
1.000000 0.560608 0.062744
1.000000 0.562164 0.062744
1.000000 0.564728 0.062744
1.000000 0.568237 0.062744
0.062744 0.377838 0.189240
0.062744 0.374542 0.185944
0.062744 0.370697 0.182312
0.062744 0.365723 0.177521
0.062744 0.358948 0.171692
0.062744 0.350708 0.164703
0.062744 0.340607 0.157379
0.062744 0.329041 0.150055
0.062744 0.315948 0.143158
0.062744 0.301300 0.137726
0.062744 0.285156 0.136932
0.073822 0.275452 0.140900
0.095215 0.292633 0.139984
0.135864 0.323273 0.134155
0.191467 0.358002 0.123474
0.261353 0.396484 0.103424
0.347443 0.437866 0.071808
0.449066 0.480652 0.062744
0.570465 0.526794 0.062744
0.678253 0.557800 0.062744
0.740326 0.570679 0.062744
0.786377 0.577454 0.062744
0.826721 0.582336 0.062744
0.861908 0.585968 0.062744
0.892303 0.588867 0.062744
0.918854 0.591461 0.062744
0.941956 0.594086 0.062744
0.962219 0.596405 0.062744
0.979919 0.598175 0.062744
0.995209 0.596466 0.062744
1.000000 0.595215 0.062744
1.000000 0.594666 0.062744
1.000000 0.594910 0.062744
1.000000 0.596161 0.062744
1.000000 0.598358 0.062744
1.000000 0.601532 0.062744
0.062744 0.417084 0.206146
0.062744 0.413788 0.202637
0.062744 0.409973 0.198944
0.062744 0.404785 0.193848
0.062744 0.398102 0.187622
0.062744 0.389801 0.180450
0.062744 0.379791 0.172394
0.062744 0.368042 0.164032
0.062744 0.354645 0.156067
0.062744 0.341705 0.149658
0.062744 0.327057 0.145233
0.062744 0.308289 0.147339
0.072601 0.304138 0.151367
0.099945 0.332428 0.148682
0.154602 0.366882 0.142548
0.221649 0.404968 0.131012
0.302155 0.446014 0.110046
0.396515 0.488708 0.077759
0.503204 0.531097 0.062744
0.624481 0.573517 0.062744
0.729309 0.600708 0.062744
0.784485 0.610107 0.062744
0.824310 0.614624 0.062744
0.859161 0.617798 0.062744
0.889252 0.620209 0.062744
0.915558 0.622284 0.062744
0.938507 0.624390 0.062744
0.958618 0.626709 0.062744
0.976166 0.629242 0.062744
0.991486 0.631927 0.062744
0.999908 0.631866 0.062744
1.000000 0.630890 0.062744
1.000000 0.630676 0.069397
1.000000 0.631439 0.080109
1.000000 0.633179 0.091644
1.000000 0.635864 0.101715
0.062744 0.458893 0.226410
0.062744 0.455597 0.222717
0.062744 0.451843 0.218872
0.062744 0.446564 0.213531
0.062744 0.439758 0.206879
0.062744 0.431427 0.199036
0.062744 0.421539 0.190430
0.062744 0.409851 0.181244
0.062744 0.396576 0.172089
0.062744 0.381378 0.163666
0.062744 0.370117 0.158356
0.062744 0.350891 0.154449
0.062744 0.329681 0.159760
0.072235 0.340668 0.161591
0.112610 0.374268 0.158936
0.180695 0.411896 0.152985
0.258270 0.452637 0.142181
0.347046 0.495026 0.123474
0.446838 0.537567 0.095337
0.554993 0.578339 0.068665
0.672913 0.615662 0.064117
0.772247 0.639282 0.073547
0.821259 0.646423 0.081848
0.855591 0.649139 0.079803
0.885376 0.651215 0.079681
0.911560 0.652954 0.082123
0.934479 0.654663 0.085938
0.954529 0.656616 0.090912
0.972046 0.658844 0.096100
0.987457 0.661407 0.101288
0.998505 0.664246 0.106567
1.000000 0.666718 0.111816
1.000000 0.666595 0.115936
1.000000 0.667023 0.136322
1.000000 0.668304 0.160645
1.000000 0.670471 0.182098
0.062744 0.503387 0.250488
0.062744 0.500122 0.246643
0.062744 0.496399 0.242493
0.062744 0.491241 0.236969
0.062744 0.484497 0.229919
0.062744 0.476135 0.221619
0.062744 0.466278 0.212250
0.062744 0.454742 0.202240
0.062744 0.441467 0.191956
0.062744 0.426453 0.181915
0.062744 0.409515 0.173035
0.062744 0.390564 0.165649
0.062744 0.369720 0.165070
0.062744 0.355896 0.170532
0.078186 0.376770 0.171783
0.134125 0.413757 0.169800
0.212189 0.453857 0.165131
0.296875 0.495850 0.156769
0.390472 0.538116 0.143921
0.491852 0.579193 0.125305
0.598969 0.616821 0.100403
0.710022 0.649048 0.088928
0.803528 0.670319 0.134033
0.847168 0.676025 0.138794
0.878052 0.678284 0.140198
0.904480 0.680084 0.144989
0.927673 0.681641 0.152405
0.947968 0.683411 0.162170
0.965759 0.685333 0.173035
0.981354 0.687653 0.184570
0.994415 0.690369 0.196350
1.000000 0.693634 0.208679
1.000000 0.697662 0.222076
1.000000 0.699432 0.234924
1.000000 0.700897 0.247925
1.000000 0.702759 0.261719
0.062744 0.542664 0.274567
0.062744 0.539398 0.270599
0.062744 0.535858 0.266296
0.062744 0.531097 0.260742
0.062744 0.524841 0.253632
0.062744 0.516968 0.245087
0.062744 0.507538 0.235413
0.062744 0.496521 0.224731
0.062744 0.483704 0.213531
0.062744 0.469055 0.202332
0.062744 0.452454 0.191620
0.062744 0.433807 0.182190
0.062744 0.413330 0.174927
0.062744 0.390472 0.178589
0.062744 0.388031 0.183228
0.091705 0.417511 0.184692
0.165375 0.456940 0.184357
0.250549 0.498413 0.182190
0.340668 0.540497 0.178314
0.437042 0.581757 0.173676
0.537598 0.619965 0.169647
0.642334 0.653412 0.168030
0.746124 0.681946 0.168976
0.830109 0.700256 0.219208
0.870117 0.705139 0.232788
0.897675 0.707031 0.238098
0.920868 0.708466 0.242645
0.941254 0.709991 0.248688
0.959198 0.711700 0.255768
0.975037 0.713867 0.263794
0.989044 0.716431 0.272858
0.998993 0.719574 0.282623
1.000000 0.723358 0.293457
1.000000 0.727783 0.305298
1.000000 0.732056 0.317688
1.000000 0.734100 0.329590
0.062744 0.582153 0.301056
0.062744 0.579071 0.297180
0.062744 0.575684 0.292999
0.062744 0.571136 0.287323
0.062744 0.565186 0.280121
0.062744 0.557739 0.271515
0.062744 0.548798 0.261505
0.062744 0.538300 0.250397
0.062744 0.526093 0.238495
0.062744 0.512146 0.226166
0.062744 0.496277 0.214020
0.062744 0.478363 0.202820
0.062744 0.458313 0.192993
0.062744 0.436157 0.188629
0.062744 0.411499 0.193726
0.062744 0.423798 0.198090
0.115326 0.460632 0.201019
0.204803 0.501678 0.203247
0.294678 0.543610 0.205170
0.388000 0.585052 0.207825
0.484863 0.623779 0.212463
0.583466 0.658020 0.220215
0.683777 0.687500 0.230743
0.778931 0.712585 0.243622
0.852539 0.728333 0.289185
0.889648 0.732849 0.307465
0.914185 0.734650 0.314545
0.934662 0.736298 0.319733
0.952667 0.738098 0.326111
0.968597 0.740204 0.333313
0.982758 0.742706 0.341217
0.994324 0.745697 0.349945
1.000000 0.749237 0.359375
1.000000 0.753296 0.369415
1.000000 0.757843 0.380829
1.000000 0.762939 0.393188
0.062744 0.621979 0.330750
0.062744 0.619354 0.327026
0.062744 0.616211 0.323059
0.062744 0.612061 0.317535
0.062744 0.606476 0.310364
0.062744 0.599548 0.301605
0.062744 0.591125 0.291443
0.062744 0.581116 0.279968
0.062744 0.569672 0.267670
0.062744 0.556549 0.254761
0.062744 0.541534 0.241455
0.062744 0.524506 0.228394
0.062744 0.505554 0.216492
0.062744 0.484131 0.206360
0.062744 0.460297 0.206055
0.062744 0.444122 0.211060
0.081909 0.466614 0.216888
0.155365 0.507996 0.223053
0.253906 0.550415 0.230133
0.347168 0.592499 0.238861
0.442017 0.631683 0.250244
0.537079 0.666382 0.264557
0.632874 0.696320 0.281586
0.726044 0.721771 0.300354
0.809937 0.743256 0.320343
0.873779 0.757355 0.363617
0.907623 0.761780 0.385468
0.929230 0.763763 0.393677
0.946960 0.765656 0.399048
0.962708 0.767670 0.405090
0.976746 0.770111 0.411804
0.989319 0.772949 0.419250
0.998444 0.776215 0.427490
1.000000 0.779968 0.436493
1.000000 0.784088 0.446594
1.000000 0.788696 0.457672
0.062744 0.662933 0.366028
0.062744 0.660675 0.362427
0.062744 0.657867 0.358521
0.062744 0.654236 0.353210
0.062744 0.649445 0.346344
0.062744 0.643341 0.337921
0.062744 0.635895 0.328003
0.062744 0.627014 0.316742
0.062744 0.616608 0.304230
0.062744 0.604462 0.290588
0.062744 0.590302 0.276276
0.062744 0.574005 0.261627
0.062744 0.555603 0.247314
0.062744 0.535126 0.234314
0.062744 0.512451 0.223663
0.062744 0.486969 0.226624
0.062744 0.484741 0.233002
