core-styles/classic.cube
#Created by: Adobe Photoshop Export Color Lookup Plugin
#Copyright: (C) Copyright 2026 小米
TITLE "复古胶片2"
#LUT size
LUT_3D_SIZE 8
#data domain
DOMAIN_MIN 0.0 0.0 0.0
DOMAIN_MAX 1.0 1.0 1.0
#LUT data points
0.156036 0.160583 0.145721
0.080872 0.159912 0.146820
0.192291 0.160736 0.142212
0.445496 0.171417 0.107971
0.753326 0.152069 0.062744
0.945404 0.133026 0.062744
1.000000 0.168030 0.062744
1.000000 0.236420 0.062744
0.150146 0.125641 0.128998
0.124878 0.126251 0.131104
0.193848 0.158661 0.122314
0.435883 0.205841 0.076813
0.743744 0.225494 0.062744
0.935364 0.223389 0.062744
1.000000 0.242645 0.062744
1.000000 0.287567 0.062744
0.091064 0.157654 0.120026
0.108093 0.144348 0.113556
0.172760 0.183380 0.100861
0.443024 0.297516 0.062744
0.754364 0.360016 0.062744
0.934692 0.361786 0.062744
1.000000 0.365906 0.062744
1.000000 0.390625 0.062744
0.062744 0.300842 0.159973
0.062744 0.275391 0.139038
0.094604 0.230042 0.127625
0.353973 0.386505 0.062744
0.751526 0.513489 0.062744
0.927917 0.534271 0.062744
1.000000 0.525269 0.062744
1.000000 0.535065 0.062744
0.062744 0.503387 0.250488
0.062744 0.476135 0.221619
0.062744 0.409515 0.173035
0.134125 0.413757 0.169800
0.598969 0.616821 0.100403
0.904480 0.680084 0.144989
0.994415 0.690369 0.196350
1.000000 0.702759 0.261719
0.062744 0.697144 0.399292
0.062744 0.682068 0.375214
0.062744 0.635040 0.314209
0.062744 0.539551 0.247070
0.363678 0.641083 0.303345
0.787292 0.771881 0.417725
0.961945 0.811310 0.517548
1.000000 0.827148 0.550690
0.062744 0.829132 0.587067
0.062744 0.822571 0.573547
0.062744 0.805237 0.541321
0.063019 0.767426 0.484802
0.313202 0.699799 0.444336
0.663605 0.806854 0.575836
0.895172 0.871338 0.671234
0.989227 0.898712 0.731873
0.513519 0.923035 0.789398
0.523682 0.920654 0.784851
0.552277 0.915039 0.775146
0.597687 0.904449 0.760956
0.655609 0.887665 0.748871
0.760559 0.888367 0.777344
0.876556 0.928223 0.819031
0.962189 0.952118 0.850922
0.152527 0.156006 0.112427
0.105042 0.151825 0.121674
0.195557 0.120850 0.122864
0.415161 0.079834 0.099396
0.723145 0.062744 0.062744
0.930115 0.062744 0.062744
1.000000 0.062744 0.062744
1.000000 0.183624 0.062744
0.146210 0.129547 0.114807
0.122864 0.125946 0.116119
0.194550 0.132111 0.112549
0.415649 0.153442 0.086182
0.720215 0.147369 0.062744
0.926575 0.140503 0.062744
1.000000 0.184784 0.062744
1.000000 0.256683 0.062744
0.065277 0.179749 0.139526
0.092651 0.168793 0.126984
0.175598 0.185638 0.115723
0.427155 0.276978 0.063019
0.730682 0.324524 0.062744
0.924133 0.331055 0.062744
1.000000 0.342499 0.062744
1.000000 0.375885 0.062744
0.062744 0.329437 0.194885
0.062744 0.308716 0.177032
0.091980 0.247528 0.145844
0.350281 0.379456 0.111511
0.730804 0.497925 0.062744
0.916840 0.518555 0.062744
1.000000 0.515198 0.062744
1.000000 0.530304 0.062744
0.062744 0.530579 0.294922
0.062744 0.507507 0.273407
0.062744 0.438934 0.211121
0.159821 0.409363 0.199280
0.597321 0.612335 0.198944
0.897247 0.677887 0.249847
0.990204 0.691711 0.282410
1.000000 0.704315 0.326965
0.062744 0.711731 0.437927
0.062744 0.699066 0.423065
0.062744 0.655945 0.361176
0.062744 0.564056 0.278503
0.372803 0.637299 0.332214
0.787506 0.770966 0.456757
0.957916 0.812500 0.551208
1.000000 0.829865 0.580902
0.062744 0.833801 0.611572
0.062744 0.827362 0.600861
0.062744 0.810211 0.567200
0.116333 0.772522 0.507263
0.314728 0.697693 0.450958
0.660095 0.802338 0.581940
0.894104 0.870514 0.682983
0.987823 0.898895 0.742249
0.526794 0.925323 0.800018
0.536346 0.923065 0.795471
0.562317 0.917419 0.785034
0.603516 0.906525 0.768646
0.658142 0.889526 0.753906
0.758728 0.886505 0.778595
0.876190 0.927887 0.821838
0.962158 0.952240 0.854431
0.143829 0.145325 0.145111
0.150513 0.134888 0.144379
0.176758 0.117737 0.140289
0.418335 0.062744 0.175720
0.714050 0.062744 0.118195
0.911133 0.062744 0.093933
1.000000 0.062744 0.068512
1.000000 0.062744 0.062805
0.102356 0.135895 0.160004
0.135071 0.123291 0.160034
0.190735 0.119904 0.149048
0.420288 0.062744 0.165833
0.700806 0.062744 0.133057
0.914307 0.062744 0.098053
1.000000 0.062744 0.070435
1.000000 0.181702 0.067261
0.062744 0.195251 0.194580
0.062744 0.193237 0.190186
0.188873 0.195862 0.176758
0.421661 0.220642 0.172791
0.716858 0.240112 0.149536
0.917725 0.259918 0.112885
1.000000 0.301880 0.088776
1.000000 0.362213 0.086334
0.062744 0.423126 0.328461
0.062744 0.403107 0.298492
0.094452 0.344543 0.240662
0.366150 0.387817 0.228699
0.719727 0.487885 0.219269
0.909973 0.501068 0.212921
1.000000 0.511200 0.226837
1.000000 0.539124 0.255310
0.062744 0.598206 0.410583
0.062744 0.580017 0.388702
0.062744 0.526215 0.340576
0.210968 0.421417 0.265900
0.601563 0.609406 0.333557
0.882965 0.678192 0.397858
0.979919 0.700104 0.425507
1.000000 0.712585 0.450867
0.062744 0.752075 0.520142
0.062744 0.740051 0.510529
0.062744 0.705017 0.482544
0.062744 0.625549 0.382263
0.392151 0.626740 0.392181
0.787964 0.769135 0.535675
0.949402 0.815247 0.619019
1.000000 0.835205 0.640869
0.062744 0.853668 0.654083
0.062744 0.846924 0.654968
0.187927 0.829651 0.647827
0.295441 0.795959 0.586029
0.375763 0.729248 0.508698
0.667694 0.799072 0.615021
0.895050 0.871948 0.717926
0.985352 0.901459 0.770660
0.472229 0.934357 0.810699
0.521240 0.931183 0.812836
0.588867 0.924164 0.811005
0.623718 0.913727 0.792267
0.671722 0.897064 0.772583
0.756744 0.883575 0.784271
0.875305 0.927216 0.829163
0.962219 0.952606 0.863068
0.174896 0.111694 0.307129
0.228088 0.087006 0.307831
0.328583 0.062744 0.301300
0.391235 0.062744 0.265045
0.733643 0.062744 0.327667
0.932037 0.062744 0.275024
1.000000 0.062744 0.233368
1.000000 0.062744 0.295288
0.072235 0.118164 0.323120
0.176544 0.106506 0.320190
0.315582 0.071503 0.311890
0.394226 0.066559 0.272980
0.720276 0.062744 0.324646
0.923248 0.062744 0.272522
1.000000 0.062744 0.263397
1.000000 0.135681 0.308716
0.062744 0.235321 0.362396
0.062744 0.227631 0.355377
0.236572 0.207245 0.345490
0.403656 0.214722 0.306915
0.708405 0.117401 0.329773
0.907227 0.069031 0.290497
0.999634 0.217865 0.319122
1.000000 0.337463 0.331055
0.062744 0.398193 0.445923
0.062744 0.395477 0.436554
0.062744 0.393036 0.412994
0.376129 0.388397 0.366577
0.680115 0.421875 0.377197
0.889252 0.454163 0.390320
0.994781 0.491943 0.407837
1.000000 0.536163 0.425964
0.062744 0.701843 0.636719
0.062744 0.691040 0.616028
0.062744 0.655762 0.559662
0.342285 0.563995 0.466339
0.613037 0.611786 0.486267
0.861755 0.679901 0.541443
0.966919 0.699280 0.558228
1.000000 0.717957 0.571747
0.062744 0.807892 0.657440
0.062744 0.800720 0.648651
0.062744 0.774933 0.622925
0.344513 0.716858 0.578644
0.431915 0.617188 0.474731
0.790741 0.769348 0.630432
0.939972 0.819031 0.694427
0.999268 0.840729 0.707397
0.062744 0.884918 0.718414
0.062744 0.878632 0.717712
0.087128 0.861847 0.715973
0.469177 0.828857 0.699127
0.481598 0.772034 0.607910
0.661926 0.785645 0.644592
0.894196 0.871674 0.756653
0.982483 0.903625 0.802917
0.118164 0.951599 0.823334
0.311310 0.947845 0.826080
0.518066 0.939270 0.832001
0.655029 0.926056 0.832031
0.692535 0.910126 0.805267
0.753235 0.885559 0.794128
0.873596 0.926453 0.841217
0.962708 0.953674 0.877197
0.173462 0.062744 0.559723
0.272095 0.062744 0.558899
0.429077 0.062744 0.551880
0.614563 0.062744 0.535522
0.674866 0.062744 0.460236
0.920441 0.062744 0.495209
1.000000 0.062744 0.467712
1.000000 0.062744 0.448792
0.062744 0.080505 0.570862
0.189514 0.063782 0.568359
0.399414 0.062744 0.561249
0.607971 0.062744 0.547119
0.675629 0.062744 0.470245
0.914551 0.062744 0.506104
1.000000 0.080383 0.480011
1.000000 0.115601 0.461548
0.062744 0.237091 0.593536
0.062744 0.210236 0.592194
0.282349 0.216034 0.584320
0.569550 0.190887 0.569397
0.674988 0.223602 0.501160
0.899750 0.270142 0.535187
1.000000 0.270477 0.507568
1.000000 0.328949 0.497803
0.062744 0.413300 0.641174
0.062744 0.412750 0.635529
0.062744 0.415375 0.618958
0.443726 0.415924 0.597473
0.653137 0.432892 0.550629
0.872528 0.456512 0.570709
0.987671 0.450073 0.545685
1.000000 0.523041 0.573456
0.062744 0.602905 0.699951
0.062744 0.604492 0.695404
0.062744 0.608582 0.682648
0.292572 0.610901 0.656067
0.603668 0.597595 0.604034
0.835876 0.629303 0.622070
0.957581 0.661438 0.639954
1.000000 0.695190 0.654144
0.062744 0.848755 0.818542
0.062744 0.847504 0.814423
0.062744 0.840637 0.801056
0.218262 0.808197 0.757568
0.601471 0.729431 0.679321
0.788422 0.764923 0.709473
0.931030 0.816650 0.753845
0.997223 0.834930 0.760254
0.062744 0.925781 0.825470
0.062744 0.921051 0.821198
0.062744 0.907867 0.810730
0.361298 0.880768 0.792603
0.636108 0.832764 0.759216
0.650330 0.762299 0.673798
0.894989 0.873016 0.801788
0.980408 0.906738 0.838867
0.062744 0.983429 0.835571
0.062744 0.979065 0.838867
0.062744 0.966583 0.850006
0.529449 0.949097 0.859314
0.729095 0.929535 0.858124
0.763458 0.906677 0.824219
0.867798 0.923218 0.854523
0.963409 0.954926 0.895233
0.186188 0.062744 0.773438
0.305908 0.062744 0.773285
0.483826 0.062744 0.769928
0.694366 0.062744 0.763123
0.873932 0.062744 0.735565
0.901245 0.062744 0.650299
0.997620 0.210815 0.656311
1.000000 0.399139 0.676239
0.062744 0.062744 0.777130
0.230225 0.062744 0.776337
0.452301 0.062744 0.773285
0.676300 0.062744 0.765137
0.869598 0.062744 0.742615
0.895630 0.062744 0.657196
0.994507 0.306580 0.669098
1.000000 0.437958 0.686401
0.062744 0.225800 0.786560
0.062744 0.243195 0.784607
0.354736 0.239319 0.780396
0.627838 0.227020 0.772522
0.848236 0.241974 0.755524
0.881805 0.317352 0.679047
0.980713 0.450226 0.699463
1.000000 0.513702 0.708588
0.062744 0.430725 0.797150
0.062744 0.433197 0.794067
0.062744 0.420746 0.790741
0.525299 0.456085 0.780914
0.788086 0.474060 0.769165
0.855011 0.510315 0.714874
0.960541 0.586700 0.741760
1.000000 0.595337 0.732635
0.062744 0.583527 0.822479
0.062744 0.587708 0.819824
0.062744 0.601196 0.813721
0.339478 0.619751 0.798279
0.677185 0.633392 0.779297
0.819458 0.649323 0.748383
0.943787 0.677429 0.765045
1.000000 0.670135 0.747284
0.062744 0.752716 0.847992
0.062744 0.755371 0.846313
0.062744 0.761627 0.841431
0.321960 0.768951 0.831909
0.624939 0.770142 0.814789
0.778564 0.752625 0.775482
0.922028 0.778931 0.789948
1.000000 0.804260 0.799805
0.062744 0.928802 0.908234
0.062744 0.929504 0.908600
0.062744 0.930389 0.909760
0.221436 0.924377 0.904205
0.612518 0.901978 0.878784
0.772797 0.841583 0.820282
0.895172 0.873199 0.847046
0.979370 0.908325 0.873840
0.062744 1.000000 0.914215
0.062744 1.000000 0.911285
0.062744 0.998993 0.905884
0.062744 0.983643 0.900818
0.556274 0.961182 0.895325
0.806641 0.935577 0.888824
0.853455 0.913300 0.865875
0.964905 0.956940 0.917664
0.295258 0.062744 0.895325
0.380981 0.062744 0.895721
0.534973 0.062744 0.893829
0.728119 0.062744 0.889557
0.908325 0.062744 0.883148
0.988159 0.166290 0.851959
0.995178 0.320435 0.793732
1.000000 0.498566 0.796967
0.231781 0.068542 0.894348
0.339569 0.062744 0.893555
0.510193 0.062744 0.891602
0.710938 0.062744 0.887543
0.895569 0.107574 0.880890
0.981903 0.277954 0.852570
0.991577 0.380615 0.798859
1.000000 0.529358 0.803497
0.062744 0.281281 0.896454
0.205505 0.283203 0.895630
0.457550 0.288605 0.893372
0.676849 0.302704 0.888580
0.869110 0.345703 0.881287
0.967621 0.432648 0.857910
0.977295 0.487549 0.809784
1.000000 0.591766 0.817749
0.062744 0.402527 0.901855
0.062744 0.405212 0.901215
0.265015 0.463043 0.896545
0.615723 0.502411 0.890137
0.820984 0.526398 0.882263
0.944427 0.568970 0.869232
0.957520 0.601929 0.827393
1.000000 0.670868 0.839050
0.062744 0.571747 0.907196
0.062744 0.578796 0.905548
0.062744 0.599121 0.901154
0.398529 0.620453 0.894775
0.741547 0.663300 0.885986
0.902191 0.682831 0.878510
0.936584 0.706146 0.848358
0.998779 0.753204 0.864990
0.062744 0.710052 0.919037
0.062744 0.716370 0.918152
0.062744 0.730896 0.914520
0.312714 0.752411 0.907623
0.626862 0.770325 0.897339
0.827057 0.777710 0.885254
0.913971 0.790527 0.867188
0.993408 0.810944 0.878693
0.062744 0.850067 0.930084
0.062744 0.852997 0.929291
0.062744 0.860687 0.927643
0.193146 0.868591 0.924133
0.622681 0.874359 0.919250
0.791626 0.876312 0.910797
0.885834 0.861267 0.883514
0.984375 0.886444 0.896362
0.062744 0.986328 0.961548
0.062744 0.987885 0.961670
0.062744 0.991058 0.961884
0.062744 0.990204 0.961884
0.353760 0.982056 0.959229
0.729645 0.969666 0.946564
0.888031 0.945496 0.925903
0.967590 0.959900 0.943542
0.463501 0.062744 0.970764
0.518951 0.062744 0.970520
0.638763 0.062805 0.969208
0.796875 0.161194 0.966370
0.935059 0.295959 0.961426
1.000000 0.439026 0.954163
1.000000 0.535889 0.931702
1.000000 0.583221 0.900482
0.449738 0.188171 0.970795
0.506622 0.193878 0.970245
0.630768 0.218323 0.969116
0.789978 0.269623 0.965973
0.928284 0.361816 0.960785
0.999939 0.477142 0.953705
1.000000 0.562286 0.932709
1.000000 0.604156 0.902588
0.409393 0.355286 0.970581
0.475525 0.363007 0.970123
0.607208 0.382324 0.968475
0.769775 0.416992 0.964874
0.909698 0.474976 0.959381
0.994843 0.547058 0.952423
1.000000 0.613098 0.934174
1.000000 0.649384 0.907501
0.077209 0.427277 0.973907
0.237457 0.471313 0.971741
0.552307 0.540009 0.967377
0.727142 0.561890 0.963989
0.876740 0.595093 0.959381
0.972229 0.638214 0.953674
1.000000 0.685486 0.939758
1.000000 0.700714 0.912598
0.062744 0.534973 0.977173
0.062744 0.538910 0.976532
0.062744 0.550446 0.975006
0.541870 0.634521 0.968323
0.815704 0.699585 0.961456
0.937775 0.723328 0.956757
1.000000 0.754669 0.949158
1.000000 0.773682 0.925537
0.062744 0.644928 0.981812
0.062744 0.651978 0.981140
0.062744 0.678009 0.979034
0.062744 0.728729 0.973816
0.611389 0.764282 0.968079
0.876709 0.804047 0.961578
0.976868 0.821503 0.956787
0.996735 0.839935 0.938202
0.062744 0.762909 0.981171
0.062744 0.764587 0.982239
0.062744 0.777618 0.983795
0.062744 0.815277 0.980865
0.446167 0.852600 0.974457
0.759644 0.872986 0.968994
0.925354 0.889282 0.963989
0.983887 0.905457 0.953766
0.062744 0.910675 0.985107
0.062744 0.911316 0.985138
0.062744 0.907990 0.982239
0.062744 0.909180 0.982422
0.062744 0.926392 0.979218
0.582184 0.937653 0.973969
0.864532 0.948975 0.971497
0.971161 0.963104 0.970764
