core-styles/classic.cube
#Created by: Adobe Photoshop Export Color Lookup Plugin
#Copyright: (C) Copyright 2026 小米
TITLE "复古胶片2"
#LUT size
LUT_3D_SIZE 6
#data domain
DOMAIN_MIN 0.0 0.0 0.0
DOMAIN_MAX 1.0 1.0 1.0
#LUT data points
0.156036 0.160583 0.145721
0.095062 0.158020 0.146210
0.386322 0.170715 0.119781
0.805145 0.144867 0.062744
0.997528 0.148224 0.062744
1.000000 0.236420 0.062744
0.135651 0.124725 0.121490
0.127747 0.131134 0.119843
0.386719 0.227173 0.069366
0.808289 0.276703 0.062744
0.996765 0.281464 0.062744
1.000000 0.325012 0.062744
0.062744 0.265411 0.147980
0.062744 0.224091 0.120544
0.311035 0.340912 0.063873
0.804321 0.494415 0.062744
0.991974 0.493835 0.062744
1.000000 0.504913 0.062744
0.062744 0.542664 0.274567
0.062744 0.496521 0.224731
0.062744 0.388031 0.183228
0.642334 0.653412 0.168030
0.959198 0.711700 0.255768
1.000000 0.734100 0.329590
0.062744 0.782043 0.505219
0.062744 0.763611 0.471222
0.062744 0.699310 0.380188
0.376984 0.693451 0.397278
0.857513 0.833527 0.577545
0.997528 0.873596 0.667542
0.513519 0.923035 0.789398
0.532959 0.918884 0.781647
0.587524 0.907043 0.763977
0.669952 0.883392 0.748749
0.833160 0.914246 0.803833
0.962189 0.952118 0.850922
0.146973 0.152679 0.111145
0.113434 0.140106 0.118805
0.366974 0.062744 0.119141
0.766022 0.062744 0.063538
0.991180 0.062744 0.062744
1.000000 0.134064 0.062744
0.119720 0.136627 0.126984
0.132172 0.135590 0.124207
0.366241 0.161682 0.110474
0.776489 0.167877 0.062744
0.991211 0.196564 0.062744
1.000000 0.285767 0.062744
0.062744 0.323364 0.216064
0.062744 0.287842 0.182373
0.314026 0.338837 0.151459
0.781647 0.471832 0.063141
0.983673 0.474945 0.062744
1.000000 0.499237 0.073486
0.062744 0.587280 0.351715
0.062744 0.550018 0.317871
0.085358 0.419403 0.226196
0.641266 0.647705 0.286652
0.948792 0.712158 0.368439
1.000000 0.736084 0.417023
0.062744 0.798035 0.553223
0.062744 0.780731 0.538177
0.062744 0.720825 0.442993
0.388214 0.683990 0.425751
0.855682 0.831665 0.612061
0.994629 0.874390 0.694183
0.507416 0.926666 0.800903
0.543335 0.921448 0.796021
0.603058 0.911865 0.780914
0.676514 0.888397 0.759369
0.833130 0.913696 0.809723
0.962372 0.952667 0.858185
0.167908 0.122559 0.263367
0.242310 0.086639 0.260284
0.335632 0.063416 0.230438
0.779633 0.062744 0.277069
0.992188 0.062744 0.195984
1.000000 0.062744 0.247375
0.062744 0.162170 0.292297
0.182007 0.135193 0.288483
0.350586 0.130432 0.251801
0.771149 0.062744 0.271851
0.979370 0.062744 0.247467
1.000000 0.220306 0.266205
0.062744 0.347687 0.380280
0.062744 0.344940 0.366089
0.330170 0.343231 0.317902
0.741028 0.387634 0.327026
0.968475 0.433899 0.342102
1.000000 0.494537 0.362579
0.062744 0.704803 0.585724
0.062744 0.680573 0.549347
0.242889 0.585175 0.454254
0.646759 0.643127 0.476654
0.926758 0.719238 0.551056
1.000000 0.743958 0.574036
0.062744 0.846649 0.665527
0.062744 0.832642 0.658264
0.340302 0.784576 0.630798
0.424866 0.670807 0.496338
0.856903 0.832520 0.693817
0.989166 0.880280 0.757751
0.273285 0.947205 0.820557
0.454468 0.940918 0.824982
0.640625 0.925507 0.827240
0.696747 0.902802 0.792633
0.828369 0.910004 0.821228
0.962616 0.953491 0.874084
0.168610 0.062744 0.614014
0.340881 0.062744 0.611420
0.603455 0.062744 0.598053
0.733704 0.062744 0.503357
0.986816 0.062744 0.529907
1.000000 0.090637 0.499725
0.062744 0.134674 0.631897
0.221619 0.103821 0.627502
0.572113 0.062744 0.610291
0.733765 0.062744 0.522949
0.977203 0.186035 0.550079
1.000000 0.282043 0.523743
0.062744 0.385529 0.668793
0.062744 0.384979 0.657379
0.424042 0.381256 0.639404
0.710602 0.406464 0.577057
0.949982 0.454010 0.596375
1.000000 0.487213 0.583374
0.062744 0.637115 0.737091
0.062744 0.640900 0.730164
0.150330 0.648163 0.706787
0.644745 0.633392 0.644745
0.908508 0.676086 0.669250
1.000000 0.719849 0.688385
0.062744 0.908356 0.852081
0.062744 0.900818 0.841766
0.062744 0.871399 0.808807
0.647095 0.793274 0.738129
0.857300 0.832367 0.775665
0.985229 0.882629 0.816711
0.062744 0.989075 0.844910
0.062744 0.982971 0.845276
0.292389 0.958984 0.862061
0.742889 0.929993 0.863037
0.811768 0.898926 0.832947
0.963287 0.954803 0.898285
0.244598 0.062744 0.855133
0.405853 0.062744 0.854370
0.671997 0.062744 0.849091
0.935516 0.062744 0.838074
0.970123 0.150085 0.742126
1.000000 0.490021 0.764709
0.062744 0.141510 0.858643
0.334473 0.118561 0.856781
0.641388 0.094513 0.850800
0.916168 0.139740 0.838898
0.959747 0.330627 0.754395
1.000000 0.546570 0.779999
0.062744 0.371338 0.864014
0.062744 0.377136 0.862305
0.545563 0.442657 0.853546
0.855469 0.480713 0.841400
0.929382 0.540100 0.782745
1.000000 0.648895 0.809845
0.062744 0.604401 0.878937
0.062744 0.614594 0.875397
0.227966 0.645844 0.863770
0.735535 0.676575 0.847015
0.890900 0.700958 0.815094
1.000000 0.736176 0.830627
0.062744 0.814789 0.901031
0.062744 0.819275 0.898743
0.129150 0.829559 0.892578
0.666992 0.835846 0.880737
0.845459 0.817688 0.842010
0.990326 0.852661 0.858948
0.062744 1.000000 0.957123
0.062744 1.000000 0.955841
0.062744 0.999481 0.948120
0.490601 0.975311 0.931763
0.854828 0.940765 0.910034
0.966125 0.958313 0.932373
0.463501 0.062744 0.970764
0.559418 0.062744 0.970154
0.764984 0.135559 0.967102
0.955963 0.324799 0.960144
1.000000 0.512878 0.942841
1.000000 0.583221 0.900482
0.440979 0.258698 0.971313
0.542938 0.271332 0.970337
0.753052 0.318207 0.966736
0.944397 0.427002 0.959412
1.000000 0.562836 0.944458
1.000000 0.619843 0.904205
0.162048 0.445068 0.972473
0.477875 0.502502 0.969177
0.707123 0.531494 0.965149
0.908569 0.583435 0.958435
1.000000 0.655426 0.949860
1.000000 0.696259 0.913605
0.062744 0.562347 0.977142
0.062744 0.576111 0.975677
0.246094 0.610504 0.971710
0.828217 0.720734 0.960907
0.976135 0.750793 0.953156
1.000000 0.782684 0.926208
0.062744 0.714539 0.983643
0.062744 0.721100 0.982849
0.062744 0.765198 0.978424
0.541199 0.810120 0.966003
0.895782 0.841675 0.957703
0.987549 0.870697 0.943024
0.062744 0.910675 0.985107
0.062744 0.906769 0.982208
0.062744 0.908966 0.982391
0.062744 0.929993 0.977936
0.785950 0.943665 0.972229
0.971161 0.963104 0.970764
