core-styles/CQ.cube
#Created by: Adobe Photoshop Export Color Lookup Plugin
TITLE "多场景样片-v1.0.psd"
#LUT size
LUT_3D_SIZE 4
#data domain
DOMAIN_MIN 0.0 0.0 0.0
DOMAIN_MAX 1.0 1.0 1.0
#LUT data points
0.018677 0.016327 0.022430
0.252136 0.016327 0.022430
0.695923 0.016327 0.022430
0.995544 0.016327 0.022430
0.018677 0.322632 0.022430
0.222565 0.321075 0.022430
0.690765 0.387970 0.022430
0.994751 0.431152 0.022430
0.018677 0.763641 0.022430
0.231689 0.763000 0.022430
0.616699 0.760620 0.022430
0.992737 0.829651 0.022430
0.018677 1.000000 0.022430
0.271454 1.000000 0.022430
0.593536 1.000000 0.022430
0.958313 1.000000 0.022430
0.024597 0.016327 0.302551
0.251007 0.016327 0.280029
0.694153 0.016327 0.221863
0.995667 0.016327 0.153625
0.018677 0.310974 0.325317
0.239685 0.315796 0.298126
0.686493 0.341675 0.274353
0.994995 0.379669 0.259583
0.018677 0.781616 0.263062
0.242188 0.759094 0.254456
0.642639 0.756622 0.246613
0.992950 0.808289 0.231750
0.018677 1.000000 0.118958
0.252808 1.000000 0.213837
0.660522 1.000000 0.204437
0.970154 1.000000 0.188416
0.044464 0.016327 0.671600
0.309174 0.016327 0.677246
0.692413 0.016327 0.635559
0.995667 0.016327 0.596252
0.018677 0.249298 0.693787
0.270477 0.307800 0.672852
0.686005 0.286072 0.653961
0.995209 0.276062 0.607666
0.018677 0.743622 0.709076
0.198944 0.748718 0.688690
0.666138 0.750488 0.664459
0.993134 0.781708 0.656158
0.018677 1.000000 0.700684
0.179840 1.000000 0.643616
0.683716 1.000000 0.641541
0.980255 1.000000 0.637512
0.066650 0.016327 1.000000
0.360138 0.016327 1.000000
0.778442 0.016327 1.000000
0.995667 0.016327 0.971283
0.018677 0.208069 1.000000
0.312317 0.311005 1.000000
0.751160 0.291840 1.000000
0.995239 0.273163 0.991150
0.018677 0.681213 1.000000
0.226135 0.692627 1.000000
0.707001 0.744507 1.000000
0.993500 0.733521 1.000000
0.018677 1.000000 1.000000
0.197998 1.000000 1.000000
0.651825 1.000000 1.000000
0.989960 1.000000 1.000000
