core-styles/CQ.cube
#Created by: Adobe Photoshop Export Color Lookup Plugin
TITLE "多场景样片-v1.0.psd"
#LUT size
LUT_3D_SIZE 34
#data domain
DOMAIN_MIN 0.0 0.0 0.0
DOMAIN_MAX 1.0 1.0 1.0
#LUT data points
0.018677 0.016327 0.022430
0.021423 0.016327 0.022430
0.037231 0.016327 0.022430
0.054413 0.016327 0.022430
0.073364 0.016327 0.022430
0.093964 0.016327 0.022430
0.116302 0.016327 0.022430
0.140045 0.016327 0.022430
0.165588 0.016327 0.022430
0.192749 0.016327 0.022430
0.221405 0.016327 0.022430
0.252136 0.016327 0.022430
0.285095 0.016327 0.022430
0.320007 0.016327 0.022430
0.357117 0.016327 0.022430
0.396637 0.016327 0.022430
0.438110 0.016327 0.022430
0.481812 0.016327 0.022430
0.525635 0.016327 0.022430
0.569244 0.016327 0.022430
0.612122 0.016327 0.022430
0.654114 0.016327 0.022430
0.695923 0.016327 0.022430
0.737122 0.016327 0.022430
0.778015 0.016327 0.022430
0.818298 0.016327 0.022430
0.856415 0.016327 0.022430
0.890503 0.016327 0.022430
0.919342 0.016327 0.022430
0.942932 0.016327 0.022430
0.962006 0.016327 0.022430
0.977509 0.016327 0.022430
0.990448 0.016327 0.022430
0.995544 0.016327 0.022430
0.018677 0.020203 0.022430
0.019836 0.020111 0.022430
0.036774 0.022552 0.022430
0.054108 0.024200 0.022430
0.073029 0.025543 0.022430
0.093719 0.026733 0.022430
0.116119 0.027710 0.022430
0.139832 0.028809 0.022430
0.165405 0.029602 0.022430
0.192505 0.030548 0.022430
0.221252 0.031128 0.022430
0.251984 0.031799 0.022430
0.284882 0.032257 0.022430
0.319855 0.032776 0.022430
0.357025 0.033081 0.022430
0.396515 0.033081 0.022430
0.437927 0.033234 0.022430
0.481720 0.033051 0.022430
0.525513 0.032990 0.022430
0.569122 0.032410 0.022430
0.612000 0.032074 0.022430
0.654053 0.031433 0.022430
0.695770 0.030762 0.022430
0.737000 0.029999 0.022430
0.777893 0.029205 0.022430
0.818237 0.028015 0.022430
0.856293 0.027069 0.022430
0.890381 0.025757 0.022430
0.919281 0.024139 0.022430
0.942902 0.022797 0.022430
0.961975 0.021118 0.022430
0.977478 0.019409 0.022430
0.990448 0.017548 0.022430
0.995483 0.035400 0.022430
0.018677 0.038116 0.022430
0.020508 0.037994 0.022430
0.034058 0.037903 0.022430
0.053528 0.041534 0.022430
0.072571 0.043457 0.022430
0.093262 0.045044 0.022430
0.115845 0.046814 0.022430
0.139587 0.048279 0.022430
0.165192 0.049927 0.022430
0.192108 0.051086 0.022430
0.221008 0.052338 0.022430
0.251801 0.053223 0.022430
0.284515 0.054321 0.022430
0.319702 0.054993 0.022430
0.356781 0.055847 0.022430
0.396271 0.056458 0.022430
0.437775 0.056885 0.022430
0.481567 0.057617 0.022430
0.525360 0.057739 0.022430
0.568970 0.058105 0.022430
0.611877 0.058228 0.022430
0.653961 0.058441 0.022430
0.695465 0.058319 0.022430
0.736847 0.058441 0.022430
0.777771 0.058197 0.022430
0.818146 0.058228 0.022430
0.856171 0.057831 0.022430
0.890228 0.057434 0.022430
0.919220 0.057129 0.022430
0.942841 0.056427 0.022430
0.961945 0.056274 0.022430
0.977448 0.055511 0.022430
0.990417 0.055084 0.022430
0.995453 0.069702 0.022430
0.018677 0.058197 0.022430
0.022430 0.058105 0.022430
0.033447 0.058044 0.022430
0.049316 0.057892 0.022430
0.071991 0.063385 0.022430
0.092834 0.065430 0.022430
0.115021 0.067566 0.022430
0.138977 0.069397 0.022430
0.164856 0.071472 0.022430
0.191864 0.073334 0.022430
0.220734 0.075195 0.022430
0.251526 0.077087 0.022430
0.284241 0.078796 0.022430
0.319397 0.079956 0.022430
0.356537 0.081177 0.022430
0.395813 0.082153 0.022430
0.437592 0.083160 0.022430
0.481323 0.083893 0.022430
0.525116 0.084961 0.022430
0.568787 0.085541 0.022430
0.611694 0.086273 0.022430
0.653748 0.086761 0.022430
0.695251 0.087585 0.022430
0.736725 0.087799 0.022430
0.777649 0.088318 0.022430
0.817993 0.088715 0.022430
0.856079 0.089233 0.022430
0.890137 0.089325 0.022430
0.919128 0.089661 0.022430
0.942780 0.089783 0.022430
0.961853 0.090027 0.022430
0.977386 0.089844 0.022430
0.990387 0.090118 0.022430
0.995392 0.103973 0.022430
0.018677 0.081421 0.022430
0.024017 0.081329 0.022430
0.035278 0.081268 0.022430
0.047241 0.081177 0.022430
0.066162 0.080994 0.022430
0.092102 0.088531 0.022430
0.114288 0.090607 0.022430
0.138550 0.093414 0.022430
0.163818 0.095551 0.022430
0.191040 0.097931 0.022430
0.219879 0.100067 0.022430
0.251221 0.102295 0.022430
0.283966 0.104187 0.022430
0.319092 0.106171 0.022430
0.356232 0.108276 0.022430
0.395508 0.110168 0.022430
0.437286 0.112152 0.022430
0.481018 0.113495 0.022430
0.524872 0.114594 0.022430
0.568512 0.115723 0.022430
0.611328 0.116882 0.022430
0.653534 0.117676 0.022430
0.695038 0.118958 0.022430
0.736572 0.119598 0.022430
0.777435 0.120789 0.022430
0.817780 0.121368 0.022430
0.855896 0.122009 0.022430
0.890015 0.123199 0.022430
0.919037 0.123566 0.022430
0.942688 0.124390 0.022430
0.961792 0.124817 0.022430
0.977325 0.125885 0.022430
0.990326 0.126160 0.022430
0.995361 0.140411 0.022430
0.018677 0.107391 0.022430
0.024200 0.107269 0.022430
0.037140 0.107208 0.022430
0.049072 0.107147 0.022430
0.063721 0.107025 0.022430
0.084290 0.106812 0.022430
0.113708 0.117432 0.022430
0.137634 0.119415 0.022430
0.163361 0.121948 0.022430
0.190552 0.124756 0.022430
0.219452 0.127380 0.022430
0.250153 0.129883 0.022430
0.282837 0.132324 0.022430
0.317596 0.134735 0.022430
0.355896 0.137054 0.022430
0.395172 0.139343 0.022430
0.436951 0.141693 0.022430
0.480682 0.143982 0.022430
0.524567 0.146057 0.022430
0.568237 0.148315 0.022430
0.610870 0.149963 0.022430
0.653229 0.151550 0.022430
0.694794 0.152649 0.022430
0.736298 0.154327 0.022430
0.777222 0.155243 0.022430
0.817535 0.156769 0.022430
0.855682 0.157837 0.022430
0.889832 0.159332 0.022430
0.918915 0.160034 0.022430
0.942566 0.161438 0.022430
0.961700 0.162445 0.022430
0.977234 0.163666 0.022430
0.990265 0.164490 0.022430
0.995300 0.178040 0.022430
0.018677 0.136566 0.022430
0.023987 0.136475 0.022430
0.038849 0.136383 0.022430
0.051270 0.136322 0.022430
0.064270 0.136230 0.022430
0.081787 0.136078 0.022430
0.103943 0.135834 0.022430
0.136871 0.149597 0.022430
0.162415 0.151306 0.022430
0.189545 0.154083 0.022430
0.218964 0.157318 0.022430
0.249664 0.160095 0.022430
0.282379 0.162933 0.022430
0.317200 0.165833 0.022430
0.354462 0.168304 0.022430
0.393677 0.171265 0.022430
0.436554 0.173645 0.022430
0.480194 0.176453 0.022430
0.524231 0.178986 0.022430
0.567932 0.181335 0.022430
0.610596 0.183838 0.022430
0.652924 0.185913 0.022430
0.694458 0.188354 0.022430
0.736023 0.190918 0.022430
0.776978 0.193054 0.022430
0.817261 0.194855 0.022430
0.855530 0.196167 0.022430
0.889648 0.198059 0.022430
0.918732 0.199341 0.022430
0.942474 0.201233 0.022430
0.961609 0.202179 0.022430
0.977173 0.204010 0.022430
0.990173 0.205170 0.022430
0.995239 0.218201 0.022430
0.018677 0.168396 0.022430
0.023560 0.168335 0.022430
0.040283 0.168243 0.022430
0.053101 0.168213 0.022430
0.066498 0.168121 0.022430
0.080505 0.168030 0.022430
0.101135 0.167816 0.022430
0.124939 0.167572 0.022430
0.161682 0.185089 0.022430
0.188934 0.186920 0.022430
0.217834 0.189575 0.022430
0.248505 0.192810 0.022430
0.281891 0.196411 0.022430
0.316650 0.199310 0.022430
0.353699 0.202484 0.022430
0.393158 0.205475 0.022430
0.434906 0.208374 0.022430
0.478149 0.211578 0.022430
0.522339 0.214111 0.022430
0.567535 0.217133 0.022430
0.610168 0.219635 0.022430
0.652588 0.222565 0.022430
0.694183 0.225311 0.022430
0.735687 0.227966 0.022430
0.776672 0.230652 0.022430
0.816986 0.233002 0.022430
0.855225 0.235809 0.022430
0.889404 0.238586 0.022430
0.918549 0.240936 0.022430
0.942291 0.243042 0.022430
0.961487 0.244598 0.022430
0.977081 0.246582 0.022430
0.990021 0.247986 0.022430
0.995178 0.260345 0.022430
0.018677 0.203522 0.022430
0.022736 0.203461 0.022430
0.041840 0.203369 0.022430
0.054779 0.203247 0.022430
0.068604 0.203094 0.022430
0.082977 0.202881 0.022430
0.098297 0.202759 0.022430
0.121887 0.202545 0.022430
0.147156 0.202271 0.022430
0.187897 0.224060 0.022430
0.216919 0.225708 0.022430
0.247620 0.227966 0.022430
0.280518 0.231506 0.022430
0.316132 0.235352 0.022430
0.353119 0.238617 0.022430
0.392700 0.241974 0.022430
0.434052 0.245117 0.022430
0.477722 0.248474 0.022430
0.521912 0.251617 0.022430
0.565247 0.254730 0.022430
0.608276 0.257965 0.022430
0.650299 0.261108 0.022430
0.693817 0.263977 0.022430
0.735382 0.266998 0.022430
0.776306 0.269806 0.022430
0.816681 0.272919 0.022430
0.854919 0.275635 0.022430
0.889191 0.278687 0.022430
0.918365 0.281525 0.022430
0.942139 0.284332 0.022430
0.961395 0.287262 0.022430
0.976959 0.290100 0.022430
0.989929 0.292694 0.022430
0.995087 0.304138 0.022430
0.018677 0.241089 0.022430
0.021393 0.241028 0.022430
0.041595 0.240967 0.022430
0.056549 0.240875 0.022430
0.070587 0.240814 0.022430
0.085388 0.240723 0.022430
0.100586 0.240601 0.022430
0.118805 0.240448 0.022430
0.144012 0.240234 0.022430
0.170776 0.239868 0.022430
0.216064 0.265533 0.022430
0.246826 0.267090 0.022430
0.279572 0.269165 0.022430
0.314606 0.272797 0.022430
0.351471 0.276398 0.022430
0.392059 0.280182 0.022430
0.433472 0.283875 0.022430
0.477112 0.287781 0.022430
0.521332 0.290985 0.022430
0.564728 0.294403 0.022430
0.607788 0.297974 0.022430
0.649811 0.300995 0.022430
0.691742 0.304688 0.022430
0.732941 0.307831 0.022430
0.775909 0.310974 0.022430
0.816315 0.314301 0.022430
0.854614 0.317291 0.022430
0.888916 0.320496 0.022430
0.918152 0.323395 0.022430
0.941986 0.326477 0.022430
0.961212 0.329651 0.022430
0.976868 0.332520 0.022430
0.989838 0.335938 0.022430
0.994995 0.346344 0.022430
0.018677 0.281128 0.022430
0.019867 0.280975 0.022430
0.040680 0.280884 0.022430
0.057892 0.280731 0.022430
0.072510 0.280579 0.022430
0.087433 0.280518 0.022430
0.103119 0.280396 0.022430
0.119324 0.280273 0.022430
0.140778 0.280060 0.022430
0.167480 0.279785 0.022430
0.195862 0.279541 0.022430
0.245941 0.309082 0.022430
0.278656 0.311188 0.022430
0.313599 0.312836 0.022430
0.350708 0.315979 0.022430
0.389954 0.319702 0.022430
0.432770 0.324402 0.022430
0.476471 0.328033 0.022430
0.520782 0.331787 0.022430
0.564148 0.335480 0.022430
0.607239 0.338684 0.022430
0.649414 0.342377 0.022430
0.691223 0.346130 0.022430
0.732422 0.349396 0.022430
0.773407 0.352905 0.022430
0.814178 0.356537 0.022430
0.852478 0.359955 0.022430
0.888611 0.362976 0.022430
0.917908 0.366241 0.022430
0.941803 0.369720 0.022430
0.961029 0.372803 0.022430
0.976746 0.375946 0.022430
0.989716 0.379486 0.022430
0.994873 0.388580 0.022430
0.018677 0.322632 0.022430
0.018677 0.322601 0.022430
0.039764 0.322510 0.022430
0.059357 0.322449 0.022430
0.074158 0.322357 0.022430
0.089600 0.322235 0.022430
0.105530 0.322113 0.022430
0.121948 0.322052 0.022430
0.139191 0.321930 0.022430
0.164001 0.321716 0.022430
0.192505 0.321381 0.022430
0.222565 0.321075 0.022430
0.277679 0.354828 0.022430
0.312622 0.356384 0.022430
0.349854 0.358154 0.022430
0.389130 0.361053 0.022430
0.430817 0.364838 0.022430
0.474243 0.368835 0.022430
0.519745 0.373199 0.022430
0.563538 0.376953 0.022430
0.606689 0.380585 0.022430
0.648804 0.384735 0.022430
0.690765 0.387970 0.022430
0.731934 0.391907 0.022430
0.772949 0.395630 0.022430
0.813416 0.398834 0.022430
0.852051 0.402679 0.022430
0.886658 0.405975 0.022430
0.916229 0.409515 0.022430
0.940399 0.413391 0.022430
0.960876 0.416138 0.022430
0.976624 0.419464 0.022430
0.989563 0.423462 0.022430
0.994751 0.431152 0.022430
0.018677 0.365601 0.022430
0.018677 0.365540 0.022430
0.038483 0.365448 0.022430
0.060486 0.365356 0.022430
0.075806 0.365295 0.022430
0.091644 0.365234 0.022430
0.107758 0.365112 0.022430
0.124573 0.364990 0.022430
0.142212 0.364868 0.022430
0.160370 0.364716 0.022430
0.188873 0.364532 0.022430
0.218903 0.363953 0.022430
0.250580 0.363556 0.022430
0.311554 0.400635 0.022430
0.348663 0.402618 0.022430
0.388245 0.404510 0.022430
0.429932 0.406494 0.022430
0.473328 0.410461 0.022430
0.517639 0.414185 0.022430
0.561371 0.418182 0.022430
0.606018 0.422913 0.022430
0.648224 0.426636 0.022430
0.689941 0.430176 0.022430
0.731354 0.434143 0.022430
0.772430 0.437683 0.022430
0.812897 0.441284 0.022430
0.851501 0.445679 0.022430
0.886292 0.448761 0.022430
0.915894 0.452515 0.022430
0.940002 0.456024 0.022430
0.959595 0.459808 0.022430
0.975525 0.463318 0.022430
0.989471 0.466095 0.022430
0.994659 0.472595 0.022430
0.018677 0.409241 0.022430
0.018677 0.409210 0.022430
0.036682 0.409119 0.022430
0.059937 0.409058 0.022430
0.077148 0.408966 0.022430
0.093414 0.408875 0.022430
0.109985 0.408813 0.022430
0.127289 0.408752 0.022430
0.144684 0.408417 0.022430
0.163116 0.408173 0.022430
0.185150 0.407959 0.022430
0.215088 0.407715 0.022430
0.246704 0.407440 0.022430
0.280579 0.407074 0.022430
0.347504 0.447205 0.022430
0.387146 0.449219 0.022430
0.428619 0.450806 0.022430
0.472351 0.452881 0.022430
0.516754 0.455994 0.022430
0.560486 0.460266 0.022430
0.603424 0.464386 0.022430
0.647522 0.468506 0.022430
0.689209 0.472687 0.022430
0.730743 0.476013 0.022430
0.771790 0.479614 0.022430
0.812317 0.483551 0.022430
0.850861 0.487152 0.022430
0.885651 0.490448 0.022430
0.915344 0.494354 0.022430
0.939728 0.497528 0.022430
0.959381 0.501282 0.022430
0.975342 0.505096 0.022430
0.988586 0.508392 0.022430
0.994507 0.513062 0.022430
0.018677 0.452789 0.022430
0.018677 0.452728 0.022430
0.034393 0.452667 0.022430
0.058624 0.452576 0.022430
0.078552 0.452484 0.022430
0.095123 0.452393 0.022430
0.112000 0.452332 0.022430
0.129456 0.452087 0.022430
0.147461 0.451874 0.022430
0.166199 0.451660 0.022430
0.185516 0.451569 0.022430
0.210999 0.451324 0.022430
0.242676 0.451111 0.022430
0.276428 0.450806 0.022430
0.312134 0.450439 0.022430
0.385986 0.492859 0.022430
0.427521 0.494965 0.022430
0.471313 0.496490 0.022430
0.515808 0.498383 0.022430
0.559418 0.500763 0.022430
0.602600 0.504974 0.022430
0.644867 0.508545 0.022430
0.686829 0.512573 0.022430
0.730103 0.516754 0.022430
0.771179 0.520599 0.022430
0.811676 0.524323 0.022430
0.850281 0.527802 0.022430
0.885132 0.531189 0.022430
0.915009 0.534790 0.022430
0.939423 0.537750 0.022430
0.959137 0.542297 0.022430
0.975189 0.545380 0.022430
0.988464 0.548584 0.022430
0.994354 0.551971 0.022430
0.018677 0.495575 0.022430
0.018677 0.495544 0.022430
0.031708 0.495453 0.022430
0.057159 0.495392 0.022430
0.079651 0.495300 0.022430
0.096649 0.495209 0.022430
0.114014 0.495117 0.022430
0.131775 0.495056 0.022430
0.150116 0.494934 0.022430
0.169098 0.494812 0.022430
0.188782 0.494598 0.022430
0.208740 0.494354 0.022430
0.238495 0.494080 0.022430
0.272278 0.493835 0.022430
0.307770 0.493561 0.022430
0.345764 0.493225 0.022430
0.423462 0.534546 0.022430
0.470184 0.538849 0.022430
0.514709 0.540710 0.022430
0.558411 0.542603 0.022430
0.601715 0.544128 0.022430
0.644012 0.548279 0.022430
0.686035 0.551880 0.022430
0.727386 0.555359 0.022430
0.770508 0.559662 0.022430
0.811066 0.563538 0.022430
0.849670 0.567169 0.022430
0.884644 0.570618 0.022430
0.914551 0.573883 0.022430
0.939087 0.577789 0.022430
0.958862 0.580658 0.022430
0.974976 0.584351 0.022430
0.988159 0.587982 0.022430
0.994171 0.589844 0.022430
0.018677 0.537262 0.022430
0.018677 0.537231 0.022430
0.028473 0.537170 0.022430
0.055237 0.537079 0.022430
0.080566 0.537018 0.022430
0.097992 0.536957 0.022430
0.115936 0.536865 0.022430
0.134094 0.536804 0.022430
0.152496 0.536743 0.022430
0.171814 0.536621 0.022430
0.191589 0.536499 0.022430
0.212219 0.536377 0.022430
0.234192 0.536224 0.022430
0.267883 0.536041 0.022430
0.303284 0.535553 0.022430
0.341187 0.535187 0.022430
0.381317 0.534851 0.022430
0.462860 0.574677 0.022430
0.513214 0.581818 0.022430
0.557312 0.583557 0.022430
0.600739 0.585327 0.022430
0.643127 0.586823 0.022430
0.685181 0.589935 0.022430
0.726532 0.593994 0.022430
0.767609 0.597137 0.022430
0.808411 0.600677 0.022430
0.848999 0.605103 0.022430
0.884064 0.608368 0.022430
0.914062 0.612030 0.022430
0.938751 0.615326 0.022430
0.958618 0.618469 0.022430
0.974762 0.621796 0.022430
0.987976 0.624969 0.022430
0.994019 0.626068 0.022430
0.018677 0.577484 0.022430
0.018677 0.577423 0.022430
0.024261 0.577393 0.022430
0.053070 0.577332 0.022430
0.079773 0.577271 0.022430
0.099304 0.577179 0.022430
0.117523 0.577118 0.022430
0.136108 0.577026 0.022430
0.155029 0.576965 0.022430
0.174500 0.576843 0.022430
0.194702 0.576721 0.022430
0.215637 0.576630 0.022430
0.237183 0.576508 0.022430
0.263306 0.576324 0.022430
0.298615 0.576141 0.022430
0.336426 0.575897 0.022430
0.376465 0.575623 0.022430
0.418640 0.575165 0.022430
0.503448 0.613739 0.022430
0.556152 0.623138 0.022430
0.599335 0.624603 0.022430
0.642090 0.626434 0.022430
0.683929 0.627777 0.022430
0.725708 0.630310 0.022430
0.766846 0.634003 0.022430
0.807343 0.637329 0.022430
0.846680 0.640869 0.022430
0.881866 0.644043 0.022430
0.913635 0.648376 0.022430
0.938385 0.651764 0.022430
0.958313 0.654755 0.022430
0.974518 0.658173 0.022430
0.987823 0.661316 0.022430
0.993835 0.661072 0.022430
0.018677 0.616547 0.022430
0.018677 0.616486 0.022430
0.019318 0.616425 0.022430
0.050415 0.616333 0.022430
0.078217 0.616211 0.022430
0.100403 0.616089 0.022430
0.118958 0.615967 0.022430
0.138062 0.615906 0.022430
0.157318 0.615814 0.022430
0.177246 0.615753 0.022430
0.197784 0.615662 0.022430
0.218811 0.615601 0.022430
0.240906 0.615479 0.022430
0.263580 0.615356 0.022430
0.294006 0.615173 0.022430
0.331604 0.614960 0.022430
0.371552 0.614685 0.022430
0.413605 0.614349 0.022430
0.457916 0.614075 0.022430
0.543518 0.651581 0.022430
0.598114 0.663086 0.022430
0.641022 0.664520 0.022430
0.682892 0.666046 0.022430
0.724762 0.667755 0.022430
0.765930 0.669556 0.022430
0.806610 0.672852 0.022430
0.845642 0.676208 0.022430
0.880981 0.679443 0.022430
0.911591 0.683075 0.022430
0.937988 0.686798 0.022430
0.958008 0.690186 0.022430
0.974152 0.693420 0.022430
0.987579 0.696564 0.022430
0.993561 0.695221 0.022430
0.018677 0.654572 0.022430
0.018677 0.654541 0.022430
0.018677 0.654449 0.022430
0.047333 0.654419 0.022430
0.076202 0.654358 0.022430
0.101624 0.654297 0.022430
0.120697 0.654175 0.022430
0.139801 0.654053 0.022430
0.159546 0.653931 0.022430
0.179688 0.653748 0.022430
0.200531 0.653656 0.022430
0.222198 0.653595 0.022430
0.244537 0.653442 0.022430
0.267426 0.653320 0.022430
0.291382 0.653198 0.022430
0.326782 0.653046 0.022430
0.366455 0.652802 0.022430
0.408630 0.652527 0.022430
0.452606 0.652222 0.022430
0.498169 0.651917 0.022430
0.582550 0.688141 0.022430
0.639709 0.701843 0.022430
0.681854 0.703766 0.022430
0.723450 0.705109 0.022430
0.764984 0.706665 0.022430
0.805695 0.708282 0.022430
0.844879 0.710938 0.022430
0.880341 0.714539 0.022430
0.910980 0.717499 0.022430
0.936218 0.721222 0.022430
0.956573 0.724426 0.022430
0.973877 0.728180 0.022430
0.987366 0.731781 0.022430
0.993378 0.729492 0.022430
0.018677 0.691376 0.022430
0.018677 0.691345 0.022430
0.018677 0.691284 0.022430
0.043884 0.691223 0.022430
0.074097 0.691101 0.022430
0.102600 0.690979 0.022430
0.121887 0.690857 0.022430
0.141815 0.690765 0.022430
0.161804 0.690704 0.022430
0.182373 0.690643 0.022430
0.203461 0.690552 0.022430
0.225281 0.690430 0.022430
0.247742 0.690369 0.022430
0.271393 0.690247 0.022430
0.295593 0.690094 0.022430
0.321686 0.689972 0.022430
0.361420 0.689728 0.022430
0.403473 0.689514 0.022430
0.447388 0.689270 0.022430
0.492950 0.688995 0.022430
0.538330 0.688660 0.022430
0.621460 0.724304 0.022430
0.680725 0.740601 0.022430
0.722382 0.741974 0.022430
0.764008 0.743408 0.022430
0.804779 0.745087 0.022430
0.844025 0.746643 0.022430
0.879639 0.749023 0.022430
0.910431 0.752350 0.022430
0.935760 0.755585 0.022430
0.956207 0.758606 0.022430
0.972809 0.762268 0.022430
0.987152 0.766418 0.022430
0.993164 0.762848 0.022430
0.018677 0.727478 0.022430
0.018677 0.727448 0.022430
0.018677 0.727417 0.022430
0.039948 0.727356 0.022430
0.071777 0.727295 0.022430
0.101807 0.727203 0.022430
0.123352 0.727142 0.022430
0.143463 0.727081 0.022430
0.163818 0.727020 0.022430
0.184845 0.726959 0.022430
0.206329 0.726929 0.022430
0.228424 0.726837 0.022430
0.251282 0.726746 0.022430
0.274933 0.726654 0.022430
0.299927 0.726532 0.022430
0.325317 0.726379 0.022430
0.356232 0.726196 0.022430
0.398071 0.725983 0.022430
0.442078 0.725769 0.022430
0.487610 0.725494 0.022430
0.533173 0.724915 0.022430
0.577942 0.724640 0.022430
0.659882 0.760345 0.022430
0.721222 0.778717 0.022430
0.762573 0.780609 0.022430
0.803802 0.781921 0.022430
0.843140 0.783386 0.022430
0.878876 0.785004 0.022430
0.909851 0.786743 0.022430
0.935272 0.789856 0.022430
0.955841 0.793274 0.022430
0.972473 0.796722 0.022430
0.986084 0.799774 0.022430
0.992950 0.796417 0.022430
0.018677 0.763641 0.022430
0.018677 0.763641 0.022430
0.018677 0.763611 0.022430
0.035797 0.763519 0.022430
0.069214 0.763458 0.022430
0.100128 0.763397 0.022430
0.124756 0.763367 0.022430
0.145355 0.763306 0.022430
0.166107 0.763245 0.022430
0.187225 0.763184 0.022430
0.209198 0.763092 0.022430
0.231689 0.763000 0.022430
0.254852 0.762939 0.022430
0.278717 0.762726 0.022430
0.303589 0.762512 0.022430
0.329803 0.762299 0.022430
0.356567 0.762146 0.022430
0.392700 0.761993 0.022430
0.436554 0.761810 0.022430
0.482330 0.761536 0.022430
0.527985 0.761261 0.022430
0.572815 0.760956 0.022430
0.616699 0.760620 0.022430
0.698090 0.796143 0.022430
0.761444 0.817139 0.022430
0.802399 0.818512 0.022430
0.842163 0.819946 0.022430
0.878082 0.821411 0.022430
0.909180 0.822876 0.022430
0.934814 0.824371 0.022430
0.955444 0.827423 0.022430
0.972076 0.830566 0.022430
0.985840 0.833771 0.022430
0.992737 0.829651 0.022430
0.018677 0.799622 0.022430
0.018677 0.799622 0.022430
0.018677 0.799591 0.022430
0.030548 0.799561 0.022430
0.066162 0.799469 0.022430
0.098480 0.799438 0.022430
0.126038 0.799377 0.022430
0.146973 0.799347 0.022430
0.168243 0.799286 0.022430
0.189972 0.799194 0.022430
0.211945 0.799103 0.022430
0.234894 0.799042 0.022430
0.258301 0.798920 0.022430
0.282654 0.798828 0.022430
0.307861 0.798737 0.022430
0.334167 0.798584 0.022430
0.361206 0.798492 0.022430
0.389404 0.798340 0.022430
0.431152 0.798126 0.022430
0.476868 0.797882 0.022430
0.522644 0.797546 0.022430
0.567719 0.797119 0.022430
0.611969 0.796783 0.022430
0.655243 0.796448 0.022430
0.735931 0.831512 0.022430
0.801300 0.853760 0.022430
0.840973 0.855255 0.022430
0.877258 0.856567 0.022430
0.908508 0.858246 0.022430
0.934265 0.859344 0.022430
0.955048 0.860779 0.022430
0.971771 0.863190 0.022430
0.985535 0.866241 0.022430
0.992493 0.861725 0.022430
0.018677 0.835388 0.022430
0.018677 0.835358 0.022430
0.018677 0.835358 0.022430
0.024780 0.835327 0.022430
0.063110 0.835266 0.022430
0.096222 0.835175 0.022430
0.127441 0.835052 0.022430
0.148651 0.834900 0.022430
0.170227 0.834839 0.022430
0.192230 0.834686 0.022430
0.214935 0.834595 0.022430
0.237762 0.834534 0.022430
0.261780 0.834442 0.022430
0.286591 0.834320 0.022430
0.311890 0.834259 0.022430
0.338470 0.834167 0.022430
0.366302 0.834015 0.022430
0.394226 0.833893 0.022430
0.425446 0.833710 0.022430
0.471222 0.833466 0.022430
0.517059 0.833282 0.022430
0.562561 0.833069 0.022430
0.606964 0.832764 0.022430
0.650177 0.832428 0.022430
0.693329 0.831970 0.022430
0.773163 0.865295 0.022430
0.839874 0.888031 0.022430
0.876038 0.889160 0.022430
0.907593 0.890686 0.022430
0.933502 0.891876 0.022430
0.954498 0.893127 0.022430
0.971405 0.894592 0.022430
0.985291 0.895905 0.022430
0.992279 0.890839 0.022430
0.018677 0.869049 0.022430
0.018677 0.869049 0.022430
0.018677 0.869019 0.022430
0.018677 0.868958 0.022430
0.059509 0.868958 0.022430
0.093903 0.868896 0.022430
0.126953 0.868835 0.022430
0.150482 0.868774 0.022430
0.172333 0.868683 0.022430
0.194672 0.868622 0.022430
0.217834 0.868561 0.022430
0.240936 0.868439 0.022430
0.265259 0.868286 0.022430
0.290253 0.868073 0.022430
0.316284 0.867981 0.022430
0.342957 0.867920 0.022430
0.371002 0.867798 0.022430
0.399780 0.867676 0.022430
0.429382 0.867554 0.022430
0.465424 0.867371 0.022430
0.511719 0.867188 0.022430
0.557251 0.866974 0.022430
0.601654 0.866699 0.022430
0.645569 0.866455 0.022430
0.688477 0.866150 0.022430
0.731171 0.865845 0.022430
0.810425 0.896454 0.022430
0.875153 0.918671 0.022430
0.906799 0.919525 0.022430
0.932892 0.920929 0.022430
0.953979 0.921844 0.022430
0.971069 0.922913 0.022430
