core-styles/CQ.cube
#Created by: Adobe Photoshop Export Color Lookup Plugin
TITLE "多场景样片-v1.0.psd"
#LUT size
LUT_3D_SIZE 7
#data domain
#LUT data points
DOMAIN_MIN 0.000000 0.000000 0.000000
DOMAIN_MAX 0.909091 0.909091 0.909091
0.018677 0.016327 0.022430
0.093964 0.016327 0.022430
0.221405 0.016327 0.022430
0.396637 0.016327 0.022430
0.612122 0.016327 0.022430
0.818298 0.016327 0.022430
0.962006 0.016327 0.022430
0.018677 0.107391 0.022430
0.084290 0.106812 0.022430
0.219452 0.127380 0.022430
0.395172 0.139343 0.022430
0.610870 0.149963 0.022430
0.817535 0.156769 0.022430
0.961700 0.162445 0.022430
0.018677 0.281128 0.022430
0.087433 0.280518 0.022430
0.195862 0.279541 0.022430
0.389954 0.319702 0.022430
0.607239 0.338684 0.022430
0.814178 0.356537 0.022430
0.961029 0.372803 0.022430
0.018677 0.495575 0.022430
0.096649 0.495209 0.022430
0.188782 0.494598 0.022430
0.345764 0.493225 0.022430
0.601715 0.544128 0.022430
0.811066 0.563538 0.022430
0.958862 0.580658 0.022430
0.018677 0.691376 0.022430
0.102600 0.690979 0.022430
0.203461 0.690552 0.022430
0.321686 0.689972 0.022430
0.538330 0.688660 0.022430
0.804779 0.745087 0.022430
0.956207 0.758606 0.022430
0.018677 0.869049 0.022430
0.093903 0.868896 0.022430
0.217834 0.868561 0.022430
0.342957 0.867920 0.022430
0.511719 0.867188 0.022430
0.731171 0.865845 0.022430
0.953979 0.921844 0.022430
0.018677 0.992859 0.022430
0.080292 0.992737 0.022430
0.231567 0.992554 0.022430
0.365814 0.992249 0.022430
0.519714 0.991760 0.022430
0.706512 0.991211 0.022430
0.903290 0.990204 0.022430
0.018677 0.016327 0.089539
0.093689 0.016327 0.081451
0.220978 0.016327 0.062164
0.396790 0.016327 0.037567
0.612244 0.016327 0.022430
0.818420 0.016327 0.022430
0.962067 0.016327 0.022430
0.018677 0.104126 0.097382
0.089905 0.105194 0.087097
0.218536 0.113617 0.079468
0.392975 0.120514 0.068634
0.608185 0.126282 0.055359
0.814850 0.131439 0.038391
0.960419 0.136078 0.022430
0.018677 0.290222 0.075775
0.089874 0.279388 0.072205
0.203949 0.278320 0.069946
0.389221 0.305847 0.060425
0.606110 0.322571 0.045197
0.812958 0.338715 0.026276
0.959656 0.351196 0.022430
0.018677 0.500366 0.026001
0.088501 0.493439 0.053009
0.207764 0.492798 0.050537
0.356567 0.491516 0.045929
0.599670 0.530792 0.028015
0.808685 0.549225 0.022430
0.957764 0.566528 0.022430
0.018677 0.691437 0.022430
0.081482 0.688995 0.022949
0.223877 0.688477 0.022430
0.346832 0.687653 0.022430
0.550446 0.686340 0.022430
0.802887 0.730469 0.022430
0.956085 0.747314 0.022430
0.018677 0.869110 0.022430
0.069061 0.866791 0.022430
0.239685 0.866333 0.022430
0.370544 0.865906 0.022430
0.523102 0.864929 0.022430
0.742523 0.863617 0.022430
0.953003 0.910950 0.022430
0.018677 0.992889 0.022430
0.050110 0.991486 0.022430
0.240601 0.991241 0.022430
0.394592 0.990997 0.022430
0.550354 0.990570 0.022430
0.717651 0.989899 0.022430
0.911041 0.989014 0.022430
0.022919 0.016327 0.264587
0.111023 0.016327 0.267914
0.220428 0.016327 0.244476
0.394287 0.016327 0.223175
0.610443 0.016327 0.192566
0.816681 0.016327 0.158661
0.962067 0.016327 0.119843
0.018677 0.085846 0.276855
0.098511 0.102417 0.265533
0.218506 0.096405 0.255005
0.392731 0.089722 0.226990
0.608582 0.078033 0.193848
0.815247 0.064178 0.158112
0.960602 0.045990 0.121674
0.018677 0.270538 0.285339
0.076508 0.274017 0.274445
0.210541 0.275177 0.260773
0.387054 0.287781 0.252014
0.603424 0.297607 0.239349
0.810516 0.307617 0.225067
0.958466 0.317688 0.210327
0.018677 0.520233 0.291473
0.059326 0.502838 0.246155
0.211365 0.491058 0.241302
0.367126 0.489777 0.238464
0.598969 0.517273 0.229858
0.807434 0.533630 0.215149
0.957184 0.549561 0.199158
0.018677 0.707672 0.228943
0.031250 0.693146 0.186432
0.212097 0.687317 0.221008
0.371796 0.686554 0.218323
0.562561 0.685028 0.214111
0.801300 0.718414 0.198944
0.954926 0.734436 0.185028
0.018677 0.879700 0.161499
0.018677 0.866852 0.122009
0.212067 0.864868 0.197662
0.395966 0.864166 0.194275
0.551147 0.863495 0.190460
0.753876 0.861938 0.183655
0.952087 0.899139 0.161743
0.018677 0.997253 0.080902
0.018677 0.991547 0.059631
0.210754 0.990021 0.168671
0.421539 0.989594 0.164276
0.578796 0.989197 0.159851
0.727448 0.988556 0.154236
0.918396 0.987671 0.143982
0.031616 0.016327 0.450012
0.125488 0.016327 0.450592
0.251678 0.016327 0.457336
0.394287 0.016327 0.421051
0.608856 0.016327 0.403259
0.816681 0.016327 0.375427
0.961121 0.016327 0.343567
0.018677 0.072205 0.456757
0.110168 0.102905 0.451050
0.239868 0.096588 0.453827
0.391998 0.088898 0.431610
0.606323 0.079590 0.409454
0.813507 0.065277 0.379181
0.959656 0.047882 0.347107
0.018677 0.245697 0.477966
0.078400 0.243469 0.461700
0.222321 0.269806 0.450897
0.387360 0.260529 0.440643
0.603516 0.252563 0.412628
0.811157 0.239258 0.379669
0.958740 0.225433 0.345093
0.018677 0.479492 0.479187
0.059113 0.482452 0.468933
0.193451 0.485931 0.458710
0.376038 0.485992 0.445068
0.595795 0.499359 0.437195
0.804779 0.510986 0.427032
0.956024 0.521759 0.415161
0.018677 0.724976 0.515228
0.020721 0.710388 0.473969
0.176483 0.695404 0.430908
0.378296 0.684784 0.427094
0.574036 0.683502 0.424469
0.800201 0.706604 0.417297
0.954224 0.721161 0.407135
0.018677 0.893646 0.460205
0.018677 0.881226 0.418335
0.158295 0.868866 0.375458
0.382263 0.863068 0.409973
0.579407 0.861938 0.407654
0.765106 0.860687 0.404541
0.951233 0.889099 0.392212
0.018677 1.000000 0.402344
0.018677 0.998047 0.359863
0.136353 0.990051 0.319000
0.387177 0.988617 0.392670
0.605286 0.988007 0.389740
0.753784 0.987518 0.387085
0.925293 0.986481 0.382568
0.040619 0.016327 0.611420
0.140961 0.016327 0.611145
0.269592 0.016327 0.616547
0.448456 0.016327 0.621765
0.608856 0.016327 0.578827
0.814819 0.016327 0.564087
0.960083 0.016327 0.544067
0.018677 0.061890 0.612640
0.123230 0.103973 0.612427
0.258942 0.100281 0.612793
0.432281 0.087463 0.618011
0.606354 0.079041 0.587311
0.811981 0.066162 0.571777
0.959656 0.047791 0.548828
0.018677 0.217133 0.631165
0.082581 0.220978 0.617706
0.236572 0.267487 0.612762
0.414673 0.258789 0.614746
0.602936 0.248627 0.595734
0.809174 0.240204 0.576141
0.958099 0.226196 0.551056
0.018677 0.457489 0.648438
0.059814 0.453491 0.635101
0.194458 0.450134 0.621246
0.392151 0.480316 0.611115
0.596436 0.470673 0.602448
0.805145 0.463745 0.578766
0.956421 0.451202 0.551727
0.018677 0.672607 0.644714
0.028290 0.674988 0.635559
0.175110 0.677582 0.626770
0.353943 0.680176 0.617706
0.584137 0.679291 0.605316
0.796448 0.691467 0.599487
0.952820 0.702454 0.591980
0.018677 0.901825 0.688080
0.018677 0.895844 0.667450
0.150757 0.883514 0.630280
0.335388 0.870300 0.593658
0.588501 0.859680 0.591858
0.776062 0.858337 0.589935
0.950562 0.879028 0.584015
0.018677 1.000000 0.653229
0.018677 1.000000 0.620178
0.128265 0.999023 0.584564
0.318512 0.991089 0.548676
0.594086 0.987091 0.578735
0.781067 0.986267 0.576935
0.931885 0.985474 0.574860
0.050262 0.016327 0.767853
0.154968 0.016327 0.767609
0.290375 0.016327 0.772308
0.470337 0.016327 0.778168
0.676788 0.016327 0.782104
0.814819 0.016327 0.722839
0.960083 0.016327 0.707458
0.018677 0.053009 0.767761
0.136841 0.105743 0.768677
0.279480 0.103027 0.768188
0.455475 0.090332 0.774078
0.659729 0.074585 0.779602
0.812042 0.065918 0.731628
0.958801 0.049225 0.715698
0.018677 0.196136 0.785706
0.087097 0.203583 0.769714
0.253723 0.268463 0.769257
0.439026 0.263245 0.769348
0.642487 0.246246 0.775208
0.809326 0.237701 0.740753
0.957336 0.227051 0.722961
0.018677 0.420746 0.807922
0.066498 0.420349 0.790802
0.199341 0.423279 0.774841
0.410919 0.477356 0.768250
0.624115 0.467834 0.770325
0.804810 0.458160 0.748718
0.955475 0.451141 0.726959
0.018677 0.652100 0.818359
0.027008 0.655365 0.810425
0.174377 0.651367 0.794647
0.354401 0.648621 0.777374
0.602203 0.675537 0.764801
0.797150 0.667603 0.754944
0.953064 0.662079 0.729523
0.018677 0.845245 0.813629
0.018677 0.849823 0.805573
0.153717 0.852142 0.794800
0.333038 0.854065 0.783752
0.562042 0.855835 0.772308
0.786346 0.855072 0.758057
0.948822 0.865997 0.751831
0.018677 1.000000 0.879608
0.018677 1.000000 0.861542
0.119446 1.000000 0.832825
0.309875 1.000000 0.786896
0.543030 0.991516 0.744568
0.792267 0.984772 0.744507
0.938232 0.983917 0.742706
0.060303 0.016327 0.947754
0.169586 0.016327 0.947571
0.312561 0.016327 0.948853
0.495392 0.016327 0.955231
0.694214 0.016327 0.959534
0.886078 0.016327 0.961609
0.960083 0.016327 0.891663
0.018677 0.044739 0.947723
0.151154 0.107483 0.948273
0.298309 0.104523 0.947876
0.481873 0.093750 0.951508
0.680176 0.077484 0.956421
0.872192 0.059601 0.959564
0.958801 0.049072 0.901855
0.018677 0.177765 0.959534
0.089874 0.188385 0.948029
0.271942 0.270142 0.948334
0.465973 0.266815 0.947632
0.664246 0.250366 0.952698
0.856537 0.232086 0.957397
0.957367 0.225769 0.911011
0.018677 0.389740 0.976715
0.072449 0.394135 0.962616
0.205231 0.401764 0.948761
0.432617 0.477203 0.947449
0.647369 0.471924 0.947327
0.840210 0.454376 0.952454
0.955597 0.447083 0.919525
0.018677 0.624908 0.992035
0.038269 0.623230 0.979797
0.181702 0.621582 0.965942
0.360077 0.623932 0.952118
0.621307 0.672974 0.945129
0.822906 0.664948 0.947144
0.952881 0.657349 0.926758
0.018677 0.825470 0.991302
0.018677 0.831726 0.989624
0.150482 0.832947 0.980865
0.330505 0.828278 0.968140
0.561462 0.825439 0.953247
0.804535 0.852478 0.941254
0.948914 0.845428 0.931793
0.018677 0.973450 0.987610
0.018677 0.978821 0.985809
0.127197 0.980072 0.976929
0.311768 0.980957 0.968109
0.540344 0.981903 0.958313
0.766968 0.982513 0.947876
0.944183 0.982178 0.935181
