core-styles/cross.cube
#Created by: LUT Generator
#Copyright: (C) Copyright 2026
TITLE "负片-柔和粉彩"
LUT_3D_SIZE 5
0.816192 0.733322 0.716761
0.816192 0.733322 0.633061
0.816192 0.733322 0.475000
0.816192 0.733322 0.316939
0.816192 0.733322 0.233239
0.816192 0.650709 0.716761
0.816192 0.650709 0.633061
0.816192 0.650709 0.475000
0.816192 0.650709 0.316939
0.816192 0.650709 0.233239
0.816192 0.494700 0.716761
0.816192 0.494700 0.633061
0.816192 0.494700 0.475000
0.816192 0.494700 0.316939
0.816192 0.494700 0.233239
0.816192 0.338691 0.716761
0.816192 0.338691 0.633061
0.816192 0.338691 0.475000
0.816192 0.338691 0.316939
0.816192 0.338691 0.233239
0.816192 0.256078 0.716761
0.816192 0.256078 0.633061
0.816192 0.256078 0.475000
0.816192 0.256078 0.316939
0.816192 0.256078 0.233239
0.731391 0.733322 0.716761
0.731391 0.733322 0.633061
0.731391 0.733322 0.475000
0.731391 0.733322 0.316939
0.731391 0.733322 0.233239
0.731391 0.650709 0.716761
0.731391 0.650709 0.633061
0.731391 0.650709 0.475000
0.731391 0.650709 0.316939
0.731391 0.650709 0.233239
0.731391 0.494700 0.716761
0.731391 0.494700 0.633061
0.731391 0.494700 0.475000
0.731391 0.494700 0.316939
0.731391 0.494700 0.233239
0.731391 0.338691 0.716761
0.731391 0.338691 0.633061
0.731391 0.338691 0.475000
0.731391 0.338691 0.316939
0.731391 0.338691 0.233239
0.731391 0.256078 0.716761
0.731391 0.256078 0.633061
0.731391 0.256078 0.475000
0.731391 0.256078 0.316939
0.731391 0.256078 0.233239
0.571250 0.733322 0.716761
0.571250 0.733322 0.633061
0.571250 0.733322 0.475000
0.571250 0.733322 0.316939
0.571250 0.733322 0.233239
0.571250 0.650709 0.716761
0.571250 0.650709 0.633061
0.571250 0.650709 0.475000
0.571250 0.650709 0.316939
0.571250 0.650709 0.233239
0.571250 0.494700 0.716761
0.571250 0.494700 0.633061
0.571250 0.494700 0.475000
0.571250 0.494700 0.316939
0.571250 0.494700 0.233239
0.571250 0.338691 0.716761
0.571250 0.338691 0.633061
0.571250 0.338691 0.475000
0.571250 0.338691 0.316939
0.571250 0.338691 0.233239
0.571250 0.256078 0.716761
0.571250 0.256078 0.633061
0.571250 0.256078 0.475000
0.571250 0.256078 0.316939
0.571250 0.256078 0.233239
0.411109 0.733322 0.716761
0.411109 0.733322 0.633061
0.411109 0.733322 0.475000
0.411109 0.733322 0.316939
0.411109 0.733322 0.233239
0.411109 0.650709 0.716761
0.411109 0.650709 0.633061
0.411109 0.650709 0.475000
0.411109 0.650709 0.316939
0.411109 0.650709 0.233239
0.411109 0.494700 0.716761
0.411109 0.494700 0.633061
0.411109 0.494700 0.475000
0.411109 0.494700 0.316939
0.411109 0.494700 0.233239
0.411109 0.338691 0.716761
0.411109 0.338691 0.633061
0.411109 0.338691 0.475000
0.411109 0.338691 0.316939
0.411109 0.338691 0.233239
0.411109 0.256078 0.716761
0.411109 0.256078 0.633061
0.411109 0.256078 0.475000
0.411109 0.256078 0.316939
0.411109 0.256078 0.233239
0.326308 0.733322 0.716761
0.326308 0.733322 0.633061
0.326308 0.733322 0.475000
0.326308 0.733322 0.316939
0.326308 0.733322 0.233239
0.326308 0.650709 0.716761
0.326308 0.650709 0.633061
0.326308 0.650709 0.475000
0.326308 0.650709 0.316939
0.326308 0.650709 0.233239
0.326308 0.494700 0.716761
0.326308 0.494700 0.633061
0.326308 0.494700 0.475000
0.326308 0.494700 0.316939
0.326308 0.494700 0.233239
0.326308 0.338691 0.716761
0.326308 0.338691 0.633061
0.326308 0.338691 0.475000
0.326308 0.338691 0.316939
0.326308 0.338691 0.233239
0.326308 0.256078 0.716761
0.326308 0.256078 0.633061
0.326308 0.256078 0.475000
0.326308 0.256078 0.316939
0.326308 0.256078 0.233239
