core-styles/cross.cube
#Created by: LUT Generator
#Copyright: (C) Copyright 2026
TITLE "负片-柔和粉彩"
LUT_3D_SIZE 9
0.816192 0.733322 0.716761
0.816192 0.733322 0.684210
0.816192 0.733322 0.633061
0.816192 0.733322 0.561272
0.816192 0.733322 0.475000
0.816192 0.733322 0.388728
0.816192 0.733322 0.316939
0.816192 0.733322 0.265790
0.816192 0.733322 0.233239
0.816192 0.701194 0.716761
0.816192 0.701194 0.684210
0.816192 0.701194 0.633061
0.816192 0.701194 0.561272
0.816192 0.701194 0.475000
0.816192 0.701194 0.388728
0.816192 0.701194 0.316939
0.816192 0.701194 0.265790
0.816192 0.701194 0.233239
0.816192 0.650709 0.716761
0.816192 0.650709 0.684210
0.816192 0.650709 0.633061
0.816192 0.650709 0.561272
0.816192 0.650709 0.475000
0.816192 0.650709 0.388728
0.816192 0.650709 0.316939
0.816192 0.650709 0.265790
0.816192 0.650709 0.233239
0.816192 0.579852 0.716761
0.816192 0.579852 0.684210
0.816192 0.579852 0.633061
0.816192 0.579852 0.561272
0.816192 0.579852 0.475000
0.816192 0.579852 0.388728
0.816192 0.579852 0.316939
0.816192 0.579852 0.265790
0.816192 0.579852 0.233239
0.816192 0.494700 0.716761
0.816192 0.494700 0.684210
0.816192 0.494700 0.633061
0.816192 0.494700 0.561272
0.816192 0.494700 0.475000
0.816192 0.494700 0.388728
0.816192 0.494700 0.316939
0.816192 0.494700 0.265790
0.816192 0.494700 0.233239
0.816192 0.409548 0.716761
0.816192 0.409548 0.684210
0.816192 0.409548 0.633061
0.816192 0.409548 0.561272
0.816192 0.409548 0.475000
0.816192 0.409548 0.388728
0.816192 0.409548 0.316939
0.816192 0.409548 0.265790
0.816192 0.409548 0.233239
0.816192 0.338691 0.716761
0.816192 0.338691 0.684210
0.816192 0.338691 0.633061
0.816192 0.338691 0.561272
0.816192 0.338691 0.475000
0.816192 0.338691 0.388728
0.816192 0.338691 0.316939
0.816192 0.338691 0.265790
0.816192 0.338691 0.233239
0.816192 0.288206 0.716761
0.816192 0.288206 0.684210
0.816192 0.288206 0.633061
0.816192 0.288206 0.561272
0.816192 0.288206 0.475000
0.816192 0.288206 0.388728
0.816192 0.288206 0.316939
0.816192 0.288206 0.265790
0.816192 0.288206 0.233239
0.816192 0.256078 0.716761
0.816192 0.256078 0.684210
0.816192 0.256078 0.633061
0.816192 0.256078 0.561272
0.816192 0.256078 0.475000
0.816192 0.256078 0.388728
0.816192 0.256078 0.316939
0.816192 0.256078 0.265790
0.816192 0.256078 0.233239
0.783213 0.733322 0.716761
0.783213 0.733322 0.684210
0.783213 0.733322 0.633061
0.783213 0.733322 0.561272
0.783213 0.733322 0.475000
0.783213 0.733322 0.388728
0.783213 0.733322 0.316939
0.783213 0.733322 0.265790
0.783213 0.733322 0.233239
0.783213 0.701194 0.716761
0.783213 0.701194 0.684210
0.783213 0.701194 0.633061
0.783213 0.701194 0.561272
0.783213 0.701194 0.475000
0.783213 0.701194 0.388728
0.783213 0.701194 0.316939
0.783213 0.701194 0.265790
0.783213 0.701194 0.233239
0.783213 0.650709 0.716761
0.783213 0.650709 0.684210
0.783213 0.650709 0.633061
0.783213 0.650709 0.561272
0.783213 0.650709 0.475000
0.783213 0.650709 0.388728
0.783213 0.650709 0.316939
0.783213 0.650709 0.265790
0.783213 0.650709 0.233239
0.783213 0.579852 0.716761
0.783213 0.579852 0.684210
0.783213 0.579852 0.633061
0.783213 0.579852 0.561272
0.783213 0.579852 0.475000
0.783213 0.579852 0.388728
0.783213 0.579852 0.316939
0.783213 0.579852 0.265790
0.783213 0.579852 0.233239
0.783213 0.494700 0.716761
0.783213 0.494700 0.684210
0.783213 0.494700 0.633061
0.783213 0.494700 0.561272
0.783213 0.494700 0.475000
0.783213 0.494700 0.388728
0.783213 0.494700 0.316939
0.783213 0.494700 0.265790
0.783213 0.494700 0.233239
0.783213 0.409548 0.716761
0.783213 0.409548 0.684210
0.783213 0.409548 0.633061
0.783213 0.409548 0.561272
0.783213 0.409548 0.475000
0.783213 0.409548 0.388728
0.783213 0.409548 0.316939
0.783213 0.409548 0.265790
0.783213 0.409548 0.233239
0.783213 0.338691 0.716761
0.783213 0.338691 0.684210
0.783213 0.338691 0.633061
0.783213 0.338691 0.561272
0.783213 0.338691 0.475000
0.783213 0.338691 0.388728
0.783213 0.338691 0.316939
0.783213 0.338691 0.265790
0.783213 0.338691 0.233239
0.783213 0.288206 0.716761
0.783213 0.288206 0.684210
0.783213 0.288206 0.633061
0.783213 0.288206 0.561272
0.783213 0.288206 0.475000
0.783213 0.288206 0.388728
0.783213 0.288206 0.316939
0.783213 0.288206 0.265790
0.783213 0.288206 0.233239
0.783213 0.256078 0.716761
0.783213 0.256078 0.684210
0.783213 0.256078 0.633061
0.783213 0.256078 0.561272
0.783213 0.256078 0.475000
0.783213 0.256078 0.388728
0.783213 0.256078 0.316939
0.783213 0.256078 0.265790
0.783213 0.256078 0.233239
0.731391 0.733322 0.716761
0.731391 0.733322 0.684210
0.731391 0.733322 0.633061
0.731391 0.733322 0.561272
0.731391 0.733322 0.475000
0.731391 0.733322 0.388728
0.731391 0.733322 0.316939
0.731391 0.733322 0.265790
0.731391 0.733322 0.233239
0.731391 0.701194 0.716761
0.731391 0.701194 0.684210
0.731391 0.701194 0.633061
0.731391 0.701194 0.561272
0.731391 0.701194 0.475000
0.731391 0.701194 0.388728
0.731391 0.701194 0.316939
0.731391 0.701194 0.265790
0.731391 0.701194 0.233239
0.731391 0.650709 0.716761
0.731391 0.650709 0.684210
0.731391 0.650709 0.633061
0.731391 0.650709 0.561272
0.731391 0.650709 0.475000
0.731391 0.650709 0.388728
0.731391 0.650709 0.316939
0.731391 0.650709 0.265790
0.731391 0.650709 0.233239
0.731391 0.579852 0.716761
0.731391 0.579852 0.684210
0.731391 0.579852 0.633061
0.731391 0.579852 0.561272
0.731391 0.579852 0.475000
0.731391 0.579852 0.388728
0.731391 0.579852 0.316939
0.731391 0.579852 0.265790
0.731391 0.579852 0.233239
0.731391 0.494700 0.716761
0.731391 0.494700 0.684210
0.731391 0.494700 0.633061
0.731391 0.494700 0.561272
0.731391 0.494700 0.475000
0.731391 0.494700 0.388728
0.731391 0.494700 0.316939
0.731391 0.494700 0.265790
0.731391 0.494700 0.233239
0.731391 0.409548 0.716761
0.731391 0.409548 0.684210
0.731391 0.409548 0.633061
0.731391 0.409548 0.561272
0.731391 0.409548 0.475000
0.731391 0.409548 0.388728
0.731391 0.409548 0.316939
0.731391 0.409548 0.265790
0.731391 0.409548 0.233239
0.731391 0.338691 0.716761
0.731391 0.338691 0.684210
0.731391 0.338691 0.633061
0.731391 0.338691 0.561272
0.731391 0.338691 0.475000
0.731391 0.338691 0.388728
0.731391 0.338691 0.316939
0.731391 0.338691 0.265790
0.731391 0.338691 0.233239
0.731391 0.288206 0.716761
0.731391 0.288206 0.684210
0.731391 0.288206 0.633061
0.731391 0.288206 0.561272
0.731391 0.288206 0.475000
0.731391 0.288206 0.388728
0.731391 0.288206 0.316939
0.731391 0.288206 0.265790
0.731391 0.288206 0.233239
0.731391 0.256078 0.716761
0.731391 0.256078 0.684210
0.731391 0.256078 0.633061
0.731391 0.256078 0.561272
0.731391 0.256078 0.475000
0.731391 0.256078 0.388728
0.731391 0.256078 0.316939
0.731391 0.256078 0.265790
0.731391 0.256078 0.233239
0.658657 0.733322 0.716761
0.658657 0.733322 0.684210
0.658657 0.733322 0.633061
0.658657 0.733322 0.561272
0.658657 0.733322 0.475000
0.658657 0.733322 0.388728
0.658657 0.733322 0.316939
0.658657 0.733322 0.265790
0.658657 0.733322 0.233239
0.658657 0.701194 0.716761
0.658657 0.701194 0.684210
0.658657 0.701194 0.633061
0.658657 0.701194 0.561272
0.658657 0.701194 0.475000
0.658657 0.701194 0.388728
0.658657 0.701194 0.316939
0.658657 0.701194 0.265790
0.658657 0.701194 0.233239
0.658657 0.650709 0.716761
0.658657 0.650709 0.684210
0.658657 0.650709 0.633061
0.658657 0.650709 0.561272
0.658657 0.650709 0.475000
0.658657 0.650709 0.388728
0.658657 0.650709 0.316939
0.658657 0.650709 0.265790
0.658657 0.650709 0.233239
0.658657 0.579852 0.716761
0.658657 0.579852 0.684210
0.658657 0.579852 0.633061
0.658657 0.579852 0.561272
0.658657 0.579852 0.475000
0.658657 0.579852 0.388728
0.658657 0.579852 0.316939
0.658657 0.579852 0.265790
0.658657 0.579852 0.233239
0.658657 0.494700 0.716761
0.658657 0.494700 0.684210
0.658657 0.494700 0.633061
0.658657 0.494700 0.561272
0.658657 0.494700 0.475000
0.658657 0.494700 0.388728
0.658657 0.494700 0.316939
0.658657 0.494700 0.265790
0.658657 0.494700 0.233239
0.658657 0.409548 0.716761
0.658657 0.409548 0.684210
0.658657 0.409548 0.633061
0.658657 0.409548 0.561272
0.658657 0.409548 0.475000
0.658657 0.409548 0.388728
0.658657 0.409548 0.316939
0.658657 0.409548 0.265790
0.658657 0.409548 0.233239
0.658657 0.338691 0.716761
0.658657 0.338691 0.684210
0.658657 0.338691 0.633061
0.658657 0.338691 0.561272
0.658657 0.338691 0.475000
0.658657 0.338691 0.388728
0.658657 0.338691 0.316939
0.658657 0.338691 0.265790
0.658657 0.338691 0.233239
0.658657 0.288206 0.716761
0.658657 0.288206 0.684210
0.658657 0.288206 0.633061
0.658657 0.288206 0.561272
0.658657 0.288206 0.475000
0.658657 0.288206 0.388728
0.658657 0.288206 0.316939
0.658657 0.288206 0.265790
0.658657 0.288206 0.233239
0.658657 0.256078 0.716761
0.658657 0.256078 0.684210
0.658657 0.256078 0.633061
0.658657 0.256078 0.561272
0.658657 0.256078 0.475000
0.658657 0.256078 0.388728
0.658657 0.256078 0.316939
0.658657 0.256078 0.265790
0.658657 0.256078 0.233239
0.571250 0.733322 0.716761
0.571250 0.733322 0.684210
0.571250 0.733322 0.633061
0.571250 0.733322 0.561272
0.571250 0.733322 0.475000
0.571250 0.733322 0.388728
0.571250 0.733322 0.316939
0.571250 0.733322 0.265790
0.571250 0.733322 0.233239
0.571250 0.701194 0.716761
0.571250 0.701194 0.684210
0.571250 0.701194 0.633061
0.571250 0.701194 0.561272
0.571250 0.701194 0.475000
0.571250 0.701194 0.388728
0.571250 0.701194 0.316939
0.571250 0.701194 0.265790
0.571250 0.701194 0.233239
0.571250 0.650709 0.716761
0.571250 0.650709 0.684210
0.571250 0.650709 0.633061
0.571250 0.650709 0.561272
0.571250 0.650709 0.475000
0.571250 0.650709 0.388728
0.571250 0.650709 0.316939
0.571250 0.650709 0.265790
0.571250 0.650709 0.233239
0.571250 0.579852 0.716761
0.571250 0.579852 0.684210
0.571250 0.579852 0.633061
0.571250 0.579852 0.561272
0.571250 0.579852 0.475000
0.571250 0.579852 0.388728
0.571250 0.579852 0.316939
0.571250 0.579852 0.265790
0.571250 0.579852 0.233239
0.571250 0.494700 0.716761
0.571250 0.494700 0.684210
0.571250 0.494700 0.633061
0.571250 0.494700 0.561272
0.571250 0.494700 0.475000
0.571250 0.494700 0.388728
0.571250 0.494700 0.316939
0.571250 0.494700 0.265790
0.571250 0.494700 0.233239
0.571250 0.409548 0.716761
0.571250 0.409548 0.684210
0.571250 0.409548 0.633061
0.571250 0.409548 0.561272
0.571250 0.409548 0.475000
0.571250 0.409548 0.388728
0.571250 0.409548 0.316939
0.571250 0.409548 0.265790
0.571250 0.409548 0.233239
0.571250 0.338691 0.716761
0.571250 0.338691 0.684210
0.571250 0.338691 0.633061
0.571250 0.338691 0.561272
0.571250 0.338691 0.475000
0.571250 0.338691 0.388728
0.571250 0.338691 0.316939
0.571250 0.338691 0.265790
0.571250 0.338691 0.233239
0.571250 0.288206 0.716761
0.571250 0.288206 0.684210
0.571250 0.288206 0.633061
0.571250 0.288206 0.561272
0.571250 0.288206 0.475000
0.571250 0.288206 0.388728
0.571250 0.288206 0.316939
0.571250 0.288206 0.265790
0.571250 0.288206 0.233239
0.571250 0.256078 0.716761
0.571250 0.256078 0.684210
0.571250 0.256078 0.633061
0.571250 0.256078 0.561272
0.571250 0.256078 0.475000
0.571250 0.256078 0.388728
0.571250 0.256078 0.316939
0.571250 0.256078 0.265790
0.571250 0.256078 0.233239
0.483843 0.733322 0.716761
0.483843 0.733322 0.684210
0.483843 0.733322 0.633061
0.483843 0.733322 0.561272
0.483843 0.733322 0.475000
0.483843 0.733322 0.388728
0.483843 0.733322 0.316939
0.483843 0.733322 0.265790
0.483843 0.733322 0.233239
0.483843 0.701194 0.716761
0.483843 0.701194 0.684210
0.483843 0.701194 0.633061
0.483843 0.701194 0.561272
0.483843 0.701194 0.475000
0.483843 0.701194 0.388728
0.483843 0.701194 0.316939
0.483843 0.701194 0.265790
0.483843 0.701194 0.233239
0.483843 0.650709 0.716761
0.483843 0.650709 0.684210
0.483843 0.650709 0.633061
0.483843 0.650709 0.561272
0.483843 0.650709 0.475000
0.483843 0.650709 0.388728
0.483843 0.650709 0.316939
0.483843 0.650709 0.265790
0.483843 0.650709 0.233239
0.483843 0.579852 0.716761
0.483843 0.579852 0.684210
0.483843 0.579852 0.633061
0.483843 0.579852 0.561272
0.483843 0.579852 0.475000
0.483843 0.579852 0.388728
0.483843 0.579852 0.316939
0.483843 0.579852 0.265790
0.483843 0.579852 0.233239
0.483843 0.494700 0.716761
0.483843 0.494700 0.684210
0.483843 0.494700 0.633061
0.483843 0.494700 0.561272
0.483843 0.494700 0.475000
0.483843 0.494700 0.388728
0.483843 0.494700 0.316939
0.483843 0.494700 0.265790
0.483843 0.494700 0.233239
0.483843 0.409548 0.716761
0.483843 0.409548 0.684210
0.483843 0.409548 0.633061
0.483843 0.409548 0.561272
0.483843 0.409548 0.475000
0.483843 0.409548 0.388728
0.483843 0.409548 0.316939
0.483843 0.409548 0.265790
0.483843 0.409548 0.233239
0.483843 0.338691 0.716761
0.483843 0.338691 0.684210
0.483843 0.338691 0.633061
0.483843 0.338691 0.561272
0.483843 0.338691 0.475000
0.483843 0.338691 0.388728
0.483843 0.338691 0.316939
0.483843 0.338691 0.265790
0.483843 0.338691 0.233239
0.483843 0.288206 0.716761
0.483843 0.288206 0.684210
0.483843 0.288206 0.633061
0.483843 0.288206 0.561272
0.483843 0.288206 0.475000
0.483843 0.288206 0.388728
0.483843 0.288206 0.316939
0.483843 0.288206 0.265790
0.483843 0.288206 0.233239
0.483843 0.256078 0.716761
0.483843 0.256078 0.684210
0.483843 0.256078 0.633061
0.483843 0.256078 0.561272
0.483843 0.256078 0.475000
0.483843 0.256078 0.388728
0.483843 0.256078 0.316939
0.483843 0.256078 0.265790
0.483843 0.256078 0.233239
0.411109 0.733322 0.716761
0.411109 0.733322 0.684210
0.411109 0.733322 0.633061
0.411109 0.733322 0.561272
0.411109 0.733322 0.475000
0.411109 0.733322 0.388728
0.411109 0.733322 0.316939
0.411109 0.733322 0.265790
0.411109 0.733322 0.233239
0.411109 0.701194 0.716761
0.411109 0.701194 0.684210
0.411109 0.701194 0.633061
0.411109 0.701194 0.561272
0.411109 0.701194 0.475000
0.411109 0.701194 0.388728
0.411109 0.701194 0.316939
0.411109 0.701194 0.265790
0.411109 0.701194 0.233239
0.411109 0.650709 0.716761
0.411109 0.650709 0.684210
0.411109 0.650709 0.633061
0.411109 0.650709 0.561272
0.411109 0.650709 0.475000
0.411109 0.650709 0.388728
0.411109 0.650709 0.316939
0.411109 0.650709 0.265790
0.411109 0.650709 0.233239
0.411109 0.579852 0.716761
0.411109 0.579852 0.684210
0.411109 0.579852 0.633061
0.411109 0.579852 0.561272
0.411109 0.579852 0.475000
0.411109 0.579852 0.388728
0.411109 0.579852 0.316939
0.411109 0.579852 0.265790
0.411109 0.579852 0.233239
0.411109 0.494700 0.716761
0.411109 0.494700 0.684210
0.411109 0.494700 0.633061
0.411109 0.494700 0.561272
0.411109 0.494700 0.475000
0.411109 0.494700 0.388728
0.411109 0.494700 0.316939
0.411109 0.494700 0.265790
0.411109 0.494700 0.233239
0.411109 0.409548 0.716761
0.411109 0.409548 0.684210
0.411109 0.409548 0.633061
0.411109 0.409548 0.561272
0.411109 0.409548 0.475000
0.411109 0.409548 0.388728
0.411109 0.409548 0.316939
0.411109 0.409548 0.265790
0.411109 0.409548 0.233239
0.411109 0.338691 0.716761
0.411109 0.338691 0.684210
0.411109 0.338691 0.633061
0.411109 0.338691 0.561272
0.411109 0.338691 0.475000
0.411109 0.338691 0.388728
0.411109 0.338691 0.316939
0.411109 0.338691 0.265790
0.411109 0.338691 0.233239
0.411109 0.288206 0.716761
0.411109 0.288206 0.684210
0.411109 0.288206 0.633061
0.411109 0.288206 0.561272
0.411109 0.288206 0.475000
0.411109 0.288206 0.388728
0.411109 0.288206 0.316939
0.411109 0.288206 0.265790
0.411109 0.288206 0.233239
0.411109 0.256078 0.716761
0.411109 0.256078 0.684210
0.411109 0.256078 0.633061
0.411109 0.256078 0.561272
0.411109 0.256078 0.475000
0.411109 0.256078 0.388728
0.411109 0.256078 0.316939
0.411109 0.256078 0.265790
0.411109 0.256078 0.233239
0.359287 0.733322 0.716761
0.359287 0.733322 0.684210
0.359287 0.733322 0.633061
0.359287 0.733322 0.561272
0.359287 0.733322 0.475000
0.359287 0.733322 0.388728
0.359287 0.733322 0.316939
0.359287 0.733322 0.265790
0.359287 0.733322 0.233239
0.359287 0.701194 0.716761
0.359287 0.701194 0.684210
0.359287 0.701194 0.633061
0.359287 0.701194 0.561272
0.359287 0.701194 0.475000
0.359287 0.701194 0.388728
0.359287 0.701194 0.316939
0.359287 0.701194 0.265790
0.359287 0.701194 0.233239
0.359287 0.650709 0.716761
0.359287 0.650709 0.684210
0.359287 0.650709 0.633061
0.359287 0.650709 0.561272
0.359287 0.650709 0.475000
0.359287 0.650709 0.388728
0.359287 0.650709 0.316939
0.359287 0.650709 0.265790
0.359287 0.650709 0.233239
0.359287 0.579852 0.716761
0.359287 0.579852 0.684210
0.359287 0.579852 0.633061
0.359287 0.579852 0.561272
0.359287 0.579852 0.475000
0.359287 0.579852 0.388728
0.359287 0.579852 0.316939
0.359287 0.579852 0.265790
0.359287 0.579852 0.233239
0.359287 0.494700 0.716761
0.359287 0.494700 0.684210
0.359287 0.494700 0.633061
0.359287 0.494700 0.561272
0.359287 0.494700 0.475000
0.359287 0.494700 0.388728
0.359287 0.494700 0.316939
0.359287 0.494700 0.265790
0.359287 0.494700 0.233239
0.359287 0.409548 0.716761
0.359287 0.409548 0.684210
0.359287 0.409548 0.633061
0.359287 0.409548 0.561272
0.359287 0.409548 0.475000
0.359287 0.409548 0.388728
0.359287 0.409548 0.316939
0.359287 0.409548 0.265790
0.359287 0.409548 0.233239
0.359287 0.338691 0.716761
0.359287 0.338691 0.684210
0.359287 0.338691 0.633061
0.359287 0.338691 0.561272
0.359287 0.338691 0.475000
0.359287 0.338691 0.388728
0.359287 0.338691 0.316939
0.359287 0.338691 0.265790
0.359287 0.338691 0.233239
0.359287 0.288206 0.716761
0.359287 0.288206 0.684210
0.359287 0.288206 0.633061
0.359287 0.288206 0.561272
0.359287 0.288206 0.475000
0.359287 0.288206 0.388728
0.359287 0.288206 0.316939
0.359287 0.288206 0.265790
0.359287 0.288206 0.233239
0.359287 0.256078 0.716761
0.359287 0.256078 0.684210
0.359287 0.256078 0.633061
0.359287 0.256078 0.561272
0.359287 0.256078 0.475000
0.359287 0.256078 0.388728
0.359287 0.256078 0.316939
0.359287 0.256078 0.265790
0.359287 0.256078 0.233239
0.326308 0.733322 0.716761
0.326308 0.733322 0.684210
0.326308 0.733322 0.633061
0.326308 0.733322 0.561272
0.326308 0.733322 0.475000
0.326308 0.733322 0.388728
0.326308 0.733322 0.316939
0.326308 0.733322 0.265790
0.326308 0.733322 0.233239
0.326308 0.701194 0.716761
0.326308 0.701194 0.684210
0.326308 0.701194 0.633061
0.326308 0.701194 0.561272
0.326308 0.701194 0.475000
0.326308 0.701194 0.388728
0.326308 0.701194 0.316939
0.326308 0.701194 0.265790
0.326308 0.701194 0.233239
0.326308 0.650709 0.716761
0.326308 0.650709 0.684210
0.326308 0.650709 0.633061
0.326308 0.650709 0.561272
0.326308 0.650709 0.475000
0.326308 0.650709 0.388728
0.326308 0.650709 0.316939
0.326308 0.650709 0.265790
0.326308 0.650709 0.233239
0.326308 0.579852 0.716761
0.326308 0.579852 0.684210
0.326308 0.579852 0.633061
0.326308 0.579852 0.561272
0.326308 0.579852 0.475000
0.326308 0.579852 0.388728
0.326308 0.579852 0.316939
0.326308 0.579852 0.265790
0.326308 0.579852 0.233239
0.326308 0.494700 0.716761
0.326308 0.494700 0.684210
0.326308 0.494700 0.633061
0.326308 0.494700 0.561272
0.326308 0.494700 0.475000
0.326308 0.494700 0.388728
0.326308 0.494700 0.316939
0.326308 0.494700 0.265790
0.326308 0.494700 0.233239
0.326308 0.409548 0.716761
0.326308 0.409548 0.684210
0.326308 0.409548 0.633061
0.326308 0.409548 0.561272
0.326308 0.409548 0.475000
0.326308 0.409548 0.388728
0.326308 0.409548 0.316939
0.326308 0.409548 0.265790
0.326308 0.409548 0.233239
0.326308 0.338691 0.716761
0.326308 0.338691 0.684210
0.326308 0.338691 0.633061
0.326308 0.338691 0.561272
0.326308 0.338691 0.475000
0.326308 0.338691 0.388728
0.326308 0.338691 0.316939
0.326308 0.338691 0.265790
0.326308 0.338691 0.233239
0.326308 0.288206 0.716761
0.326308 0.288206 0.684210
0.326308 0.288206 0.633061
0.326308 0.288206 0.561272
0.326308 0.288206 0.475000
0.326308 0.288206 0.388728
0.326308 0.288206 0.316939
0.326308 0.288206 0.265790
0.326308 0.288206 0.233239
0.326308 0.256078 0.716761
0.326308 0.256078 0.684210
0.326308 0.256078 0.633061
0.326308 0.256078 0.561272
0.326308 0.256078 0.475000
0.326308 0.256078 0.388728
0.326308 0.256078 0.316939
0.326308 0.256078 0.265790
0.326308 0.256078 0.233239
