core-styles/cross.cube
#Created by: LUT Generator
#Copyright: (C) Copyright 2026
TITLE "负片-柔和粉彩"
LUT_3D_SIZE 33
0.816192 0.733322 0.716761
0.816192 0.733322 0.710089
0.816192 0.733322 0.702499
0.816192 0.733322 0.693902
0.816192 0.733322 0.684210
0.816192 0.733322 0.673342
0.816192 0.733322 0.661226
0.816192 0.733322 0.647809
0.816192 0.733322 0.633061
0.816192 0.733322 0.616980
0.816192 0.733322 0.599599
0.816192 0.733322 0.580991
0.816192 0.733322 0.561272
0.816192 0.733322 0.540600
0.816192 0.733322 0.519172
0.816192 0.733322 0.497220
0.816192 0.733322 0.475000
0.816192 0.733322 0.452780
0.816192 0.733322 0.430828
0.816192 0.733322 0.409400
0.816192 0.733322 0.388728
0.816192 0.733322 0.369009
0.816192 0.733322 0.350401
0.816192 0.733322 0.333020
0.816192 0.733322 0.316939
0.816192 0.733322 0.302191
0.816192 0.733322 0.288774
0.816192 0.733322 0.276658
0.816192 0.733322 0.265790
0.816192 0.733322 0.256098
0.816192 0.733322 0.247501
0.816192 0.733322 0.239911
0.816192 0.733322 0.233239
0.816192 0.726737 0.716761
0.816192 0.726737 0.710089
0.816192 0.726737 0.702499
0.816192 0.726737 0.693902
0.816192 0.726737 0.684210
0.816192 0.726737 0.673342
0.816192 0.726737 0.661226
0.816192 0.726737 0.647809
0.816192 0.726737 0.633061
0.816192 0.726737 0.616980
0.816192 0.726737 0.599599
0.816192 0.726737 0.580991
0.816192 0.726737 0.561272
0.816192 0.726737 0.540600
0.816192 0.726737 0.519172
0.816192 0.726737 0.497220
0.816192 0.726737 0.475000
0.816192 0.726737 0.452780
0.816192 0.726737 0.430828
0.816192 0.726737 0.409400
0.816192 0.726737 0.388728
0.816192 0.726737 0.369009
0.816192 0.726737 0.350401
0.816192 0.726737 0.333020
0.816192 0.726737 0.316939
0.816192 0.726737 0.302191
0.816192 0.726737 0.288774
0.816192 0.726737 0.276658
0.816192 0.726737 0.265790
0.816192 0.726737 0.256098
0.816192 0.726737 0.247501
0.816192 0.726737 0.239911
0.816192 0.726737 0.233239
0.816192 0.719246 0.716761
0.816192 0.719246 0.710089
0.816192 0.719246 0.702499
0.816192 0.719246 0.693902
0.816192 0.719246 0.684210
0.816192 0.719246 0.673342
0.816192 0.719246 0.661226
0.816192 0.719246 0.647809
0.816192 0.719246 0.633061
0.816192 0.719246 0.616980
0.816192 0.719246 0.599599
0.816192 0.719246 0.580991
0.816192 0.719246 0.561272
0.816192 0.719246 0.540600
0.816192 0.719246 0.519172
0.816192 0.719246 0.497220
0.816192 0.719246 0.475000
0.816192 0.719246 0.452780
0.816192 0.719246 0.430828
0.816192 0.719246 0.409400
0.816192 0.719246 0.388728
0.816192 0.719246 0.369009
0.816192 0.719246 0.350401
0.816192 0.719246 0.333020
0.816192 0.719246 0.316939
0.816192 0.719246 0.302191
0.816192 0.719246 0.288774
0.816192 0.719246 0.276658
0.816192 0.719246 0.265790
0.816192 0.719246 0.256098
0.816192 0.719246 0.247501
0.816192 0.719246 0.239911
0.816192 0.719246 0.233239
0.816192 0.710761 0.716761
0.816192 0.710761 0.710089
0.816192 0.710761 0.702499
0.816192 0.710761 0.693902
0.816192 0.710761 0.684210
0.816192 0.710761 0.673342
0.816192 0.710761 0.661226
0.816192 0.710761 0.647809
0.816192 0.710761 0.633061
0.816192 0.710761 0.616980
0.816192 0.710761 0.599599
0.816192 0.710761 0.580991
0.816192 0.710761 0.561272
0.816192 0.710761 0.540600
0.816192 0.710761 0.519172
0.816192 0.710761 0.497220
0.816192 0.710761 0.475000
0.816192 0.710761 0.452780
0.816192 0.710761 0.430828
0.816192 0.710761 0.409400
0.816192 0.710761 0.388728
0.816192 0.710761 0.369009
0.816192 0.710761 0.350401
0.816192 0.710761 0.333020
0.816192 0.710761 0.316939
0.816192 0.710761 0.302191
0.816192 0.710761 0.288774
0.816192 0.710761 0.276658
0.816192 0.710761 0.265790
0.816192 0.710761 0.256098
0.816192 0.710761 0.247501
0.816192 0.710761 0.239911
0.816192 0.710761 0.233239
0.816192 0.701194 0.716761
0.816192 0.701194 0.710089
0.816192 0.701194 0.702499
0.816192 0.701194 0.693902
0.816192 0.701194 0.684210
0.816192 0.701194 0.673342
0.816192 0.701194 0.661226
0.816192 0.701194 0.647809
0.816192 0.701194 0.633061
0.816192 0.701194 0.616980
0.816192 0.701194 0.599599
0.816192 0.701194 0.580991
0.816192 0.701194 0.561272
0.816192 0.701194 0.540600
0.816192 0.701194 0.519172
0.816192 0.701194 0.497220
0.816192 0.701194 0.475000
0.816192 0.701194 0.452780
0.816192 0.701194 0.430828
0.816192 0.701194 0.409400
0.816192 0.701194 0.388728
0.816192 0.701194 0.369009
0.816192 0.701194 0.350401
0.816192 0.701194 0.333020
0.816192 0.701194 0.316939
0.816192 0.701194 0.302191
0.816192 0.701194 0.288774
0.816192 0.701194 0.276658
0.816192 0.701194 0.265790
0.816192 0.701194 0.256098
0.816192 0.701194 0.247501
0.816192 0.701194 0.239911
0.816192 0.701194 0.233239
0.816192 0.690467 0.716761
0.816192 0.690467 0.710089
0.816192 0.690467 0.702499
0.816192 0.690467 0.693902
0.816192 0.690467 0.684210
0.816192 0.690467 0.673342
0.816192 0.690467 0.661226
0.816192 0.690467 0.647809
0.816192 0.690467 0.633061
0.816192 0.690467 0.616980
0.816192 0.690467 0.599599
0.816192 0.690467 0.580991
0.816192 0.690467 0.561272
0.816192 0.690467 0.540600
0.816192 0.690467 0.519172
0.816192 0.690467 0.497220
0.816192 0.690467 0.475000
0.816192 0.690467 0.452780
0.816192 0.690467 0.430828
0.816192 0.690467 0.409400
0.816192 0.690467 0.388728
0.816192 0.690467 0.369009
0.816192 0.690467 0.350401
0.816192 0.690467 0.333020
0.816192 0.690467 0.316939
0.816192 0.690467 0.302191
0.816192 0.690467 0.288774
0.816192 0.690467 0.276658
0.816192 0.690467 0.265790
0.816192 0.690467 0.256098
0.816192 0.690467 0.247501
0.816192 0.690467 0.239911
0.816192 0.690467 0.233239
0.816192 0.678508 0.716761
0.816192 0.678508 0.710089
0.816192 0.678508 0.702499
0.816192 0.678508 0.693902
0.816192 0.678508 0.684210
0.816192 0.678508 0.673342
0.816192 0.678508 0.661226
0.816192 0.678508 0.647809
0.816192 0.678508 0.633061
0.816192 0.678508 0.616980
0.816192 0.678508 0.599599
0.816192 0.678508 0.580991
0.816192 0.678508 0.561272
0.816192 0.678508 0.540600
0.816192 0.678508 0.519172
0.816192 0.678508 0.497220
0.816192 0.678508 0.475000
0.816192 0.678508 0.452780
0.816192 0.678508 0.430828
0.816192 0.678508 0.409400
0.816192 0.678508 0.388728
0.816192 0.678508 0.369009
0.816192 0.678508 0.350401
0.816192 0.678508 0.333020
0.816192 0.678508 0.316939
0.816192 0.678508 0.302191
0.816192 0.678508 0.288774
0.816192 0.678508 0.276658
0.816192 0.678508 0.265790
0.816192 0.678508 0.256098
0.816192 0.678508 0.247501
0.816192 0.678508 0.239911
0.816192 0.678508 0.233239
0.816192 0.665266 0.716761
0.816192 0.665266 0.710089
0.816192 0.665266 0.702499
0.816192 0.665266 0.693902
0.816192 0.665266 0.684210
0.816192 0.665266 0.673342
0.816192 0.665266 0.661226
0.816192 0.665266 0.647809
0.816192 0.665266 0.633061
0.816192 0.665266 0.616980
0.816192 0.665266 0.599599
0.816192 0.665266 0.580991
0.816192 0.665266 0.561272
0.816192 0.665266 0.540600
0.816192 0.665266 0.519172
0.816192 0.665266 0.497220
0.816192 0.665266 0.475000
0.816192 0.665266 0.452780
0.816192 0.665266 0.430828
0.816192 0.665266 0.409400
0.816192 0.665266 0.388728
0.816192 0.665266 0.369009
0.816192 0.665266 0.350401
0.816192 0.665266 0.333020
0.816192 0.665266 0.316939
0.816192 0.665266 0.302191
0.816192 0.665266 0.288774
0.816192 0.665266 0.276658
0.816192 0.665266 0.265790
0.816192 0.665266 0.256098
0.816192 0.665266 0.247501
0.816192 0.665266 0.239911
0.816192 0.665266 0.233239
0.816192 0.650709 0.716761
0.816192 0.650709 0.710089
0.816192 0.650709 0.702499
0.816192 0.650709 0.693902
0.816192 0.650709 0.684210
0.816192 0.650709 0.673342
0.816192 0.650709 0.661226
0.816192 0.650709 0.647809
0.816192 0.650709 0.633061
0.816192 0.650709 0.616980
0.816192 0.650709 0.599599
0.816192 0.650709 0.580991
0.816192 0.650709 0.561272
0.816192 0.650709 0.540600
0.816192 0.650709 0.519172
0.816192 0.650709 0.497220
0.816192 0.650709 0.475000
0.816192 0.650709 0.452780
0.816192 0.650709 0.430828
0.816192 0.650709 0.409400
0.816192 0.650709 0.388728
0.816192 0.650709 0.369009
0.816192 0.650709 0.350401
0.816192 0.650709 0.333020
0.816192 0.650709 0.316939
0.816192 0.650709 0.302191
0.816192 0.650709 0.288774
0.816192 0.650709 0.276658
0.816192 0.650709 0.265790
0.816192 0.650709 0.256098
0.816192 0.650709 0.247501
0.816192 0.650709 0.239911
0.816192 0.650709 0.233239
0.816192 0.634836 0.716761
0.816192 0.634836 0.710089
0.816192 0.634836 0.702499
0.816192 0.634836 0.693902
0.816192 0.634836 0.684210
0.816192 0.634836 0.673342
0.816192 0.634836 0.661226
0.816192 0.634836 0.647809
0.816192 0.634836 0.633061
0.816192 0.634836 0.616980
0.816192 0.634836 0.599599
0.816192 0.634836 0.580991
0.816192 0.634836 0.561272
0.816192 0.634836 0.540600
0.816192 0.634836 0.519172
0.816192 0.634836 0.497220
0.816192 0.634836 0.475000
0.816192 0.634836 0.452780
0.816192 0.634836 0.430828
0.816192 0.634836 0.409400
0.816192 0.634836 0.388728
0.816192 0.634836 0.369009
0.816192 0.634836 0.350401
0.816192 0.634836 0.333020
0.816192 0.634836 0.316939
0.816192 0.634836 0.302191
0.816192 0.634836 0.288774
0.816192 0.634836 0.276658
0.816192 0.634836 0.265790
0.816192 0.634836 0.256098
0.816192 0.634836 0.247501
0.816192 0.634836 0.239911
0.816192 0.634836 0.233239
0.816192 0.617681 0.716761
0.816192 0.617681 0.710089
0.816192 0.617681 0.702499
0.816192 0.617681 0.693902
0.816192 0.617681 0.684210
0.816192 0.617681 0.673342
0.816192 0.617681 0.661226
0.816192 0.617681 0.647809
0.816192 0.617681 0.633061
0.816192 0.617681 0.616980
0.816192 0.617681 0.599599
0.816192 0.617681 0.580991
0.816192 0.617681 0.561272
0.816192 0.617681 0.540600
0.816192 0.617681 0.519172
0.816192 0.617681 0.497220
0.816192 0.617681 0.475000
0.816192 0.617681 0.452780
0.816192 0.617681 0.430828
0.816192 0.617681 0.409400
0.816192 0.617681 0.388728
0.816192 0.617681 0.369009
0.816192 0.617681 0.350401
0.816192 0.617681 0.333020
0.816192 0.617681 0.316939
0.816192 0.617681 0.302191
0.816192 0.617681 0.288774
0.816192 0.617681 0.276658
0.816192 0.617681 0.265790
0.816192 0.617681 0.256098
0.816192 0.617681 0.247501
0.816192 0.617681 0.239911
0.816192 0.617681 0.233239
0.816192 0.599315 0.716761
0.816192 0.599315 0.710089
0.816192 0.599315 0.702499
0.816192 0.599315 0.693902
0.816192 0.599315 0.684210
0.816192 0.599315 0.673342
0.816192 0.599315 0.661226
0.816192 0.599315 0.647809
0.816192 0.599315 0.633061
0.816192 0.599315 0.616980
0.816192 0.599315 0.599599
0.816192 0.599315 0.580991
0.816192 0.599315 0.561272
0.816192 0.599315 0.540600
0.816192 0.599315 0.519172
0.816192 0.599315 0.497220
0.816192 0.599315 0.475000
0.816192 0.599315 0.452780
0.816192 0.599315 0.430828
0.816192 0.599315 0.409400
0.816192 0.599315 0.388728
0.816192 0.599315 0.369009
0.816192 0.599315 0.350401
0.816192 0.599315 0.333020
0.816192 0.599315 0.316939
0.816192 0.599315 0.302191
0.816192 0.599315 0.288774
0.816192 0.599315 0.276658
0.816192 0.599315 0.265790
0.816192 0.599315 0.256098
0.816192 0.599315 0.247501
0.816192 0.599315 0.239911
0.816192 0.599315 0.233239
0.816192 0.579852 0.716761
0.816192 0.579852 0.710089
0.816192 0.579852 0.702499
0.816192 0.579852 0.693902
0.816192 0.579852 0.684210
0.816192 0.579852 0.673342
0.816192 0.579852 0.661226
0.816192 0.579852 0.647809
0.816192 0.579852 0.633061
0.816192 0.579852 0.616980
0.816192 0.579852 0.599599
0.816192 0.579852 0.580991
0.816192 0.579852 0.561272
0.816192 0.579852 0.540600
0.816192 0.579852 0.519172
0.816192 0.579852 0.497220
0.816192 0.579852 0.475000
0.816192 0.579852 0.452780
0.816192 0.579852 0.430828
0.816192 0.579852 0.409400
0.816192 0.579852 0.388728
0.816192 0.579852 0.369009
0.816192 0.579852 0.350401
0.816192 0.579852 0.333020
0.816192 0.579852 0.316939
0.816192 0.579852 0.302191
0.816192 0.579852 0.288774
0.816192 0.579852 0.276658
0.816192 0.579852 0.265790
0.816192 0.579852 0.256098
0.816192 0.579852 0.247501
0.816192 0.579852 0.239911
0.816192 0.579852 0.233239
0.816192 0.559448 0.716761
0.816192 0.559448 0.710089
0.816192 0.559448 0.702499
0.816192 0.559448 0.693902
0.816192 0.559448 0.684210
0.816192 0.559448 0.673342
0.816192 0.559448 0.661226
0.816192 0.559448 0.647809
0.816192 0.559448 0.633061
0.816192 0.559448 0.616980
0.816192 0.559448 0.599599
0.816192 0.559448 0.580991
0.816192 0.559448 0.561272
0.816192 0.559448 0.540600
0.816192 0.559448 0.519172
0.816192 0.559448 0.497220
0.816192 0.559448 0.475000
0.816192 0.559448 0.452780
0.816192 0.559448 0.430828
0.816192 0.559448 0.409400
0.816192 0.559448 0.388728
0.816192 0.559448 0.369009
0.816192 0.559448 0.350401
0.816192 0.559448 0.333020
0.816192 0.559448 0.316939
0.816192 0.559448 0.302191
0.816192 0.559448 0.288774
0.816192 0.559448 0.276658
0.816192 0.559448 0.265790
0.816192 0.559448 0.256098
0.816192 0.559448 0.247501
0.816192 0.559448 0.239911
0.816192 0.559448 0.233239
0.816192 0.538299 0.716761
0.816192 0.538299 0.710089
0.816192 0.538299 0.702499
0.816192 0.538299 0.693902
0.816192 0.538299 0.684210
0.816192 0.538299 0.673342
0.816192 0.538299 0.661226
0.816192 0.538299 0.647809
0.816192 0.538299 0.633061
0.816192 0.538299 0.616980
0.816192 0.538299 0.599599
0.816192 0.538299 0.580991
0.816192 0.538299 0.561272
0.816192 0.538299 0.540600
0.816192 0.538299 0.519172
0.816192 0.538299 0.497220
0.816192 0.538299 0.475000
0.816192 0.538299 0.452780
0.816192 0.538299 0.430828
0.816192 0.538299 0.409400
0.816192 0.538299 0.388728
0.816192 0.538299 0.369009
0.816192 0.538299 0.350401
0.816192 0.538299 0.333020
0.816192 0.538299 0.316939
0.816192 0.538299 0.302191
0.816192 0.538299 0.288774
0.816192 0.538299 0.276658
0.816192 0.538299 0.265790
0.816192 0.538299 0.256098
0.816192 0.538299 0.247501
0.816192 0.538299 0.239911
0.816192 0.538299 0.233239
0.816192 0.516632 0.716761
0.816192 0.516632 0.710089
0.816192 0.516632 0.702499
0.816192 0.516632 0.693902
0.816192 0.516632 0.684210
0.816192 0.516632 0.673342
0.816192 0.516632 0.661226
0.816192 0.516632 0.647809
0.816192 0.516632 0.633061
0.816192 0.516632 0.616980
0.816192 0.516632 0.599599
0.816192 0.516632 0.580991
0.816192 0.516632 0.561272
0.816192 0.516632 0.540600
0.816192 0.516632 0.519172
0.816192 0.516632 0.497220
0.816192 0.516632 0.475000
0.816192 0.516632 0.452780
0.816192 0.516632 0.430828
0.816192 0.516632 0.409400
0.816192 0.516632 0.388728
0.816192 0.516632 0.369009
0.816192 0.516632 0.350401
0.816192 0.516632 0.333020
0.816192 0.516632 0.316939
0.816192 0.516632 0.302191
0.816192 0.516632 0.288774
0.816192 0.516632 0.276658
0.816192 0.516632 0.265790
0.816192 0.516632 0.256098
0.816192 0.516632 0.247501
0.816192 0.516632 0.239911
0.816192 0.516632 0.233239
0.816192 0.494700 0.716761
0.816192 0.494700 0.710089
0.816192 0.494700 0.702499
0.816192 0.494700 0.693902
0.816192 0.494700 0.684210
0.816192 0.494700 0.673342
0.816192 0.494700 0.661226
0.816192 0.494700 0.647809
0.816192 0.494700 0.633061
0.816192 0.494700 0.616980
0.816192 0.494700 0.599599
0.816192 0.494700 0.580991
0.816192 0.494700 0.561272
0.816192 0.494700 0.540600
0.816192 0.494700 0.519172
0.816192 0.494700 0.497220
0.816192 0.494700 0.475000
0.816192 0.494700 0.452780
0.816192 0.494700 0.430828
0.816192 0.494700 0.409400
0.816192 0.494700 0.388728
0.816192 0.494700 0.369009
0.816192 0.494700 0.350401
0.816192 0.494700 0.333020
0.816192 0.494700 0.316939
0.816192 0.494700 0.302191
0.816192 0.494700 0.288774
0.816192 0.494700 0.276658
0.816192 0.494700 0.265790
0.816192 0.494700 0.256098
0.816192 0.494700 0.247501
0.816192 0.494700 0.239911
0.816192 0.494700 0.233239
0.816192 0.472768 0.716761
0.816192 0.472768 0.710089
0.816192 0.472768 0.702499
0.816192 0.472768 0.693902
0.816192 0.472768 0.684210
0.816192 0.472768 0.673342
0.816192 0.472768 0.661226
0.816192 0.472768 0.647809
0.816192 0.472768 0.633061
0.816192 0.472768 0.616980
0.816192 0.472768 0.599599
0.816192 0.472768 0.580991
0.816192 0.472768 0.561272
0.816192 0.472768 0.540600
0.816192 0.472768 0.519172
0.816192 0.472768 0.497220
0.816192 0.472768 0.475000
0.816192 0.472768 0.452780
0.816192 0.472768 0.430828
0.816192 0.472768 0.409400
0.816192 0.472768 0.388728
0.816192 0.472768 0.369009
0.816192 0.472768 0.350401
0.816192 0.472768 0.333020
0.816192 0.472768 0.316939
0.816192 0.472768 0.302191
0.816192 0.472768 0.288774
0.816192 0.472768 0.276658
0.816192 0.472768 0.265790
0.816192 0.472768 0.256098
0.816192 0.472768 0.247501
0.816192 0.472768 0.239911
0.816192 0.472768 0.233239
0.816192 0.451101 0.716761
0.816192 0.451101 0.710089
0.816192 0.451101 0.702499
0.816192 0.451101 0.693902
0.816192 0.451101 0.684210
0.816192 0.451101 0.673342
0.816192 0.451101 0.661226
0.816192 0.451101 0.647809
0.816192 0.451101 0.633061
0.816192 0.451101 0.616980
0.816192 0.451101 0.599599
0.816192 0.451101 0.580991
0.816192 0.451101 0.561272
0.816192 0.451101 0.540600
0.816192 0.451101 0.519172
0.816192 0.451101 0.497220
0.816192 0.451101 0.475000
0.816192 0.451101 0.452780
0.816192 0.451101 0.430828
0.816192 0.451101 0.409400
0.816192 0.451101 0.388728
0.816192 0.451101 0.369009
0.816192 0.451101 0.350401
0.816192 0.451101 0.333020
0.816192 0.451101 0.316939
0.816192 0.451101 0.302191
0.816192 0.451101 0.288774
0.816192 0.451101 0.276658
0.816192 0.451101 0.265790
0.816192 0.451101 0.256098
0.816192 0.451101 0.247501
0.816192 0.451101 0.239911
0.816192 0.451101 0.233239
0.816192 0.429952 0.716761
0.816192 0.429952 0.710089
0.816192 0.429952 0.702499
0.816192 0.429952 0.693902
0.816192 0.429952 0.684210
0.816192 0.429952 0.673342
0.816192 0.429952 0.661226
0.816192 0.429952 0.647809
0.816192 0.429952 0.633061
0.816192 0.429952 0.616980
0.816192 0.429952 0.599599
0.816192 0.429952 0.580991
0.816192 0.429952 0.561272
0.816192 0.429952 0.540600
0.816192 0.429952 0.519172
0.816192 0.429952 0.497220
0.816192 0.429952 0.475000
0.816192 0.429952 0.452780
0.816192 0.429952 0.430828
0.816192 0.429952 0.409400
0.816192 0.429952 0.388728
0.816192 0.429952 0.369009
0.816192 0.429952 0.350401
0.816192 0.429952 0.333020
0.816192 0.429952 0.316939
0.816192 0.429952 0.302191
0.816192 0.429952 0.288774
0.816192 0.429952 0.276658
0.816192 0.429952 0.265790
0.816192 0.429952 0.256098
0.816192 0.429952 0.247501
0.816192 0.429952 0.239911
0.816192 0.429952 0.233239
0.816192 0.409548 0.716761
0.816192 0.409548 0.710089
0.816192 0.409548 0.702499
0.816192 0.409548 0.693902
0.816192 0.409548 0.684210
0.816192 0.409548 0.673342
0.816192 0.409548 0.661226
0.816192 0.409548 0.647809
0.816192 0.409548 0.633061
0.816192 0.409548 0.616980
0.816192 0.409548 0.599599
0.816192 0.409548 0.580991
0.816192 0.409548 0.561272
0.816192 0.409548 0.540600
0.816192 0.409548 0.519172
0.816192 0.409548 0.497220
0.816192 0.409548 0.475000
0.816192 0.409548 0.452780
0.816192 0.409548 0.430828
0.816192 0.409548 0.409400
0.816192 0.409548 0.388728
0.816192 0.409548 0.369009
0.816192 0.409548 0.350401
0.816192 0.409548 0.333020
0.816192 0.409548 0.316939
0.816192 0.409548 0.302191
0.816192 0.409548 0.288774
0.816192 0.409548 0.276658
0.816192 0.409548 0.265790
0.816192 0.409548 0.256098
0.816192 0.409548 0.247501
0.816192 0.409548 0.239911
0.816192 0.409548 0.233239
0.816192 0.390085 0.716761
0.816192 0.390085 0.710089
0.816192 0.390085 0.702499
0.816192 0.390085 0.693902
0.816192 0.390085 0.684210
0.816192 0.390085 0.673342
0.816192 0.390085 0.661226
0.816192 0.390085 0.647809
0.816192 0.390085 0.633061
0.816192 0.390085 0.616980
0.816192 0.390085 0.599599
0.816192 0.390085 0.580991
0.816192 0.390085 0.561272
0.816192 0.390085 0.540600
0.816192 0.390085 0.519172
0.816192 0.390085 0.497220
0.816192 0.390085 0.475000
0.816192 0.390085 0.452780
0.816192 0.390085 0.430828
0.816192 0.390085 0.409400
0.816192 0.390085 0.388728
0.816192 0.390085 0.369009
0.816192 0.390085 0.350401
0.816192 0.390085 0.333020
0.816192 0.390085 0.316939
0.816192 0.390085 0.302191
0.816192 0.390085 0.288774
0.816192 0.390085 0.276658
0.816192 0.390085 0.265790
0.816192 0.390085 0.256098
0.816192 0.390085 0.247501
0.816192 0.390085 0.239911
0.816192 0.390085 0.233239
0.816192 0.371719 0.716761
0.816192 0.371719 0.710089
0.816192 0.371719 0.702499
0.816192 0.371719 0.693902
0.816192 0.371719 0.684210
0.816192 0.371719 0.673342
0.816192 0.371719 0.661226
0.816192 0.371719 0.647809
0.816192 0.371719 0.633061
0.816192 0.371719 0.616980
0.816192 0.371719 0.599599
0.816192 0.371719 0.580991
0.816192 0.371719 0.561272
0.816192 0.371719 0.540600
0.816192 0.371719 0.519172
0.816192 0.371719 0.497220
0.816192 0.371719 0.475000
0.816192 0.371719 0.452780
0.816192 0.371719 0.430828
0.816192 0.371719 0.409400
0.816192 0.371719 0.388728
0.816192 0.371719 0.369009
0.816192 0.371719 0.350401
0.816192 0.371719 0.333020
0.816192 0.371719 0.316939
0.816192 0.371719 0.302191
0.816192 0.371719 0.288774
0.816192 0.371719 0.276658
0.816192 0.371719 0.265790
0.816192 0.371719 0.256098
0.816192 0.371719 0.247501
0.816192 0.371719 0.239911
0.816192 0.371719 0.233239
0.816192 0.354564 0.716761
0.816192 0.354564 0.710089
0.816192 0.354564 0.702499
0.816192 0.354564 0.693902
0.816192 0.354564 0.684210
0.816192 0.354564 0.673342
0.816192 0.354564 0.661226
0.816192 0.354564 0.647809
0.816192 0.354564 0.633061
0.816192 0.354564 0.616980
0.816192 0.354564 0.599599
0.816192 0.354564 0.580991
0.816192 0.354564 0.561272
0.816192 0.354564 0.540600
0.816192 0.354564 0.519172
0.816192 0.354564 0.497220
0.816192 0.354564 0.475000
0.816192 0.354564 0.452780
0.816192 0.354564 0.430828
0.816192 0.354564 0.409400
0.816192 0.354564 0.388728
0.816192 0.354564 0.369009
0.816192 0.354564 0.350401
0.816192 0.354564 0.333020
0.816192 0.354564 0.316939
0.816192 0.354564 0.302191
0.816192 0.354564 0.288774
0.816192 0.354564 0.276658
0.816192 0.354564 0.265790
0.816192 0.354564 0.256098
0.816192 0.354564 0.247501
0.816192 0.354564 0.239911
0.816192 0.354564 0.233239
0.816192 0.338691 0.716761
0.816192 0.338691 0.710089
0.816192 0.338691 0.702499
0.816192 0.338691 0.693902
0.816192 0.338691 0.684210
0.816192 0.338691 0.673342
0.816192 0.338691 0.661226
0.816192 0.338691 0.647809
0.816192 0.338691 0.633061
0.816192 0.338691 0.616980
0.816192 0.338691 0.599599
0.816192 0.338691 0.580991
0.816192 0.338691 0.561272
0.816192 0.338691 0.540600
0.816192 0.338691 0.519172
0.816192 0.338691 0.497220
0.816192 0.338691 0.475000
0.816192 0.338691 0.452780
0.816192 0.338691 0.430828
0.816192 0.338691 0.409400
0.816192 0.338691 0.388728
0.816192 0.338691 0.369009
0.816192 0.338691 0.350401
0.816192 0.338691 0.333020
0.816192 0.338691 0.316939
0.816192 0.338691 0.302191
0.816192 0.338691 0.288774
0.816192 0.338691 0.276658
0.816192 0.338691 0.265790
0.816192 0.338691 0.256098
0.816192 0.338691 0.247501
0.816192 0.338691 0.239911
0.816192 0.338691 0.233239
0.816192 0.324134 0.716761
0.816192 0.324134 0.710089
0.816192 0.324134 0.702499
0.816192 0.324134 0.693902
0.816192 0.324134 0.684210
0.816192 0.324134 0.673342
0.816192 0.324134 0.661226
0.816192 0.324134 0.647809
0.816192 0.324134 0.633061
0.816192 0.324134 0.616980
0.816192 0.324134 0.599599
0.816192 0.324134 0.580991
0.816192 0.324134 0.561272
0.816192 0.324134 0.540600
0.816192 0.324134 0.519172
0.816192 0.324134 0.497220
0.816192 0.324134 0.475000
0.816192 0.324134 0.452780
0.816192 0.324134 0.430828
0.816192 0.324134 0.409400
0.816192 0.324134 0.388728
0.816192 0.324134 0.369009
0.816192 0.324134 0.350401
0.816192 0.324134 0.333020
0.816192 0.324134 0.316939
0.816192 0.324134 0.302191
0.816192 0.324134 0.288774
0.816192 0.324134 0.276658
0.816192 0.324134 0.265790
0.816192 0.324134 0.256098
0.816192 0.324134 0.247501
0.816192 0.324134 0.239911
0.816192 0.324134 0.233239
0.816192 0.310892 0.716761
0.816192 0.310892 0.710089
0.816192 0.310892 0.702499
0.816192 0.310892 0.693902
0.816192 0.310892 0.684210
0.816192 0.310892 0.673342
0.816192 0.310892 0.661226
0.816192 0.310892 0.647809
0.816192 0.310892 0.633061
0.816192 0.310892 0.616980
0.816192 0.310892 0.599599
0.816192 0.310892 0.580991
0.816192 0.310892 0.561272
0.816192 0.310892 0.540600
0.816192 0.310892 0.519172
0.816192 0.310892 0.497220
0.816192 0.310892 0.475000
0.816192 0.310892 0.452780
0.816192 0.310892 0.430828
0.816192 0.310892 0.409400
0.816192 0.310892 0.388728
0.816192 0.310892 0.369009
0.816192 0.310892 0.350401
0.816192 0.310892 0.333020
0.816192 0.310892 0.316939
0.816192 0.310892 0.302191
0.816192 0.310892 0.288774
