core-styles/DY.cube
#Created by: Adobe Photoshop Export Color Lookup Plugin
#Copyright: (C) Copyright 2026 汉图
TITLE "mint本征源文件-适配lut筛选-恢复的.psd"
#LUT size
LUT_3D_SIZE 7
#data domain
#LUT data points
DOMAIN_MIN 0.000000 0.000000 0.000000
DOMAIN_MAX 0.909091 0.909091 0.909091
0.101959 0.101959 0.101959
0.324432 0.108582 0.107666
0.560577 0.114655 0.113190
0.782684 0.120361 0.118378
0.938538 0.124420 0.122131
0.938538 0.124420 0.122131
0.938538 0.124420 0.122131
0.127472 0.243744 0.110870
0.256775 0.220093 0.114563
0.401855 0.200714 0.117828
0.563934 0.183228 0.123077
0.755280 0.162048 0.134003
0.964844 0.146942 0.143188
0.962189 0.144623 0.140991
0.153564 0.400330 0.115326
0.274689 0.376801 0.121796
0.396454 0.335968 0.123779
0.525391 0.318268 0.126587
0.669617 0.310608 0.130646
0.833466 0.310883 0.136200
0.962799 0.313721 0.141205
0.188568 0.566498 0.116730
0.281372 0.550354 0.127625
0.407135 0.499786 0.130951
0.530518 0.466980 0.133209
0.673096 0.462311 0.137054
0.826294 0.467682 0.141785
0.970093 0.473236 0.146484
0.227478 0.765442 0.118164
0.289825 0.750397 0.131470
0.417328 0.700439 0.138458
0.548676 0.650360 0.141205
0.688141 0.631805 0.144562
0.837250 0.633636 0.148895
0.979553 0.636902 0.153229
0.255432 0.915619 0.119263
0.310944 0.937012 0.134155
0.438141 0.944122 0.146454
0.571442 0.871094 0.150055
0.710693 0.825104 0.152863
0.849304 0.806946 0.156250
0.987915 0.802277 0.160126
0.276703 0.925629 0.126160
0.340240 0.943024 0.138428
0.445160 0.955200 0.147156
0.583069 0.964050 0.153687
0.723389 0.970703 0.158813
0.858856 0.976166 0.163239
0.989716 0.965546 0.166718
0.112030 0.102814 0.191345
0.265381 0.108551 0.173462
0.620148 0.117188 0.130676
0.938538 0.124420 0.122131
0.938538 0.124420 0.122131
0.938538 0.124420 0.122131
0.938538 0.124420 0.122131
0.128784 0.208832 0.193146
0.165894 0.147705 0.136475
0.370331 0.124084 0.112671
0.611877 0.116028 0.114380
0.855804 0.122284 0.120178
0.940186 0.125854 0.123413
0.948761 0.133179 0.130249
0.147980 0.345886 0.165863
0.173737 0.254486 0.120880
0.273438 0.230652 0.121887
0.437592 0.253479 0.128052
0.637543 0.294037 0.144653
0.853302 0.326019 0.153473
0.962952 0.313477 0.141388
0.182922 0.521393 0.130768
0.224762 0.435791 0.121948
0.341309 0.402069 0.125793
0.469055 0.406158 0.143951
0.642212 0.451294 0.179749
0.817413 0.487335 0.203888
0.974213 0.486633 0.186829
0.227631 0.746918 0.121063
0.282043 0.686127 0.132812
0.410400 0.638611 0.138733
0.537537 0.621033 0.149414
0.696564 0.642059 0.190735
0.852905 0.663116 0.212616
0.984558 0.651276 0.200806
0.263184 0.923492 0.124725
0.359802 0.916412 0.173767
0.475006 0.891907 0.152466
0.592377 0.864655 0.154510
0.737213 0.846741 0.169403
0.879486 0.842743 0.211487
0.996857 0.819275 0.199829
0.280975 0.929840 0.216461
0.395660 0.956238 0.234863
0.489319 0.967834 0.165314
0.598297 0.969574 0.157684
0.731781 0.976105 0.162750
0.874329 0.985779 0.170227
1.000000 0.979889 0.194916
0.127167 0.101990 0.280334
0.198395 0.106445 0.242340
0.357544 0.111725 0.244171
0.717133 0.121155 0.234436
0.940826 0.126312 0.147125
0.938538 0.124420 0.122131
0.938538 0.124420 0.122131
0.139771 0.186096 0.293793
0.151764 0.132019 0.200012
0.269653 0.133575 0.163849
0.632568 0.117096 0.120850
0.938538 0.124420 0.122131
0.940125 0.125793 0.130890
0.939575 0.125336 0.122986
0.157074 0.315033 0.287476
0.149475 0.221313 0.205078
0.215881 0.208832 0.206238
0.476410 0.246552 0.192810
0.759369 0.306824 0.234924
0.967194 0.334686 0.264160
0.964844 0.253876 0.197937
0.182465 0.467834 0.283752
0.206818 0.391785 0.231689
0.313904 0.380249 0.248138
0.465546 0.412201 0.286713
0.676086 0.498932 0.354004
0.854584 0.522797 0.363739
0.974792 0.479767 0.298767
0.222595 0.678894 0.298126
0.291748 0.659729 0.301361
0.462585 0.637207 0.340027
0.585297 0.649231 0.352142
0.740265 0.689941 0.397308
0.871521 0.696014 0.408722
0.986084 0.655609 0.349915
0.267700 0.919830 0.319275
0.387482 0.875061 0.385437
0.529572 0.848999 0.404358
0.630890 0.876343 0.375946
0.760590 0.864990 0.390533
0.892548 0.858368 0.415863
0.994812 0.819794 0.361450
0.279694 0.924103 0.364868
0.401306 0.955322 0.394836
0.494568 0.964294 0.365112
0.606110 0.971161 0.330994
0.734100 0.977325 0.325500
0.869232 0.983002 0.346008
0.994110 0.972870 0.342194
0.150391 0.101990 0.355804
0.206024 0.105286 0.353973
0.284912 0.130402 0.313751
0.459564 0.154938 0.325623
0.773132 0.123779 0.331268
0.943481 0.128052 0.312378
0.943207 0.127930 0.300842
0.161804 0.161987 0.405090
0.177704 0.133850 0.311249
0.244385 0.164368 0.273621
0.419312 0.223969 0.268250
0.824677 0.174408 0.319214
0.943726 0.128235 0.325806
0.943207 0.127899 0.297974
0.176025 0.295074 0.406281
0.183289 0.235962 0.317474
0.293701 0.257477 0.318420
0.472107 0.337677 0.335144
0.808899 0.367096 0.384857
0.969208 0.303925 0.395325
0.978912 0.158478 0.339508
0.196320 0.442383 0.410736
0.229828 0.396851 0.367065
0.371399 0.423065 0.402313
0.557556 0.511200 0.484894
0.786926 0.566315 0.517426
0.973602 0.520020 0.475952
0.974060 0.430298 0.394287
0.229095 0.631287 0.438446
0.312195 0.641785 0.459656
0.504578 0.677887 0.521790
0.664429 0.744202 0.577087
0.808960 0.763794 0.603149
0.918152 0.729736 0.565887
0.988525 0.654846 0.478699
0.274323 0.887390 0.477448
0.389465 0.878937 0.536194
0.552338 0.904388 0.573853
0.676239 0.945190 0.576782
0.796234 0.911072 0.568787
0.919189 0.886688 0.573792
0.999634 0.824677 0.505341
0.281494 0.916626 0.502563
0.400360 0.953613 0.541687
0.502472 0.964630 0.539673
0.621521 0.972504 0.518616
0.746155 0.978668 0.498596
0.872894 0.984070 0.498718
0.990936 0.968048 0.486481
0.173859 0.101990 0.438782
0.225098 0.103302 0.479706
0.316650 0.140320 0.424225
0.415009 0.238647 0.387054
0.580750 0.310944 0.403534
0.838043 0.236298 0.457336
0.950470 0.132721 0.480530
0.188904 0.141571 0.534058
0.218842 0.149200 0.464081
0.327759 0.204742 0.433350
0.439240 0.320404 0.413696
0.625671 0.437592 0.448944
0.838470 0.396881 0.505707
0.976349 0.212280 0.529816
0.198944 0.278687 0.537689
0.233978 0.271881 0.483398
0.391418 0.330200 0.492126
0.536499 0.444427 0.518524
0.709351 0.577148 0.555420
0.908600 0.492523 0.576294
0.973175 0.275085 0.546082
0.216461 0.427338 0.544952
0.269806 0.431061 0.530609
0.449707 0.491516 0.570557
0.633270 0.583679 0.648285
0.806091 0.684753 0.676575
0.974518 0.579010 0.635559
0.976868 0.408325 0.556702
0.242157 0.601501 0.566986
0.315155 0.639526 0.604431
0.514221 0.697327 0.665985
0.695526 0.762848 0.733063
0.851929 0.808563 0.766388
0.964264 0.738586 0.699951
0.989319 0.622437 0.595886
0.279572 0.826813 0.612396
0.377197 0.866211 0.674530
0.560211 0.898254 0.719940
0.704987 0.944000 0.753204
0.829590 0.940613 0.749268
0.938110 0.903412 0.727264
1.000000 0.824554 0.652252
0.295685 0.912872 0.642578
0.398651 0.950226 0.676483
0.513794 0.964600 0.696533
0.639526 0.973755 0.695679
0.764069 0.980347 0.676208
0.880554 0.985413 0.655762
0.989258 0.963806 0.632141
0.197479 0.101990 0.530762
0.248108 0.101990 0.608978
0.366516 0.153870 0.561890
0.461182 0.283203 0.497070
0.562317 0.418152 0.479156
0.674561 0.475708 0.507446
0.817963 0.424011 0.556793
0.219452 0.128326 0.680847
0.263641 0.167480 0.635956
0.398468 0.243256 0.609009
0.520172 0.370087 0.568115
0.635010 0.521484 0.555786
0.738251 0.588684 0.571655
0.866943 0.495117 0.607483
0.225281 0.269928 0.684448
0.283325 0.304688 0.665375
0.443115 0.368225 0.676483
0.589020 0.461609 0.669830
0.729675 0.621338 0.670471
0.821564 0.685760 0.665375
0.936066 0.544983 0.674408
0.240570 0.420410 0.694092
0.309052 0.459503 0.704620
0.474396 0.513672 0.735168
0.626343 0.563385 0.782013
0.796112 0.696014 0.788635
0.892609 0.763550 0.758484
0.991455 0.597107 0.730682
0.260651 0.583099 0.707001
0.331512 0.632172 0.748596
0.505707 0.681580 0.790649
0.659119 0.722809 0.840271
0.814697 0.774170 0.864563
0.936127 0.821075 0.829529
0.996094 0.665924 0.754852
0.289185 0.777405 0.740173
0.370148 0.828461 0.795715
0.539246 0.856659 0.827087
0.680511 0.889252 0.860626
0.815582 0.905670 0.876587
0.934357 0.899414 0.859222
1.000000 0.807037 0.777893
0.311401 0.908325 0.777863
0.392426 0.944458 0.796295
0.511749 0.962830 0.820190
0.639557 0.973297 0.831482
0.768311 0.980835 0.828979
0.886200 0.986420 0.811523
0.986969 0.956665 0.776276
0.220795 0.101990 0.629425
0.273956 0.101990 0.737030
0.407196 0.160339 0.708374
0.507721 0.294922 0.621613
0.594940 0.434662 0.575653
0.679474 0.545410 0.571930
0.753326 0.573517 0.591888
0.251709 0.122498 0.836578
0.292633 0.154236 0.830963
0.419403 0.228973 0.793854
0.549805 0.351715 0.707428
0.655029 0.498047 0.650909
0.746338 0.624237 0.645691
0.804321 0.642212 0.650330
0.253113 0.265106 0.838013
0.302277 0.296234 0.849609
0.429749 0.336243 0.857452
0.573181 0.406769 0.811493
0.709869 0.544525 0.755219
0.813568 0.694427 0.735809
0.860565 0.708527 0.723877
0.266296 0.414429 0.848389
0.318176 0.447418 0.866302
0.438202 0.473846 0.890503
0.575439 0.498657 0.897919
0.736603 0.592010 0.860138
0.864716 0.752014 0.822479
0.911530 0.774078 0.796967
0.282532 0.571838 0.856873
0.334106 0.604584 0.882080
0.453278 0.630768 0.907806
0.586182 0.646851 0.925812
0.734192 0.675507 0.927124
0.887695 0.790802 0.895111
0.954285 0.831268 0.858795
0.302673 0.740906 0.869415
0.355164 0.770782 0.896759
0.472412 0.793915 0.920135
0.602173 0.808350 0.934509
0.738129 0.817780 0.943329
0.877167 0.842682 0.937286
0.981232 0.874054 0.897736
0.323242 0.904785 0.874054
0.377991 0.933716 0.903778
0.482758 0.956390 0.926880
0.604401 0.962555 0.933899
0.732819 0.962982 0.934814
0.859650 0.958466 0.930359
0.974030 0.944244 0.906281
