core-styles/DY.cube
#Created by: Adobe Photoshop Export Color Lookup Plugin
#Copyright: (C) Copyright 2026 汉图
TITLE "mint本征源文件-适配lut筛选-恢复的.psd"
#LUT size
LUT_3D_SIZE 4
#data domain
DOMAIN_MIN 0.0 0.0 0.0
DOMAIN_MAX 1.0 1.0 1.0
#LUT data points
0.101959 0.101959 0.101959
0.607483 0.115875 0.114258
0.938538 0.124420 0.122131
0.938538 0.124420 0.122131
0.159943 0.432404 0.115845
0.422394 0.360016 0.125580
0.729706 0.339783 0.133667
0.963928 0.349701 0.142059
0.244965 0.859985 0.118896
0.450653 0.780212 0.142395
0.754303 0.702881 0.149323
0.983459 0.700226 0.155884
0.310150 0.940460 0.136597
0.486725 0.958252 0.149414
0.774780 0.972839 0.160492
1.000000 0.980225 0.176331
0.131714 0.101990 0.295013
0.373505 0.112274 0.260162
0.940887 0.126373 0.161591
0.940033 0.125732 0.128876
0.164246 0.338348 0.309601
0.253601 0.240845 0.236938
0.837463 0.375977 0.307404
0.965485 0.233276 0.195618
0.242767 0.772980 0.340149
0.538452 0.729340 0.419342
0.821259 0.778961 0.458832
0.988129 0.689484 0.344177
0.305939 0.934418 0.416840
0.481903 0.963379 0.360107
0.761200 0.978516 0.325928
1.000000 0.981354 0.396729
0.183624 0.101990 0.473694
0.353424 0.165894 0.464050
0.626740 0.381439 0.444489
0.985260 0.180969 0.565979
0.212128 0.303314 0.596252
0.466766 0.401245 0.587891
0.786926 0.657318 0.634186
0.975281 0.262604 0.602875
0.261169 0.671143 0.635284
0.575043 0.783386 0.753448
0.893921 0.854401 0.812805
0.989594 0.623413 0.605103
0.308411 0.916809 0.684326
0.501312 0.963165 0.719452
0.767700 0.980499 0.680481
1.000000 0.982300 0.738037
0.226624 0.101990 0.655518
0.446899 0.177887 0.784149
0.648041 0.487457 0.619019
0.784241 0.621033 0.631500
0.257385 0.295746 0.850861
0.437561 0.341278 0.899017
0.746948 0.563171 0.808624
0.886017 0.752838 0.773193
0.290314 0.632812 0.865753
0.448425 0.662842 0.914062
0.737457 0.677521 0.937012
0.967010 0.885071 0.895508
0.323242 0.904785 0.874054
0.478760 0.956268 0.927032
0.746552 0.979492 0.951538
1.000000 1.000000 1.000000
