core-styles/DY.cube
#Created by: Adobe Photoshop Export Color Lookup Plugin
#Copyright: (C) Copyright 2026 汉图
TITLE "mint本征源文件-适配lut筛选-恢复的.psd"
#LUT size
LUT_3D_SIZE 34
#data domain
DOMAIN_MIN 0.0 0.0 0.0
DOMAIN_MAX 1.0 1.0 1.0
#LUT data points
0.101959 0.101959 0.101959
0.150696 0.104156 0.103790
0.194977 0.105255 0.104767
0.237946 0.106323 0.105682
0.280579 0.107452 0.106720
0.324432 0.108582 0.107666
0.369446 0.109741 0.108734
0.416077 0.110992 0.109833
0.464081 0.112152 0.110901
0.512573 0.113403 0.112030
0.560577 0.114655 0.113190
0.607483 0.115875 0.114258
0.652863 0.117004 0.115326
0.696960 0.118164 0.116333
0.739990 0.119263 0.117371
0.782684 0.120361 0.118378
0.825256 0.121490 0.119415
0.867889 0.122620 0.120453
0.910767 0.123718 0.121490
0.938538 0.124420 0.122131
0.938538 0.124420 0.122131
0.938538 0.124420 0.122131
0.938538 0.124420 0.122131
0.938538 0.124420 0.122131
0.938538 0.124420 0.122131
0.938538 0.124420 0.122131
0.938538 0.124420 0.122131
0.938538 0.124420 0.122131
0.938538 0.124420 0.122131
0.938538 0.124420 0.122131
0.938538 0.124420 0.122131
0.938538 0.124420 0.122131
0.938538 0.124420 0.122131
0.938538 0.124420 0.122131
0.109802 0.128754 0.105347
0.141937 0.122742 0.105835
0.180695 0.118561 0.106415
0.219727 0.113953 0.106812
0.256958 0.109558 0.107147
0.294678 0.107788 0.106995
0.334656 0.108856 0.107910
0.376678 0.109894 0.108887
0.419891 0.111053 0.109863
0.464203 0.112213 0.110962
0.508789 0.113342 0.111938
0.552826 0.114471 0.113007
0.596100 0.115570 0.113983
0.638580 0.116669 0.115021
0.680542 0.117737 0.115997
0.722321 0.118805 0.116974
0.764130 0.119904 0.117981
0.806122 0.120972 0.118958
0.848572 0.122070 0.119965
0.891357 0.123230 0.120972
0.934448 0.124329 0.122009
0.938538 0.124420 0.122131
0.938538 0.124420 0.122131
0.938538 0.124420 0.122131
0.938538 0.124420 0.122131
0.938538 0.124420 0.122131
0.938538 0.124420 0.122131
0.938538 0.124420 0.122131
0.938538 0.124420 0.122131
0.938538 0.124420 0.122131
0.938538 0.124420 0.122131
0.938538 0.124420 0.122131
0.938538 0.124420 0.122131
0.938538 0.124420 0.122131
0.114075 0.156799 0.107025
0.136993 0.151062 0.107727
0.173370 0.147308 0.108978
0.208649 0.143188 0.109589
0.242889 0.138611 0.110352
0.277252 0.134247 0.111053
0.311859 0.130829 0.111359
0.349487 0.127045 0.112366
0.388336 0.123627 0.113312
0.428314 0.120270 0.114288
0.468872 0.116669 0.115021
0.505981 0.114716 0.113220
0.544952 0.114258 0.112793
0.585419 0.115295 0.113739
0.625732 0.116302 0.114655
0.666168 0.117371 0.115662
0.706970 0.118439 0.116577
0.748169 0.119507 0.117584
0.789795 0.120575 0.118530
0.831940 0.121643 0.119537
0.874542 0.122772 0.120605
0.917572 0.123901 0.121643
0.938538 0.124420 0.122131
0.938538 0.124420 0.122131
0.938538 0.124420 0.122131
0.938538 0.124420 0.122131
0.938538 0.124420 0.122131
0.938538 0.124420 0.122131
0.938538 0.124420 0.122131
0.938538 0.124420 0.122131
0.938538 0.124420 0.122131
0.938538 0.124420 0.122131
0.938538 0.124420 0.122131
0.938538 0.124420 0.122131
0.119507 0.184875 0.108307
0.132568 0.180939 0.108826
0.167847 0.177521 0.110229
0.201782 0.172668 0.110840
0.233002 0.167938 0.111542
0.263763 0.163605 0.112030
0.295685 0.159668 0.112701
0.329346 0.156067 0.113770
0.363983 0.152893 0.114655
0.400696 0.149414 0.116089
0.438293 0.145660 0.117554
0.475983 0.141876 0.118805
0.514313 0.137482 0.120270
0.552460 0.133026 0.121368
0.591217 0.128082 0.122711
0.627869 0.124420 0.122131
0.662872 0.121948 0.119812
0.698364 0.119446 0.117554
0.737305 0.119202 0.117310
0.778442 0.120270 0.118317
0.820129 0.121338 0.119263
0.862457 0.122467 0.120331
0.905182 0.123566 0.121338
0.938538 0.124420 0.122131
0.938538 0.124420 0.122131
0.938538 0.124420 0.122131
0.938538 0.124420 0.122131
0.938538 0.124420 0.122131
0.938538 0.124420 0.122131
0.938538 0.124420 0.122131
0.938538 0.124420 0.122131
0.938538 0.124420 0.122131
0.938538 0.124420 0.122131
0.938538 0.124420 0.122131
0.122528 0.214264 0.109680
0.130981 0.210358 0.109985
0.166565 0.207031 0.111420
0.199341 0.201965 0.112152
0.229095 0.196686 0.112762
0.258148 0.191620 0.113312
0.287354 0.187347 0.113831
0.317627 0.183685 0.114594
0.348907 0.180511 0.115356
0.381714 0.177277 0.116333
0.414764 0.174225 0.117157
0.448944 0.170685 0.118347
0.483765 0.166962 0.119507
0.519226 0.162933 0.120911
0.556030 0.158264 0.122742
0.594055 0.153259 0.124969
0.632294 0.148529 0.126801
0.671844 0.143463 0.128998
0.712555 0.138306 0.131439
0.751251 0.134796 0.131744
0.788239 0.132935 0.130035
0.825989 0.131195 0.128418
0.864594 0.129608 0.126953
0.903931 0.128204 0.125610
0.941437 0.126923 0.124420
0.939087 0.124908 0.122589
0.938538 0.124420 0.122131
0.938538 0.124420 0.122131
0.938538 0.124420 0.122131
0.938538 0.124420 0.122131
0.938568 0.124481 0.122162
0.943878 0.128967 0.126343
0.950806 0.134888 0.131836
0.958496 0.141510 0.138092
0.127472 0.243744 0.110870
0.131409 0.240082 0.110962
0.166779 0.237091 0.112610
0.198822 0.232117 0.113647
0.229248 0.225739 0.114075
0.256775 0.220093 0.114563
0.284882 0.214783 0.115143
0.313171 0.210480 0.115784
0.341797 0.207062 0.116272
0.371704 0.203735 0.117096
0.401855 0.200714 0.117828
0.432556 0.197632 0.118530
0.464081 0.194244 0.119507
0.496643 0.190552 0.120728
0.529663 0.187012 0.121735
0.563934 0.183228 0.123077
0.599243 0.179382 0.124512
0.635925 0.175385 0.126221
0.674469 0.170959 0.128540
0.714417 0.166443 0.131226
0.755280 0.162048 0.134003
0.797943 0.157318 0.137421
0.841431 0.152740 0.140869
0.885559 0.148590 0.144257
0.925385 0.147583 0.143738
0.964844 0.146942 0.143188
0.963104 0.145447 0.141785
0.961639 0.144196 0.140594
0.960632 0.143341 0.139801
0.960571 0.143280 0.139740
0.962189 0.144623 0.140991
0.965881 0.147827 0.144012
0.971588 0.152740 0.148682
0.974060 0.161407 0.150665
0.131958 0.274231 0.112030
0.133942 0.270325 0.111816
0.169159 0.267609 0.113617
0.200775 0.262787 0.114868
0.231262 0.255951 0.115509
0.258789 0.249268 0.116028
0.285919 0.242981 0.116486
0.312836 0.237793 0.117004
0.339905 0.233612 0.117493
0.367889 0.229858 0.118195
0.395813 0.226715 0.118774
0.424316 0.223572 0.119446
0.453308 0.220398 0.120178
0.483215 0.217041 0.121124
0.513733 0.213776 0.122009
0.544708 0.210785 0.122803
0.577545 0.207458 0.123993
0.611023 0.204376 0.125122
0.646362 0.201111 0.126678
0.682526 0.198151 0.128113
0.720154 0.195160 0.129883
0.759338 0.192108 0.131989
0.799835 0.189056 0.134369
0.841705 0.185974 0.137115
0.884918 0.182831 0.140320
0.929626 0.179443 0.144287
0.971252 0.175964 0.148376
0.971588 0.173981 0.148682
0.972260 0.172272 0.149200
0.972076 0.171844 0.149078
0.972015 0.172913 0.149017
0.971008 0.177185 0.148132
0.968384 0.185394 0.146027
0.966400 0.195435 0.144379
0.137238 0.305084 0.112976
0.136383 0.302063 0.113190
0.172455 0.299103 0.114777
0.204346 0.294220 0.116119
0.234192 0.287384 0.116913
0.262390 0.279663 0.117462
0.288849 0.272369 0.117920
0.315002 0.265930 0.118378
0.340759 0.260864 0.118805
0.367310 0.256470 0.119354
0.393921 0.252777 0.119934
0.420898 0.249481 0.120575
0.448456 0.246216 0.121246
0.476288 0.243164 0.121918
0.504761 0.240204 0.122681
0.534027 0.237335 0.123444
0.564301 0.234589 0.124329
0.595703 0.231873 0.125366
0.628235 0.229340 0.126404
0.662109 0.226929 0.127716
0.696899 0.224884 0.128876
0.733307 0.222870 0.130402
0.770905 0.221069 0.132019
0.809967 0.219269 0.133942
0.849884 0.217743 0.135834
0.890869 0.216217 0.138031
0.932739 0.214539 0.140564
0.964172 0.213013 0.142548
0.964081 0.211975 0.142517
0.964203 0.211395 0.142578
0.963898 0.212158 0.142395
0.963806 0.214569 0.142303
0.963531 0.219818 0.142029
0.962921 0.227356 0.141541
0.141724 0.336823 0.113983
0.143646 0.333160 0.113831
0.177002 0.331085 0.115875
0.208710 0.326324 0.117340
0.238556 0.319397 0.118347
0.266418 0.311249 0.118927
0.292633 0.303040 0.119385
0.318176 0.295441 0.119781
0.343048 0.289124 0.120178
0.368225 0.283905 0.120667
0.393829 0.279602 0.121155
0.419678 0.275940 0.121674
0.446320 0.272614 0.122345
0.473145 0.269501 0.122986
0.500549 0.266663 0.123657
0.528534 0.263916 0.124359
0.557465 0.261353 0.125214
0.586884 0.259094 0.125916
0.617645 0.256897 0.126953
0.649231 0.255096 0.127899
0.682251 0.253387 0.129089
0.716278 0.252075 0.130310
0.751251 0.251190 0.131500
0.787964 0.250214 0.133057
0.825439 0.249634 0.134491
0.864197 0.248932 0.136261
0.903412 0.248352 0.137970
0.943176 0.247711 0.139893
0.962250 0.247101 0.140930
0.962250 0.246887 0.140930
0.962219 0.247314 0.140900
0.962219 0.248932 0.140900
0.961914 0.252777 0.140686
0.961945 0.258270 0.140656
0.147949 0.368317 0.114655
0.150024 0.365234 0.114838
0.182892 0.363129 0.116730
0.213287 0.358948 0.118591
0.242767 0.352142 0.119720
0.270508 0.343781 0.120422
0.296906 0.334747 0.120880
0.321655 0.326263 0.121216
0.346130 0.318634 0.121582
0.370544 0.312225 0.122009
0.394958 0.307159 0.122467
0.419891 0.303009 0.122925
0.445709 0.299438 0.123505
0.472076 0.296234 0.124115
0.498810 0.293488 0.124756
0.526215 0.290863 0.125488
0.554169 0.288483 0.126190
0.582825 0.286438 0.126984
0.612183 0.284576 0.127838
0.642456 0.283051 0.128662
0.673645 0.281891 0.129700
0.705902 0.281006 0.130768
0.739136 0.280518 0.131836
0.773560 0.280273 0.133087
0.809082 0.280212 0.134491
0.845520 0.280121 0.135864
0.882599 0.280243 0.137329
0.920471 0.280212 0.138916
0.958374 0.280426 0.140594
0.962067 0.280548 0.140717
0.962097 0.281036 0.140747
0.962036 0.282318 0.140686
0.962128 0.284821 0.140747
0.962128 0.288696 0.140747
0.153564 0.400330 0.115326
0.157166 0.397217 0.115509
0.188019 0.395721 0.117828
0.217529 0.391907 0.119812
0.246460 0.385498 0.121094
0.274689 0.376801 0.121796
0.300842 0.367432 0.122345
0.325195 0.358185 0.122711
0.349274 0.349487 0.123016
0.372650 0.342133 0.123383
0.396454 0.335968 0.123779
0.420837 0.330994 0.124237
0.446045 0.326904 0.124756
0.471802 0.323639 0.125275
0.498291 0.320831 0.125946
0.525391 0.318268 0.126587
0.552948 0.316162 0.127319
0.581085 0.314301 0.128052
0.609924 0.312683 0.128845
0.639496 0.311432 0.129761
0.669617 0.310608 0.130646
0.700653 0.310089 0.131592
0.732605 0.309967 0.132690
0.765289 0.310181 0.133759
0.798950 0.310486 0.134918
0.833466 0.310883 0.136200
0.868652 0.311340 0.137512
0.904480 0.311920 0.138824
0.940521 0.312561 0.140259
0.962708 0.313141 0.141174
0.962799 0.313721 0.141205
0.962738 0.314819 0.141205
0.962769 0.316528 0.141205
0.962891 0.319061 0.141296
0.159943 0.432404 0.115845
0.164673 0.428925 0.115845
0.193146 0.428192 0.118561
0.221741 0.424774 0.120789
0.250214 0.418671 0.122253
0.277710 0.410431 0.123169
0.303894 0.400879 0.123688
0.328735 0.390930 0.124146
0.352234 0.381561 0.124512
0.375214 0.373169 0.124786
0.398621 0.365936 0.125183
0.422394 0.360016 0.125580
0.446930 0.355377 0.126038
0.472351 0.351685 0.126617
0.498535 0.348694 0.127228
0.525391 0.346252 0.127838
0.552887 0.344238 0.128571
0.580902 0.342590 0.129272
0.609528 0.341217 0.130066
0.638641 0.340302 0.130890
0.668304 0.339752 0.131744
0.698792 0.339569 0.132721
0.729706 0.339783 0.133667
0.761414 0.340271 0.134705
0.793671 0.340881 0.135803
0.826630 0.341583 0.136932
0.860229 0.342377 0.138123
0.894348 0.343201 0.139313
0.928650 0.344238 0.140564
0.963013 0.345184 0.141937
0.963806 0.345856 0.141968
0.963776 0.346832 0.141968
0.963867 0.348022 0.142029
0.963928 0.349701 0.142059
0.166809 0.464691 0.116089
0.169464 0.461517 0.116272
0.197479 0.460815 0.119141
0.224304 0.458282 0.121765
0.252075 0.452576 0.123413
0.279907 0.444427 0.124359
0.306091 0.434967 0.125153
0.331055 0.424744 0.125549
0.354736 0.414764 0.125946
0.377869 0.405518 0.126251
0.401031 0.397217 0.126587
0.424316 0.390503 0.126953
0.448303 0.385071 0.127411
0.473267 0.380768 0.127899
0.499207 0.377441 0.128510
0.525909 0.374939 0.129120
0.553253 0.372955 0.129822
0.581268 0.371460 0.130524
0.609894 0.370422 0.131348
0.638947 0.369720 0.132111
0.668701 0.369476 0.133026
0.698761 0.369598 0.133911
0.729309 0.370117 0.134827
0.760529 0.370667 0.135864
0.791901 0.371552 0.136871
0.823761 0.372528 0.137939
0.856049 0.373566 0.139008
0.888916 0.374603 0.140198
0.921722 0.375702 0.141327
0.954620 0.376831 0.142578
0.965118 0.377716 0.142914
0.965240 0.378448 0.142975
0.965240 0.379303 0.142975
0.965332 0.380310 0.143036
0.174164 0.497559 0.116272
0.174774 0.493896 0.116180
0.201050 0.493744 0.119446
0.226501 0.491821 0.122437
0.253754 0.486633 0.124329
0.280914 0.479034 0.125610
0.307373 0.469635 0.126373
0.332764 0.459320 0.126923
0.356812 0.448944 0.127380
0.380066 0.439117 0.127686
0.403076 0.430145 0.128021
0.426422 0.422394 0.128387
0.450226 0.416077 0.128784
0.474792 0.411102 0.129272
0.500275 0.407288 0.129791
0.526764 0.404480 0.130402
0.554108 0.402405 0.131134
0.582031 0.401031 0.131836
0.610809 0.400146 0.132629
0.640076 0.399750 0.133453
0.669800 0.399780 0.134338
0.699799 0.400238 0.135193
0.730255 0.400879 0.136108
0.761078 0.401703 0.137115
0.792084 0.402710 0.138123
0.823425 0.403809 0.139099
0.854980 0.404968 0.140167
0.886749 0.406158 0.141205
0.918701 0.407288 0.142365
0.950317 0.408508 0.143463
0.966675 0.409424 0.144043
0.966675 0.410034 0.144043
0.966705 0.410675 0.144073
0.966797 0.411316 0.144135
0.180878 0.531647 0.116608
0.180237 0.527832 0.116547
0.203461 0.527649 0.119751
0.228241 0.526001 0.122986
0.254517 0.521423 0.125183
0.281250 0.514252 0.126648
0.307770 0.505188 0.127594
0.333435 0.494934 0.128265
0.357941 0.484344 0.128754
0.381866 0.473877 0.129150
0.405304 0.464264 0.129486
0.428711 0.455750 0.129852
0.452484 0.448517 0.130219
0.476868 0.442780 0.130676
0.502106 0.438324 0.131226
0.528320 0.435120 0.131775
0.555481 0.432861 0.132446
0.583374 0.431458 0.133179
0.612091 0.430664 0.134003
0.641296 0.430573 0.134796
0.671204 0.430756 0.135651
0.701416 0.431335 0.136566
0.731934 0.432129 0.137482
0.762604 0.433197 0.138428
0.793457 0.434326 0.139404
0.824493 0.435486 0.140381
0.855591 0.436798 0.141418
0.886871 0.438049 0.142456
0.918060 0.439209 0.143494
0.948914 0.440338 0.144562
0.968323 0.441254 0.145233
0.968353 0.441742 0.145264
0.968414 0.442139 0.145294
0.968414 0.442505 0.145294
0.188568 0.566498 0.116730
0.187653 0.562592 0.116699
0.206207 0.562195 0.119781
0.229706 0.561066 0.123383
0.255219 0.556946 0.125916
0.281372 0.550354 0.127625
0.308014 0.541504 0.128723
0.333862 0.531433 0.129547
0.358948 0.520752 0.130127
0.383331 0.509979 0.130585
0.407135 0.499786 0.130951
0.431152 0.490509 0.131348
0.454926 0.482605 0.131714
0.479431 0.476013 0.132111
0.504395 0.470917 0.132629
0.530518 0.466980 0.133209
0.557465 0.464355 0.133881
0.585236 0.462769 0.134583
0.613922 0.461975 0.135345
0.643158 0.461914 0.136169
0.673096 0.462311 0.137054
0.703278 0.463074 0.137970
0.733765 0.464020 0.138824
0.764435 0.465179 0.139801
0.795349 0.466370 0.140778
0.826294 0.467682 0.141785
0.857300 0.468994 0.142792
0.888184 0.470184 0.143738
0.918915 0.471375 0.144745
0.949280 0.472473 0.145813
0.970093 0.473236 0.146484
0.970093 0.473541 0.146484
0.970123 0.473816 0.146515
0.970093 0.474030 0.146515
0.195770 0.602905 0.117004
0.194824 0.598907 0.117065
0.209595 0.597717 0.119629
0.231567 0.597260 0.123657
0.256134 0.593536 0.126434
0.281891 0.587341 0.128479
0.308197 0.578949 0.129822
0.334259 0.569031 0.130768
0.359619 0.558350 0.131470
0.384552 0.547363 0.131958
0.408875 0.536774 0.132446
0.433167 0.526947 0.132843
0.457520 0.518188 0.133240
0.482178 0.510864 0.133667
0.507294 0.504974 0.134155
0.533356 0.500427 0.134735
0.559998 0.497284 0.135315
0.587646 0.495361 0.136017
0.616089 0.494324 0.136749
0.645386 0.494141 0.137604
0.675140 0.494537 0.138458
0.705414 0.495300 0.139374
0.735931 0.496399 0.140289
0.766602 0.497650 0.141235
0.797424 0.498932 0.142212
0.828308 0.500275 0.143127
0.859161 0.501526 0.144104
0.889984 0.502747 0.145111
0.920441 0.503876 0.146118
0.950439 0.504883 0.147064
0.971832 0.505554 0.147797
0.971863 0.505707 0.147797
0.971893 0.505707 0.147827
0.971802 0.505798 0.147766
0.203613 0.640656 0.117249
0.202271 0.636566 0.117310
0.213226 0.634644 0.119476
0.234222 0.634460 0.123749
0.257660 0.631378 0.126984
0.282715 0.625610 0.129242
0.308563 0.617645 0.130859
0.334686 0.607941 0.131927
0.360321 0.597321 0.132812
0.385620 0.586182 0.133423
0.410583 0.575165 0.133942
0.435394 0.564728 0.134369
0.460236 0.555298 0.134766
0.485199 0.547241 0.135193
0.510590 0.540588 0.135681
0.536652 0.535339 0.136200
0.563354 0.531586 0.136841
0.590729 0.529144 0.137573
0.619049 0.527771 0.138306
0.648071 0.527283 0.139099
0.677704 0.527496 0.139923
0.707825 0.528198 0.140839
0.738281 0.529175 0.141754
0.768860 0.530487 0.142670
0.799683 0.531799 0.143585
0.830536 0.533081 0.144562
0.861298 0.534363 0.145538
0.891907 0.535553 0.146515
0.922241 0.536560 0.147491
0.952057 0.537476 0.148407
0.973724 0.538116 0.149109
0.973755 0.537994 0.149139
0.973694 0.537872 0.149109
0.973724 0.537720 0.149109
0.210999 0.680389 0.117584
0.209961 0.675964 0.117584
0.217560 0.673279 0.119324
0.237732 0.673340 0.123810
0.259674 0.670929 0.127502
0.284271 0.665375 0.129974
0.309845 0.657684 0.131775
0.335724 0.648254 0.133118
0.361481 0.637726 0.134125
0.387085 0.626526 0.134827
0.412506 0.615112 0.135376
0.437592 0.604279 0.135895
0.462921 0.594238 0.136353
0.488403 0.585358 0.136810
0.514008 0.578094 0.137329
0.540283 0.572144 0.137848
0.567047 0.567627 0.138428
0.594543 0.564362 0.139099
0.622620 0.562408 0.139832
0.651398 0.561371 0.140594
0.680664 0.561279 0.141418
0.710602 0.561737 0.142303
0.740814 0.562653 0.143188
0.771332 0.563812 0.144104
0.802032 0.565063 0.145020
0.832703 0.566345 0.145966
0.863373 0.567505 0.146942
0.893768 0.568634 0.147888
0.924011 0.569550 0.148865
0.953613 0.570374 0.149750
0.975616 0.570892 0.150482
0.975616 0.570587 0.150482
0.975555 0.570312 0.150421
0.975586 0.569946 0.150421
0.218842 0.721954 0.117920
0.217682 0.717377 0.117981
0.222809 0.713623 0.119080
0.241608 0.714172 0.123993
0.262848 0.712006 0.127869
0.286652 0.706848 0.130707
0.311401 0.699615 0.132812
0.337341 0.690338 0.134308
0.363220 0.679779 0.135406
0.389008 0.668427 0.136230
0.414612 0.656860 0.136932
0.440247 0.645508 0.137482
0.465942 0.634796 0.137970
0.491699 0.625305 0.138428
0.517914 0.617126 0.138947
0.544434 0.610413 0.139496
0.571381 0.605072 0.140076
0.598785 0.601105 0.140717
0.626709 0.598358 0.141418
0.655121 0.596741 0.142151
0.684174 0.596039 0.142975
0.713654 0.596069 0.143738
0.743683 0.596649 0.144653
0.773987 0.597595 0.145569
0.804504 0.598694 0.146515
0.834991 0.599854 0.147461
0.865417 0.600952 0.148376
0.895691 0.601929 0.149323
0.925568 0.602814 0.150208
0.955048 0.603455 0.151154
0.977509 0.603790 0.151794
0.977509 0.603394 0.151794
0.977509 0.602844 0.151764
0.977478 0.602356 0.151764
0.227478 0.765442 0.118164
0.226257 0.760590 0.118225
0.228455 0.756256 0.118988
0.247070 0.756714 0.123993
0.266998 0.755066 0.128326
0.289825 0.750397 0.131470
0.314240 0.743317 0.133789
0.339661 0.734253 0.135468
0.365417 0.723816 0.136749
0.391357 0.712372 0.137756
0.417328 0.700439 0.138458
0.443329 0.688538 0.139099
0.469208 0.677246 0.139618
0.495300 0.667053 0.140167
0.521790 0.657990 0.140656
0.548676 0.650360 0.141205
0.575867 0.644104 0.141754
0.603271 0.639343 0.142395
0.631165 0.635681 0.143036
0.659332 0.633270 0.143738
0.688141 0.631805 0.144562
0.717346 0.631256 0.145355
0.746857 0.631409 0.146210
0.776825 0.631927 0.147064
0.806946 0.632751 0.147949
0.837250 0.633636 0.148895
0.867432 0.634552 0.149811
0.897369 0.635376 0.150696
0.927063 0.636078 0.151611
0.956329 0.636658 0.152527
0.979553 0.636902 0.153229
0.979553 0.636261 0.153198
0.979462 0.635651 0.153168
0.979401 0.634888 0.153107
0.235840 0.811554 0.118530
0.234985 0.806244 0.118500
0.235291 0.801086 0.118896
0.252991 0.801849 0.124146
0.272095 0.800385 0.128723
0.294342 0.795929 0.132111
0.318237 0.789032 0.134735
0.343048 0.780273 0.136719
0.368622 0.769745 0.138123
0.394592 0.758087 0.139221
0.420502 0.745911 0.140076
0.446594 0.733551 0.140747
0.472870 0.721497 0.141327
0.499207 0.710388 0.141846
0.526001 0.700439 0.142395
0.553009 0.691803 0.142914
0.580353 0.684692 0.143463
0.607971 0.678833 0.144104
0.635925 0.674286 0.144714
0.664032 0.670990 0.145447
0.692444 0.668732 0.146149
0.721313 0.667297 0.146942
0.750519 0.666718 0.147766
0.779938 0.666779 0.148590
0.809662 0.667114 0.149475
0.839630 0.667664 0.150360
0.869354 0.668365 0.151245
0.899048 0.668945 0.152130
0.928436 0.669495 0.153015
0.957458 0.669861 0.153900
0.981567 0.670044 0.154633
0.981537 0.669250 0.154602
0.981476 0.668396 0.154541
0.981415 0.667511 0.154510
0.244965 0.859985 0.118896
0.243896 0.854523 0.118835
0.243011 0.848541 0.118866
0.260254 0.849274 0.124237
0.278412 0.848145 0.129181
0.299561 0.844025 0.132935
0.322815 0.837219 0.135742
0.347290 0.828400 0.137909
0.372681 0.817749 0.139496
0.398346 0.805908 0.140747
0.424500 0.793182 0.141663
0.450653 0.780212 0.142395
0.476929 0.767487 0.143036
0.503387 0.755463 0.143616
0.530243 0.744446 0.144135
0.557495 0.734802 0.144653
0.585083 0.726501 0.145233
0.612793 0.719666 0.145813
0.640747 0.714172 0.146484
0.668823 0.709869 0.147125
0.696960 0.706635 0.147827
0.725555 0.704346 0.148560
0.754303 0.702881 0.149323
0.783295 0.702148 0.150116
0.812561 0.701874 0.150940
0.841980 0.701996 0.151794
0.871277 0.702301 0.152649
0.900543 0.702698 0.153534
0.929657 0.702942 0.154419
0.958374 0.703156 0.155273
0.983582 0.703217 0.156006
0.983582 0.702301 0.155975
0.983459 0.701263 0.155914
0.983459 0.700226 0.155884
0.254547 0.910461 0.119171
0.253296 0.905029 0.119232
0.252350 0.898773 0.119080
0.267944 0.899536 0.124573
0.285736 0.898315 0.129578
0.305725 0.894409 0.133698
0.328552 0.887543 0.136719
0.352509 0.878571 0.139069
0.377441 0.867706 0.140869
0.402863 0.855469 0.142212
0.428833 0.842224 0.143280
0.454956 0.828522 0.144104
0.481323 0.814972 0.144745
0.507843 0.801971 0.145386
0.534729 0.789917 0.145935
0.562042 0.779083 0.146484
0.589722 0.769592 0.147034
0.617584 0.761658 0.147583
0.645599 0.755096 0.148224
0.673615 0.749695 0.148834
0.701752 0.745422 0.149506
0.729950 0.742188 0.150177
0.758301 0.739807 0.150909
0.786804 0.738251 0.151672
0.815491 0.737244 0.152496
0.844299 0.736694 0.153259
0.873230 0.736511 0.154114
0.902039 0.736450 0.154968
0.930725 0.736450 0.155792
0.959076 0.736450 0.156647
0.985596 0.736328 0.157410
0.985596 0.735229 0.157379
0.985504 0.734100 0.157318
0.985443 0.732971 0.157257
0.255432 0.915619 0.119263
0.255432 0.915619 0.119263
0.255432 0.915619 0.119263
0.271790 0.923340 0.124603
0.290192 0.930939 0.129913
0.311584 0.937073 0.134216
0.334625 0.939758 0.137726
0.358124 0.930481 0.140259
0.382385 0.919312 0.142242
0.407654 0.906464 0.143738
0.433350 0.892670 0.144897
0.459442 0.878265 0.145813
0.485809 0.863770 0.146515
0.512360 0.849762 0.147156
0.539490 0.836517 0.147736
0.566711 0.824524 0.148224
0.594330 0.813873 0.148804
0.622192 0.804688 0.149353
0.650238 0.796906 0.149933
0.678314 0.790375 0.150513
0.706299 0.784973 0.151154
0.734344 0.780670 0.151825
0.762299 0.777374 0.152527
0.790405 0.774780 0.153229
0.818542 0.772919 0.153961
0.846802 0.771698 0.154785
0.875183 0.770844 0.155548
0.903503 0.770355 0.156342
0.931732 0.769989 0.157196
0.959747 0.769653 0.157990
0.987640 0.769379 0.158813
0.987671 0.768097 0.158752
0.987549 0.766876 0.158691
0.987518 0.765625 0.158661
0.255432 0.915619 0.119263
0.255432 0.915619 0.119263
0.255646 0.915833 0.119385
0.272217 0.923615 0.124786
0.290192 0.930939 0.129913
0.310944 0.937012 0.134155
0.334229 0.941895 0.137665
0.359192 0.945923 0.140503
0.385132 0.949402 0.142975
0.411957 0.952209 0.144958
0.438141 0.944122 0.146454
0.464050 0.929077 0.147491
0.490448 0.913757 0.148285
0.517151 0.898743 0.148956
0.544067 0.884399 0.149567
0.571442 0.871094 0.150055
0.599030 0.859009 0.150574
0.626831 0.848450 0.151123
0.654816 0.839355 0.151672
0.682831 0.831543 0.152222
0.710693 0.825104 0.152863
0.738495 0.819672 0.153503
0.766235 0.815277 0.154144
0.793823 0.811798 0.154816
0.821533 0.809021 0.155518
0.849304 0.806946 0.156250
0.877106 0.805481 0.157013
0.904999 0.804352 0.157776
0.932739 0.803528 0.158569
0.960419 0.802917 0.159363
