core-styles/future.cube
#Created by: Adobe Photoshop Export Color Lookup Plugin
#Copyright: (C) Copyright 2026 小米
TITLE "夜景-青蓝色调"
#LUT size
LUT_3D_SIZE 8
#data domain
DOMAIN_MIN 0.0 0.0 0.0
DOMAIN_MAX 1.0 1.0 1.0
#LUT data points
0.000000 0.000000 0.000000
0.149597 0.000000 0.000000
0.377411 0.000000 0.000000
0.641693 0.000000 0.000000
0.879700 0.000000 0.000000
1.000000 0.000000 0.000000
1.000000 0.000000 0.000000
1.000000 0.000000 0.000000
0.040924 0.080017 0.041199
0.116882 0.106354 0.005859
0.300873 0.136444 0.000000
0.553040 0.160736 0.000000
0.810547 0.154358 0.000000
1.000000 0.137421 0.000000
1.000000 0.123077 0.000000
1.000000 0.118713 0.000000
0.117645 0.196899 0.115540
0.136627 0.177765 0.118378
0.269012 0.243530 0.001953
0.475220 0.273560 0.000000
0.709045 0.318939 0.000000
0.961426 0.340027 0.000000
1.000000 0.334229 0.000000
1.000000 0.316223 0.000000
0.215118 0.321686 0.205902
0.223602 0.294403 0.207153
0.253479 0.310608 0.177460
0.446045 0.396240 0.010071
0.676453 0.423279 0.000000
0.855743 0.451294 0.000000
1.000000 0.471558 0.000000
1.000000 0.465912 0.000000
0.314880 0.437958 0.294037
0.324890 0.423950 0.298157
0.320465 0.376221 0.287048
0.390778 0.442780 0.233368
0.590973 0.519012 0.051270
0.809784 0.533173 0.000000
0.974304 0.559875 0.000000
1.000000 0.578766 0.000000
0.423615 0.558167 0.387787
0.425110 0.542725 0.385620
0.418762 0.497070 0.375061
0.428558 0.498352 0.348053
0.531158 0.569611 0.283936
0.735962 0.645264 0.103485
0.942230 0.646637 0.000000
1.000000 0.677368 0.000000
0.572845 0.704407 0.520325
0.574280 0.694550 0.518890
0.578735 0.670471 0.517365
0.579041 0.630737 0.511749
0.617981 0.686218 0.473572
0.728638 0.752686 0.399963
0.908356 0.811890 0.214600
1.000000 0.794403 0.000000
0.778503 0.895447 0.726044
0.781067 0.890686 0.726471
0.793304 0.883606 0.734467
0.816528 0.874939 0.753448
0.833893 0.887543 0.751984
0.870239 0.935028 0.720367
0.944611 0.978210 0.658508
1.000000 0.990509 0.464294
0.000000 0.005127 0.140137
0.160431 0.000000 0.159241
0.377838 0.000000 0.174835
0.647522 0.000000 0.179047
0.882355 0.000000 0.179871
1.000000 0.000000 0.197510
1.000000 0.029388 0.218597
1.000000 0.063873 0.231628
0.000000 0.142151 0.124084
0.123352 0.121704 0.121857
0.329498 0.131592 0.133301
0.580902 0.129028 0.138794
0.830475 0.116852 0.145844
1.000000 0.139343 0.179291
1.000000 0.171204 0.206299
1.000000 0.191925 0.218964
0.122650 0.255981 0.158112
0.173798 0.222626 0.169586
0.279327 0.256104 0.111877
0.482513 0.276123 0.055939
0.733673 0.316376 0.058990
0.961823 0.335236 0.101837
1.000000 0.339264 0.146667
1.000000 0.334015 0.174652
0.231995 0.359192 0.234955
0.246368 0.331207 0.235413
0.264832 0.311798 0.219696
0.440002 0.392975 0.115692
0.661102 0.412964 0.000000
0.835663 0.439545 0.000000
1.000000 0.464233 0.011780
1.000000 0.464020 0.043732
0.329651 0.463776 0.314758
0.338196 0.445831 0.315552
0.334534 0.388123 0.305054
0.386108 0.435638 0.259247
0.581329 0.512146 0.129028
0.800323 0.527069 0.000000
0.966431 0.554810 0.000000
1.000000 0.574493 0.000000
0.431458 0.572632 0.399841
0.431335 0.555115 0.395386
0.425995 0.509277 0.383820
0.425995 0.488586 0.358612
0.522003 0.560699 0.300232
0.728027 0.639008 0.153168
0.942322 0.646942 0.000000
1.000000 0.675079 0.000000
0.576904 0.714050 0.527710
0.578827 0.704346 0.526245
0.582306 0.678955 0.522980
0.581055 0.632782 0.516357
0.613312 0.679077 0.480072
0.716766 0.741455 0.403992
0.898529 0.802216 0.231323
1.000000 0.786530 0.000000
0.767303 0.891083 0.716400
0.774261 0.889923 0.721375
0.797150 0.891937 0.740753
0.820282 0.882782 0.759003
0.840912 0.891479 0.764648
0.873779 0.938080 0.732117
0.945282 0.979828 0.669067
1.000000 0.990509 0.475189
0.000000 0.020996 0.331635
0.079285 0.000000 0.356476
0.405273 0.000000 0.392944
0.647186 0.000000 0.406830
0.887878 0.000000 0.420258
1.000000 0.142700 0.454834
1.000000 0.354980 0.513702
1.000000 0.396179 0.515839
0.000000 0.174896 0.295807
0.000000 0.120667 0.319702
0.370239 0.106812 0.358582
0.614105 0.099304 0.377960
0.863831 0.153046 0.409912
1.000000 0.298370 0.463013
1.000000 0.374969 0.492126
1.000000 0.405396 0.496216
0.000000 0.337860 0.299103
0.000336 0.323425 0.293793
0.288666 0.277435 0.278046
0.543762 0.319397 0.322998
0.799713 0.359802 0.368835
0.987549 0.396515 0.408234
1.000000 0.429138 0.439972
1.000000 0.447296 0.455597
0.151825 0.474304 0.296967
0.253662 0.446747 0.309967
0.333557 0.372589 0.316010
0.451843 0.409058 0.258179
0.667969 0.427032 0.234894
0.869232 0.465363 0.275970
1.000000 0.500946 0.336243
1.000000 0.513611 0.374023
0.370422 0.546173 0.382202
0.382507 0.524414 0.378662
0.392456 0.464813 0.365692
0.401703 0.438629 0.331543
0.584656 0.518524 0.247589
0.801727 0.531952 0.154449
0.966858 0.561188 0.173340
1.000000 0.584351 0.195648
0.470642 0.630615 0.451508
0.471161 0.612732 0.445251
0.470367 0.568176 0.431549
0.450897 0.492462 0.404175
0.526672 0.563690 0.357178
0.730865 0.644226 0.252533
0.943939 0.651123 0.006195
1.000000 0.677002 0.000000
0.591797 0.744354 0.552704
0.594299 0.734711 0.550751
0.600220 0.710052 0.546906
0.601135 0.663147 0.538025
0.613403 0.670105 0.506592
0.713867 0.740051 0.442444
0.896820 0.802643 0.296631
1.000000 0.787018 0.000000
0.775482 0.912628 0.733154
0.780060 0.909302 0.735138
0.793579 0.902252 0.742798
0.817291 0.891846 0.759369
0.843750 0.885620 0.777893
0.871765 0.934235 0.745758
0.941132 0.977631 0.683014
1.000000 0.990601 0.499481
0.000000 0.059662 0.537567
0.000000 0.000000 0.558990
0.358337 0.000000 0.605255
0.681671 0.000000 0.648132
0.898315 0.000000 0.641022
1.000000 0.145874 0.640381
1.000000 0.380188 0.656219
1.000000 0.527618 0.688904
0.000000 0.206116 0.505707
0.000000 0.141235 0.527893
0.313660 0.113647 0.574982
0.654694 0.054565 0.621338
0.878387 0.107697 0.624664
1.000000 0.296265 0.634369
1.000000 0.451202 0.662170
1.000000 0.570679 0.698914
0.000000 0.336792 0.442596
0.000000 0.325165 0.448975
0.186615 0.287445 0.506256
0.612030 0.329376 0.577423
0.834625 0.387360 0.595337
0.999237 0.487366 0.636749
1.000000 0.587769 0.687927
1.000000 0.657959 0.724091
0.000000 0.557190 0.498810
0.000000 0.546570 0.494537
0.250305 0.513824 0.479736
0.475067 0.442871 0.444580
0.728088 0.512604 0.517242
0.930969 0.576111 0.581909
1.000000 0.626862 0.631195
1.000000 0.651337 0.653412
0.301605 0.691406 0.485260
0.359009 0.674988 0.486694
0.453308 0.622864 0.485870
0.499695 0.516602 0.463135
0.608612 0.547302 0.404846
0.814301 0.564026 0.391724
0.983551 0.606415 0.439789
1.000000 0.648163 0.507568
0.514130 0.736694 0.543610
0.534210 0.721283 0.545807
0.548065 0.678070 0.530762
0.539642 0.595825 0.495636
0.540771 0.566193 0.445343
0.736053 0.654388 0.375763
0.951294 0.666260 0.301178
1.000000 0.691986 0.319244
0.624969 0.808655 0.612061
0.628052 0.798828 0.608490
0.635010 0.772919 0.600067
0.638550 0.723602 0.584076
0.619019 0.650391 0.549469
0.705322 0.733154 0.499817
0.894684 0.804626 0.386902
1.000000 0.790344 0.135834
0.762115 0.930634 0.737366
0.765320 0.925659 0.736694
0.779541 0.917419 0.742004
0.806152 0.906006 0.756775
0.839172 0.889282 0.780487
0.866852 0.923737 0.767120
0.932526 0.972443 0.705566
1.000000 0.990723 0.536163
0.000000 0.099182 0.710754
0.000000 0.035828 0.724701
0.173523 0.000000 0.754608
0.591827 0.000000 0.803375
0.882843 0.000000 0.842743
1.000000 0.112183 0.826965
1.000000 0.371246 0.798798
1.000000 0.520660 0.787903
0.000000 0.229431 0.690552
0.000000 0.174194 0.706299
0.115540 0.150696 0.737579
0.579071 0.156311 0.790497
0.870941 0.196075 0.829681
1.000000 0.273224 0.813843
1.000000 0.442719 0.797333
1.000000 0.566162 0.793488
0.000000 0.382721 0.639191
0.000000 0.371704 0.655457
0.000000 0.317657 0.699982
0.548370 0.358704 0.760315
0.848206 0.413483 0.804077
1.000000 0.470062 0.796600
1.000000 0.575989 0.800598
1.000000 0.664063 0.811432
0.000000 0.517609 0.610474
0.000000 0.505127 0.604462
0.000000 0.477875 0.598694
0.440216 0.474182 0.670654
0.788544 0.551514 0.740479
0.956055 0.616486 0.762878
1.000000 0.706512 0.806427
1.000000 0.773438 0.837585
0.000000 0.730499 0.663727
0.000000 0.723572 0.661224
0.284729 0.702545 0.651855
0.484253 0.662720 0.632599
0.631195 0.581573 0.584229
0.873993 0.678741 0.682465
1.000000 0.750732 0.752777
1.000000 0.786682 0.786621
0.494873 0.869415 0.670410
0.519775 0.860352 0.669434
0.571350 0.833984 0.663788
0.632111 0.775543 0.646637
0.638367 0.641663 0.587982
0.748474 0.675690 0.528259
0.953827 0.699768 0.525421
1.000000 0.735504 0.568512
0.626526 0.905304 0.689392
0.638092 0.898376 0.689545
0.674805 0.878510 0.695313
0.707458 0.833984 0.686981
0.695313 0.746216 0.639984
0.702423 0.723541 0.583313
0.892792 0.810120 0.503754
1.000000 0.804535 0.409180
0.753540 0.966614 0.767670
0.759949 0.963531 0.768585
0.774628 0.955750 0.770325
0.799896 0.941528 0.775604
0.834747 0.920654 0.789368
0.871155 0.908905 0.808746
0.923370 0.967926 0.749756
1.000000 0.990967 0.596741
0.000000 0.137268 0.851105
0.000000 0.091278 0.859772
0.000000 0.066742 0.878387
0.451324 0.060883 0.912415
0.775879 0.154358 0.949860
0.994507 0.261261 0.963867
1.000000 0.341309 0.947754
1.000000 0.501099 0.898712
0.000000 0.251434 0.841644
0.000000 0.208801 0.851593
0.000000 0.192169 0.872986
0.448364 0.212067 0.904480
0.772217 0.278229 0.940979
0.989380 0.357941 0.957184
1.000000 0.417450 0.942108
1.000000 0.550690 0.899658
0.000000 0.414520 0.820251
0.000000 0.397858 0.829102
0.000000 0.347443 0.852173
0.442566 0.376099 0.886078
0.770111 0.450226 0.926208
0.981689 0.519135 0.947845
1.000000 0.559387 0.933777
1.000000 0.652771 0.904297
0.000000 0.526428 0.753815
0.000000 0.524902 0.762482
0.000000 0.524963 0.788788
0.394775 0.505219 0.841705
0.749115 0.585876 0.895447
0.963226 0.655518 0.928192
1.000000 0.693939 0.920319
1.000000 0.763123 0.910553
0.000000 0.684265 0.762482
0.000000 0.675964 0.758423
0.000000 0.652618 0.746918
0.258026 0.616547 0.737396
0.631500 0.633759 0.811493
0.923767 0.738190 0.884369
1.000000 0.798737 0.901520
1.000000 0.863007 0.921326
0.144653 0.878693 0.808350
0.243042 0.876343 0.808929
0.380951 0.866974 0.806915
0.528076 0.848083 0.801147
0.663940 0.809204 0.781891
0.774017 0.718262 0.721252
0.986053 0.841583 0.842926
1.000000 0.892487 0.891907
0.658813 0.988800 0.818604
0.673553 0.985931 0.820221
0.707520 0.977386 0.823029
0.753723 0.959229 0.823059
0.792816 0.915863 0.804932
0.779175 0.784149 0.725861
0.890381 0.821777 0.657623
1.000000 0.838257 0.654785
0.724152 1.000000 0.807159
0.733673 1.000000 0.809662
0.756104 0.998901 0.815277
0.792480 0.990906 0.824493
0.841370 0.972931 0.837036
0.877777 0.944031 0.840546
0.920166 0.963745 0.826172
1.000000 0.991577 0.692871
0.000000 0.183289 0.977722
0.000000 0.147003 0.980865
0.000000 0.147919 0.989166
0.279419 0.165070 0.995880
0.638580 0.225098 1.000000
0.892395 0.353394 1.000000
1.000000 0.453766 1.000000
1.000000 0.512207 1.000000
0.000000 0.281342 0.972961
0.000000 0.250671 0.977203
0.000000 0.237274 0.986420
0.298553 0.262299 0.994965
0.651093 0.324371 1.000000
0.897400 0.437439 1.000000
1.000000 0.520050 1.000000
1.000000 0.566559 1.000000
0.000000 0.431549 0.957947
0.000000 0.418182 0.962860
0.000000 0.380005 0.974701
0.331238 0.401428 0.988953
0.669403 0.464844 0.998230
0.901611 0.560577 1.000000
1.000000 0.625793 1.000000
1.000000 0.655792 0.998993
0.000000 0.575104 0.927643
0.000000 0.573364 0.933441
0.000000 0.557983 0.947388
0.342957 0.531555 0.968506
0.676117 0.590149 0.988983
0.902222 0.680542 1.000000
1.000000 0.741394 1.000000
1.000000 0.762787 0.995270
0.000000 0.660187 0.872406
0.000000 0.656952 0.875549
0.000000 0.655273 0.890228
0.329102 0.664734 0.918579
0.622040 0.670563 0.959808
0.887299 0.767914 0.989777
1.000000 0.840179 0.998718
1.000000 0.862762 0.988190
0.000000 0.849365 0.914368
0.000000 0.844971 0.913055
0.000000 0.833069 0.909454
0.151428 0.807709 0.900848
0.446045 0.760742 0.885559
0.808624 0.801086 0.945313
0.996948 0.911652 0.986755
1.000000 0.944397 0.983734
0.442566 0.994385 0.928802
0.475098 0.993958 0.929840
0.544128 0.990173 0.931305
0.638519 0.982452 0.933044
0.745941 0.971344 0.935364
0.844360 0.950928 0.931030
0.913300 0.875641 0.877625
1.000000 0.971161 0.970856
0.794983 1.000000 0.906250
0.806946 1.000000 0.909454
0.831116 1.000000 0.916138
0.861084 1.000000 0.924316
0.894409 1.000000 0.933044
0.921234 1.000000 0.935883
0.944916 0.977264 0.925049
1.000000 0.993744 0.854218
0.000000 0.231293 1.000000
0.000000 0.204010 1.000000
0.000000 0.212189 1.000000
0.045258 0.234924 1.000000
0.515991 0.288879 1.000000
0.765594 0.382965 1.000000
0.948853 0.511993 1.000000
1.000000 0.588226 1.000000
0.000000 0.316010 1.000000
0.000000 0.296234 1.000000
0.000000 0.285950 1.000000
0.067657 0.310791 1.000000
0.538849 0.363129 1.000000
0.778046 0.449463 1.000000
0.951813 0.565216 1.000000
1.000000 0.631927 1.000000
0.000000 0.445160 1.000000
0.000000 0.435211 1.000000
0.000000 0.409332 1.000000
0.215302 0.428162 1.000000
0.580414 0.482361 1.000000
0.799744 0.557922 1.000000
0.956085 0.654266 1.000000
1.000000 0.705994 1.000000
0.000000 0.605042 1.000000
0.000000 0.599701 1.000000
0.043854 0.587006 1.000000
0.355652 0.568481 1.000000
0.629364 0.609924 1.000000
0.820526 0.667084 1.000000
0.959778 0.749939 1.000000
1.000000 0.795837 1.000000
0.000000 0.708923 1.000000
0.000000 0.708374 1.000000
0.037018 0.709961 1.000000
0.439972 0.704590 1.000000
0.624146 0.697357 1.000000
0.831238 0.759918 1.000000
0.962067 0.838043 1.000000
1.000000 0.883911 1.000000
0.000000 0.826843 1.000000
0.000000 0.823669 1.000000
0.000000 0.813171 1.000000
0.000000 0.796326 1.000000
0.558014 0.800629 1.000000
0.800354 0.817322 1.000000
0.962341 0.902649 1.000000
1.000000 0.950684 1.000000
0.000000 0.970703 1.000000
0.000000 0.963562 1.000000
0.000000 0.958069 1.000000
0.178741 0.947632 1.000000
0.448608 0.931580 1.000000
0.624390 0.900360 1.000000
0.932617 0.930237 1.000000
1.000000 0.990479 1.000000
0.624420 1.000000 0.972809
0.639771 1.000000 0.973572
0.685486 1.000000 0.975983
0.755280 1.000000 0.980164
0.838196 1.000000 0.985931
0.918152 1.000000 0.992340
0.973053 1.000000 0.997345
1.000000 1.000000 1.000000
