core-styles/future.cube
#Created by: Adobe Photoshop Export Color Lookup Plugin
#Copyright: (C) Copyright 2026 小米
TITLE "夜景-青蓝色调"
#LUT size
LUT_3D_SIZE 36
#data domain
DOMAIN_MIN 0.0 0.0 0.0
DOMAIN_MAX 1.0 1.0 1.0
#LUT data points
0.000000 0.000000 0.000000
0.016388 0.000000 0.000000
0.043915 0.000000 0.000000
0.075500 0.000000 0.000000
0.110840 0.000000 0.000000
0.149597 0.000000 0.000000
0.191223 0.000000 0.000000
0.235474 0.000000 0.000000
0.281464 0.000000 0.000000
0.328705 0.000000 0.000000
0.377411 0.000000 0.000000
0.428497 0.000000 0.000000
0.480804 0.000000 0.000000
0.534180 0.000000 0.000000
0.588074 0.000000 0.000000
0.641693 0.000000 0.000000
0.694427 0.000000 0.000000
0.744904 0.000000 0.000000
0.792297 0.000000 0.000000
0.837250 0.000000 0.000000
0.879700 0.000000 0.000000
0.919678 0.000000 0.000000
0.957153 0.000000 0.000000
0.986267 0.000000 0.000000
1.000000 0.000000 0.000000
1.000000 0.000000 0.000000
1.000000 0.000000 0.000000
1.000000 0.000000 0.000000
1.000000 0.000000 0.000000
1.000000 0.000000 0.000000
1.000000 0.000000 0.000000
1.000000 0.000000 0.000000
1.000000 0.000000 0.000000
1.000000 0.000000 0.000000
1.000000 0.000000 0.000000
1.000000 0.000000 0.000000
0.002838 0.010803 0.003693
0.016113 0.014221 0.000580
0.042633 0.014954 0.000092
0.071686 0.016937 0.000000
0.104614 0.018097 0.000000
0.141296 0.018951 0.000000
0.180847 0.019836 0.000000
0.223267 0.020447 0.000000
0.268188 0.020386 0.000000
0.315002 0.019257 0.000000
0.363800 0.015564 0.000000
0.413971 0.010925 0.000000
0.466003 0.003967 0.000000
0.519043 0.000610 0.000000
0.572571 0.000000 0.000000
0.626129 0.000000 0.000000
0.679077 0.000000 0.000000
0.730133 0.000000 0.000000
0.779053 0.000000 0.000000
0.824799 0.000000 0.000000
0.868256 0.000000 0.000000
0.908966 0.000000 0.000000
0.947021 0.000000 0.000000
0.980530 0.000000 0.000000
1.000000 0.000000 0.000000
1.000000 0.000000 0.000000
1.000000 0.000000 0.000000
1.000000 0.000000 0.000000
1.000000 0.000000 0.000000
1.000000 0.000000 0.000000
1.000000 0.000000 0.000000
1.000000 0.000000 0.000000
1.000000 0.000000 0.000000
1.000000 0.000000 0.000000
1.000000 0.000000 0.000000
1.000000 0.000000 0.000000
0.010132 0.025055 0.010803
0.018219 0.026520 0.009766
0.038696 0.034180 0.000946
0.070862 0.034851 0.000122
0.100891 0.038696 0.000000
0.133698 0.042877 0.000000
0.170898 0.046570 0.000000
0.212311 0.049377 0.000000
0.256165 0.051758 0.000000
0.302490 0.052856 0.000000
0.350525 0.053802 0.000000
0.400757 0.052246 0.000000
0.452484 0.048950 0.000000
0.505371 0.043243 0.000000
0.558868 0.037781 0.000000
0.612335 0.031281 0.000000
0.665375 0.022583 0.000000
0.717285 0.010376 0.000000
0.766693 0.000000 0.000000
0.813263 0.000000 0.000000
0.857544 0.000000 0.000000
0.899231 0.000000 0.000000
0.938080 0.000000 0.000000
0.975464 0.000000 0.000000
1.000000 0.000000 0.000000
1.000000 0.000000 0.000000
1.000000 0.000000 0.000000
1.000000 0.000000 0.000000
1.000000 0.000000 0.000000
1.000000 0.000000 0.000000
1.000000 0.000000 0.000000
1.000000 0.000000 0.000000
1.000000 0.000000 0.000000
1.000000 0.000000 0.000000
1.000000 0.000000 0.000000
1.000000 0.000000 0.000000
0.020203 0.042145 0.020294
0.026306 0.040314 0.022400
0.036346 0.047943 0.014893
0.064484 0.057861 0.002289
0.100494 0.058868 0.000336
0.131622 0.063782 0.000000
0.164215 0.069916 0.000000
0.201569 0.075409 0.000000
0.242920 0.080353 0.000000
0.288422 0.084106 0.000000
0.336121 0.087341 0.000000
0.385498 0.089539 0.000000
0.436829 0.090485 0.000000
0.489441 0.089417 0.000000
0.542572 0.086884 0.000000
0.595947 0.082428 0.000000
0.648987 0.076141 0.000000
0.701233 0.066132 0.000000
0.750885 0.057037 0.000000
0.798187 0.048615 0.000000
0.842804 0.040802 0.000000
0.885468 0.028534 0.000000
0.925140 0.018707 0.000000
0.964844 0.009552 0.000000
0.995758 0.002960 0.000000
1.000000 0.000000 0.000000
1.000000 0.000000 0.000000
1.000000 0.000000 0.000000
1.000000 0.000000 0.000000
1.000000 0.000000 0.000000
1.000000 0.000000 0.000000
1.000000 0.000000 0.000000
1.000000 0.000000 0.000000
1.000000 0.000000 0.000000
1.000000 0.000000 0.000000
1.000000 0.000000 0.000000
0.029938 0.060547 0.030212
0.037231 0.056396 0.034363
0.042511 0.060699 0.029877
0.058075 0.070435 0.018982
0.090515 0.081909 0.004272
0.129425 0.083740 0.000610
0.161743 0.089233 0.000000
0.194550 0.096069 0.000000
0.231201 0.102661 0.000000
0.271179 0.108826 0.000000
0.317078 0.114441 0.000000
0.365967 0.118988 0.000000
0.416565 0.122742 0.000000
0.468811 0.125336 0.000000
0.521973 0.126282 0.000000
0.575378 0.126221 0.000000
0.628845 0.124481 0.000000
0.681549 0.121185 0.000000
0.732361 0.116699 0.000000
0.781036 0.109955 0.000000
0.827087 0.102448 0.000000
0.870331 0.094360 0.000000
0.912323 0.082092 0.000000
0.953339 0.071625 0.000000
0.989105 0.061493 0.000000
1.000000 0.055267 0.000000
1.000000 0.052765 0.000000
1.000000 0.050446 0.000000
1.000000 0.048401 0.000000
1.000000 0.046631 0.000000
1.000000 0.045776 0.000000
1.000000 0.045197 0.000000
1.000000 0.045197 0.000000
1.000000 0.045135 0.000000
1.000000 0.045074 0.000000
1.000000 0.045349 0.000000
0.040924 0.080017 0.041199
0.048126 0.075195 0.045532
0.052826 0.074463 0.045349
0.061035 0.082825 0.036316
0.081573 0.093689 0.022675
0.116882 0.106354 0.005859
0.157745 0.109131 0.000732
0.191681 0.115051 0.000000
0.225739 0.121979 0.000000
0.260590 0.129303 0.000000
0.300873 0.136444 0.000000
0.344208 0.143188 0.000000
0.394440 0.149231 0.000000
0.446106 0.154297 0.000000
0.499329 0.158173 0.000000
0.553040 0.160736 0.000000
0.607025 0.162018 0.000000
0.660461 0.162140 0.000000
0.713013 0.160980 0.000000
0.763214 0.158020 0.000000
0.810547 0.154358 0.000000
0.855316 0.149841 0.000000
0.900787 0.145569 0.000000
0.943604 0.139893 0.000000
0.982666 0.139771 0.000000
1.000000 0.137421 0.000000
1.000000 0.133301 0.000000
1.000000 0.130219 0.000000
1.000000 0.127625 0.000000
1.000000 0.124847 0.000000
1.000000 0.123077 0.000000
1.000000 0.121552 0.000000
1.000000 0.120392 0.000000
1.000000 0.120056 0.000000
1.000000 0.119110 0.000000
1.000000 0.118713 0.000000
0.055298 0.102753 0.054932
0.061218 0.098053 0.058655
0.066193 0.093719 0.061218
0.071136 0.097900 0.056335
0.083496 0.108612 0.043762
0.108673 0.120758 0.026917
0.147217 0.134338 0.006165
0.189148 0.137756 0.000610
0.225952 0.143921 0.000000
0.261902 0.150909 0.000000
0.297943 0.158417 0.000000
0.335724 0.166138 0.000000
0.378662 0.173676 0.000000
0.427704 0.180786 0.000000
0.480682 0.187042 0.000000
0.534943 0.192047 0.000000
0.589233 0.195740 0.000000
0.643341 0.198212 0.000000
0.697083 0.199158 0.000000
0.748383 0.198792 0.000000
0.796875 0.197632 0.000000
0.845612 0.196411 0.000000
0.893616 0.194641 0.000000
0.941132 0.192902 0.000000
0.977844 0.190460 0.000000
1.000000 0.198090 0.000000
1.000000 0.196289 0.000000
1.000000 0.194366 0.000000
1.000000 0.192596 0.000000
1.000000 0.190430 0.000000
1.000000 0.188293 0.000000
1.000000 0.186584 0.000000
1.000000 0.184570 0.000000
1.000000 0.182953 0.000000
1.000000 0.180939 0.000000
1.000000 0.178528 0.000000
0.071655 0.128937 0.070953
0.077118 0.124237 0.074097
0.082367 0.118896 0.077148
0.086456 0.118042 0.076416
0.093689 0.126099 0.067474
0.110626 0.138062 0.052277
0.140015 0.151367 0.031647
0.181793 0.165680 0.005310
0.224182 0.169159 0.000549
0.264984 0.175171 0.000000
0.303223 0.182343 0.000000
0.340332 0.190002 0.000000
0.378448 0.197723 0.000000
0.419342 0.205475 0.000000
0.465027 0.213074 0.000000
0.518311 0.220337 0.000000
0.573242 0.226257 0.000000
0.627838 0.230682 0.000000
0.681885 0.233887 0.000000
0.734070 0.235565 0.000000
0.785431 0.236755 0.000000
0.837952 0.238007 0.000000
0.890533 0.239136 0.000000
0.940460 0.239471 0.000000
0.984100 0.239319 0.000000
1.000000 0.238617 0.000000
1.000000 0.237762 0.000000
1.000000 0.236084 0.000000
1.000000 0.234131 0.000000
1.000000 0.231964 0.000000
1.000000 0.229431 0.000000
1.000000 0.226654 0.000000
1.000000 0.223907 0.000000
1.000000 0.221039 0.000000
1.000000 0.217987 0.000000
1.000000 0.214569 0.000000
0.086121 0.151062 0.085236
0.091156 0.146576 0.087524
0.095795 0.141632 0.090210
0.100098 0.136139 0.092529
0.104675 0.139587 0.087860
0.114716 0.150696 0.075928
0.135284 0.163239 0.058960
0.167419 0.176971 0.035278
0.210449 0.191681 0.004578
0.252167 0.194977 0.000397
0.296326 0.200897 0.000000
0.335510 0.208191 0.000000
0.372955 0.215729 0.000000
0.410950 0.223236 0.000000
0.449402 0.230713 0.000000
0.490601 0.238159 0.000000
0.539795 0.245850 0.000000
0.594635 0.252991 0.000000
0.649567 0.258514 0.000000
0.703857 0.262878 0.000000
0.760712 0.267700 0.000000
0.816620 0.271667 0.000000
0.869385 0.274261 0.000000
0.918488 0.275665 0.000000
0.963959 0.276154 0.000000
1.000000 0.276306 0.000000
1.000000 0.275482 0.000000
1.000000 0.274384 0.000000
1.000000 0.272247 0.000000
1.000000 0.269745 0.000000
1.000000 0.266998 0.000000
1.000000 0.263977 0.000000
1.000000 0.260712 0.000000
1.000000 0.257385 0.000000
1.000000 0.253906 0.000000
1.000000 0.249817 0.000000
0.101532 0.173706 0.100159
0.105835 0.169647 0.102203
0.110168 0.164917 0.104492
0.114655 0.158478 0.107056
0.118286 0.157379 0.105621
0.124359 0.164337 0.097717
0.137787 0.176208 0.084259
0.161499 0.189301 0.065552
0.195801 0.203247 0.039368
0.240387 0.218323 0.003174
0.281067 0.220947 0.000366
0.328339 0.226807 0.000000
0.368500 0.234131 0.000000
0.406097 0.241669 0.000000
0.444031 0.249023 0.000000
0.482239 0.256226 0.000000
0.520935 0.263306 0.000000
0.561066 0.270233 0.000000
0.617188 0.279022 0.000000
0.678589 0.288513 0.000000
0.737244 0.295868 0.000000
0.792999 0.301361 0.000000
0.845825 0.305176 0.000000
0.895599 0.307831 0.000000
0.942413 0.309631 0.000000
0.982697 0.310547 0.000000
1.000000 0.310730 0.000000
1.000000 0.309753 0.000000
1.000000 0.308105 0.000000
1.000000 0.305725 0.000000
1.000000 0.302795 0.000000
1.000000 0.299622 0.000000
1.000000 0.296234 0.000000
1.000000 0.292480 0.000000
1.000000 0.288513 0.000000
1.000000 0.284119 0.000000
0.117645 0.196899 0.115540
0.121552 0.192719 0.117096
0.125061 0.188263 0.118896
0.129150 0.182159 0.121033
0.132935 0.175049 0.123199
0.136627 0.177765 0.118378
0.144592 0.188721 0.106995
0.161072 0.201080 0.092163
0.187408 0.214386 0.071991
0.223633 0.228668 0.043518
0.269012 0.243530 0.001953
0.309967 0.247009 0.000214
0.358887 0.251801 0.000000
0.399567 0.258606 0.000000
0.437103 0.266083 0.000000
0.475220 0.273560 0.000000
0.514832 0.281494 0.000000
0.557373 0.290802 0.000000
0.602112 0.300079 0.000000
0.649872 0.309418 0.000000
0.709045 0.318939 0.000000
0.765747 0.326385 0.000000
0.819214 0.331909 0.000000
0.869598 0.335815 0.000000
0.917023 0.338501 0.000000
0.961426 0.340027 0.000000
0.997589 0.340607 0.000000
1.000000 0.340149 0.000000
1.000000 0.338715 0.000000
1.000000 0.336731 0.000000
1.000000 0.334229 0.000000
1.000000 0.331360 0.000000
1.000000 0.328156 0.000000
1.000000 0.324554 0.000000
1.000000 0.320648 0.000000
1.000000 0.316223 0.000000
0.133301 0.218414 0.130280
0.136627 0.214661 0.131683
0.139771 0.210510 0.133026
0.143372 0.204773 0.134766
0.147095 0.197601 0.136963
0.150146 0.194000 0.136383
0.154877 0.201172 0.128296
0.165771 0.212952 0.115967
0.185089 0.225769 0.100098
0.213867 0.239441 0.078186
0.252106 0.254150 0.047150
0.298248 0.269226 0.000732
0.339966 0.273346 0.000031
0.391541 0.277893 0.000000
0.434479 0.285492 0.000000
0.474304 0.294312 0.000000
0.514893 0.302979 0.000000
0.556763 0.312042 0.000000
0.598816 0.320831 0.000000
0.640961 0.329193 0.000000
0.682709 0.337128 0.000000
0.733398 0.345612 0.000000
0.786926 0.352875 0.000000
0.838989 0.358673 0.000000
0.888092 0.363037 0.000000
0.934174 0.366089 0.000000
0.976471 0.367920 0.000000
0.999756 0.368500 0.000000
1.000000 0.368073 0.000000
1.000000 0.366730 0.000000
1.000000 0.364685 0.000000
1.000000 0.362183 0.000000
1.000000 0.359253 0.000000
1.000000 0.355865 0.000000
1.000000 0.352051 0.000000
1.000000 0.347656 0.000000
0.149994 0.240692 0.146027
0.152740 0.237122 0.146973
0.155640 0.233002 0.148193
0.158752 0.227844 0.149567
0.162170 0.220947 0.151245
0.165344 0.212463 0.153198
0.168304 0.214264 0.148956
0.175018 0.225403 0.138550
0.188538 0.237671 0.125488
0.210754 0.251007 0.108246
0.242554 0.265991 0.085480
0.283417 0.282257 0.052826
0.332245 0.298859 0.000336
0.388733 0.314148 0.000031
0.445862 0.320526 0.000000
0.491821 0.328125 0.000000
0.534698 0.337158 0.000000
0.576721 0.346008 0.000000
0.618561 0.354462 0.000000
0.659851 0.362152 0.000000
0.699646 0.369232 0.000000
0.738403 0.375671 0.000000
0.779510 0.382233 0.000000
0.828278 0.388916 0.000000
0.877686 0.394653 0.000000
0.924957 0.398987 0.000000
0.968109 0.401794 0.000000
0.997253 0.402985 0.000000
1.000000 0.402954 0.000000
1.000000 0.401764 0.000000
1.000000 0.399750 0.000000
1.000000 0.397095 0.000000
1.000000 0.393982 0.000000
1.000000 0.390350 0.000000
1.000000 0.386230 0.000000
1.000000 0.381592 0.000000
0.170319 0.266693 0.165039
0.172607 0.263000 0.165619
0.175049 0.259186 0.166443
0.177917 0.254303 0.167633
0.181152 0.247772 0.169037
0.184113 0.239777 0.170624
0.186737 0.233612 0.170654
0.190857 0.242096 0.163055
0.200348 0.254272 0.152283
0.217560 0.267853 0.138580
0.243713 0.283203 0.120911
0.278931 0.299835 0.097229
0.322876 0.317474 0.061981
0.375031 0.335754 0.001923
0.434326 0.352448 0.000397
0.489716 0.356171 0.000000
0.537537 0.363037 0.000000
0.581879 0.371368 0.000000
0.623444 0.379700 0.000000
0.664001 0.387177 0.000000
0.703156 0.393921 0.000000
0.741028 0.399933 0.000000
0.777893 0.405426 0.000000
0.813690 0.410767 0.000000
0.855865 0.416656 0.000000
0.900299 0.421844 0.000000
0.945740 0.426331 0.000000
0.983063 0.429016 0.000000
1.000000 0.430359 0.000000
1.000000 0.430298 0.000000
1.000000 0.429169 0.000000
1.000000 0.427032 0.000000
1.000000 0.424255 0.000000
1.000000 0.420837 0.000000
1.000000 0.416809 0.000000
1.000000 0.412262 0.000000
0.192963 0.294769 0.185852
0.194977 0.291199 0.186279
0.196869 0.287415 0.186829
0.199249 0.282471 0.187561
0.201813 0.276062 0.188385
0.204376 0.267883 0.189331
0.206360 0.258331 0.190399
0.208893 0.259277 0.186676
0.215393 0.271088 0.177734
0.228333 0.284576 0.166565
0.248993 0.299530 0.152161
0.278046 0.315765 0.133606
0.315643 0.333130 0.108612
0.361450 0.351349 0.071075
0.415283 0.370148 0.005371
0.464996 0.378845 0.000946
0.518372 0.381714 0.000000
0.566711 0.387238 0.000000
0.610870 0.394531 0.000000
0.650787 0.402039 0.000000
0.689606 0.408813 0.000000
0.726990 0.414825 0.000000
0.763550 0.420441 0.000000
0.799286 0.425690 0.000000
0.834137 0.430847 0.000000
0.868591 0.435608 0.000000
0.911804 0.441315 0.000000
0.952484 0.445557 0.000000
0.987366 0.449036 0.000000
1.000000 0.450836 0.000000
1.000000 0.451294 0.000000
1.000000 0.450623 0.000000
1.000000 0.448944 0.000000
1.000000 0.446533 0.000000
1.000000 0.443268 0.000000
1.000000 0.439392 0.000000
0.215118 0.321686 0.205902
0.216827 0.318390 0.206238
0.218353 0.314636 0.206543
0.220093 0.309326 0.206787
0.221985 0.302734 0.207031
0.223602 0.294403 0.207153
0.224854 0.284485 0.207245
0.225708 0.275299 0.206726
0.229370 0.284119 0.199249
0.238037 0.296600 0.189484
0.253479 0.310608 0.177460
0.276428 0.325928 0.162415
0.307281 0.342438 0.143158
0.346039 0.359894 0.117310
0.392395 0.377930 0.078522
0.446045 0.396240 0.010071
0.494934 0.404694 0.001648
0.545502 0.406128 0.000000
0.594116 0.410034 0.000000
0.637787 0.416321 0.000000
0.676453 0.423279 0.000000
0.713867 0.429504 0.000000
0.750336 0.435333 0.000000
0.786285 0.440948 0.000000
0.821472 0.446259 0.000000
0.855743 0.451294 0.000000
0.889038 0.456055 0.000000
0.924286 0.460785 0.000000
0.963104 0.465393 0.000000
0.992188 0.469116 0.000000
1.000000 0.471558 0.000000
1.000000 0.472565 0.000000
1.000000 0.472443 0.000000
1.000000 0.471191 0.000000
1.000000 0.468933 0.000000
1.000000 0.465912 0.000000
0.235901 0.346466 0.224518
0.237213 0.343262 0.224701
0.238434 0.339600 0.224792
0.239655 0.334290 0.224640
0.240997 0.327545 0.224396
0.242065 0.319427 0.224091
0.242767 0.309540 0.223602
0.243073 0.298492 0.222961
0.244232 0.296936 0.219330
0.250031 0.308533 0.210968
0.261383 0.321747 0.200623
0.279236 0.336273 0.188324
0.304077 0.352020 0.172760
0.336273 0.368652 0.152802
0.375885 0.385895 0.125946
0.422455 0.403503 0.085907
0.475311 0.421082 0.015656
0.523621 0.429260 0.002380
0.571533 0.429474 0.000000
0.620605 0.431915 0.000000
0.663818 0.437439 0.000000
0.701324 0.444000 0.000000
0.738129 0.450195 0.000000
0.774231 0.456177 0.000000
0.809753 0.461853 0.000000
0.844391 0.467010 0.000000
0.877930 0.472046 0.000000
0.910339 0.476532 0.000000
0.941559 0.480804 0.000000
0.976196 0.485199 0.000000
0.996735 0.489227 0.000000
1.000000 0.492371 0.000000
1.000000 0.494080 0.000000
1.000000 0.494568 0.000000
1.000000 0.493805 0.000000
1.000000 0.491882 0.000000
0.254822 0.369080 0.241455
0.256073 0.366150 0.241669
0.257202 0.362671 0.241699
0.258240 0.357910 0.241577
0.259399 0.351532 0.241302
0.260468 0.343719 0.240906
0.261169 0.334503 0.240387
0.261414 0.323761 0.239655
0.261261 0.312744 0.238434
0.264648 0.321686 0.231934
0.272919 0.334259 0.223083
0.286530 0.347931 0.212646
0.306183 0.362701 0.199463
0.332275 0.378204 0.182953
0.365051 0.394165 0.161987
0.404572 0.410522 0.133972
0.450409 0.426971 0.092590
0.501678 0.443359 0.021301
0.549133 0.451385 0.002838
0.594391 0.450562 0.000000
0.644409 0.451874 0.000000
0.687683 0.457153 0.000000
0.725159 0.464111 0.000000
0.762115 0.470734 0.000000
0.798279 0.476959 0.000000
0.833527 0.482819 0.000000
0.867950 0.488281 0.000000
0.901123 0.493317 0.000000
0.933167 0.497986 0.000000
0.964081 0.502289 0.000000
0.989441 0.506256 0.000000
1.000000 0.510162 0.000000
1.000000 0.513702 0.000000
1.000000 0.515869 0.000000
1.000000 0.516449 0.000000
1.000000 0.515625 0.000000
0.272766 0.389740 0.257111
0.273682 0.386932 0.257263
0.274292 0.383545 0.257019
0.275330 0.379120 0.256805
0.276306 0.373138 0.256470
0.277222 0.365814 0.255981
0.277832 0.357025 0.255371
0.277954 0.346527 0.254425
0.277466 0.335663 0.253113
0.277863 0.332031 0.249756
0.283661 0.343781 0.242218
0.293732 0.356781 0.233002
0.309052 0.370789 0.221954
0.330170 0.385590 0.208221
0.357544 0.401001 0.191162
0.391266 0.416809 0.169617
0.431000 0.432831 0.141083
0.476349 0.448822 0.099396
0.527039 0.464844 0.028137
0.574677 0.473389 0.003265
0.617828 0.472015 0.000000
0.668671 0.472504 0.000000
0.712677 0.477631 0.000000
0.750122 0.484833 0.000000
0.786896 0.491638 0.000000
0.822845 0.498047 0.000000
0.857758 0.504028 0.000000
0.891693 0.509644 0.000000
0.924500 0.514771 0.000000
0.956238 0.519531 0.000000
0.986298 0.523926 0.000000
1.000000 0.527954 0.000000
1.000000 0.531769 0.000000
1.000000 0.535217 0.000000
1.000000 0.537720 0.000000
1.000000 0.538544 0.000000
0.291809 0.411804 0.273926
0.292786 0.409271 0.273987
0.304810 0.418610 0.283691
0.306152 0.414948 0.283936
0.306732 0.409027 0.283295
0.307190 0.401611 0.282471
0.307343 0.392761 0.281372
0.306824 0.382172 0.279938
0.305573 0.370117 0.278168
0.303680 0.357971 0.275635
0.306854 0.365234 0.269623
0.314514 0.377869 0.261505
0.326477 0.391449 0.251770
0.343628 0.405640 0.239777
0.366364 0.420410 0.225189
0.394989 0.435608 0.207184
0.429504 0.451019 0.184387
0.469604 0.466492 0.154480
0.514862 0.481842 0.112122
0.565186 0.497101 0.042511
0.612152 0.505157 0.005157
0.652618 0.502167 0.000000
0.702484 0.501404 0.000000
0.746643 0.505524 0.000000
0.784149 0.511871 0.000000
0.820068 0.518280 0.000000
0.854980 0.524231 0.000000
0.888245 0.529480 0.000000
0.920532 0.534332 0.000000
0.951752 0.538788 0.000000
0.982056 0.542969 0.000000
0.998383 0.546936 0.000000
1.000000 0.550720 0.000000
1.000000 0.554382 0.000000
1.000000 0.557648 0.000000
1.000000 0.560150 0.000000
0.314880 0.437958 0.294037
0.316406 0.436310 0.294617
0.318756 0.435455 0.296082
0.323395 0.435669 0.299133
0.324371 0.430695 0.298889
0.324890 0.423950 0.298157
0.324951 0.415527 0.297058
0.324371 0.405426 0.295502
0.323059 0.393738 0.293549
0.320923 0.380554 0.291138
0.320465 0.376221 0.287048
0.325745 0.387421 0.280029
0.334930 0.400330 0.271454
0.348389 0.413971 0.261230
0.366913 0.428131 0.248627
0.390778 0.442780 0.233368
0.420227 0.457794 0.214661
0.455200 0.472961 0.191315
0.495575 0.488281 0.161163
0.540833 0.503662 0.118988
0.590973 0.519012 0.051270
0.637939 0.527618 0.006134
0.676697 0.524078 0.000000
0.726105 0.523407 0.000000
0.771271 0.527374 0.000000
0.809784 0.533173 0.000000
0.845123 0.539642 0.000000
0.879181 0.545410 0.000000
0.912018 0.550659 0.000000
0.943726 0.555481 0.000000
0.974304 0.559875 0.000000
0.995178 0.564056 0.000000
1.000000 0.568085 0.000000
1.000000 0.571930 0.000000
1.000000 0.575562 0.000000
1.000000 0.578766 0.000000
0.334137 0.459747 0.310638
0.335693 0.458405 0.311401
0.337250 0.457001 0.312164
0.338837 0.454285 0.312683
0.339996 0.449982 0.312744
0.340790 0.443970 0.312286
0.340942 0.436127 0.311188
0.340393 0.426636 0.309662
0.339111 0.415466 0.307587
0.337158 0.402954 0.305237
0.334808 0.391357 0.302124
0.337036 0.396118 0.296417
0.343903 0.408295 0.289032
0.354523 0.421387 0.280029
0.369446 0.435089 0.269348
0.389282 0.449310 0.256348
0.414215 0.463959 0.240631
0.444427 0.478912 0.221558
0.479980 0.494110 0.197784
0.520630 0.509399 0.167206
0.565887 0.524658 0.124878
0.615509 0.539917 0.058319
0.662415 0.549042 0.007050
0.700226 0.545563 0.000000
0.748901 0.545135 0.000000
0.794312 0.548309 0.000000
0.833618 0.553436 0.000000
0.868408 0.559906 0.000000
0.901947 0.565704 0.000000
0.934357 0.570984 0.000000
0.965607 0.575897 0.000000
0.991089 0.580505 0.000000
1.000000 0.584900 0.000000
1.000000 0.589111 0.000000
1.000000 0.593079 0.000000
1.000000 0.596680 0.000000
0.351990 0.480011 0.326080
0.353485 0.478821 0.326843
0.355042 0.477509 0.327576
0.356537 0.475098 0.328094
0.357758 0.471191 0.328186
0.358368 0.465576 0.327698
0.358490 0.458130 0.326660
0.358063 0.449188 0.325104
0.356750 0.438507 0.323029
0.354889 0.426605 0.320648
0.352081 0.413116 0.317719
0.351074 0.408051 0.313263
0.355774 0.418121 0.306793
0.363831 0.430634 0.298981
0.375946 0.443878 0.289612
0.392334 0.457733 0.278473
0.413483 0.472107 0.265045
0.439606 0.486908 0.248932
0.470947 0.502136 0.229462
0.507446 0.517609 0.205383
0.548645 0.533264 0.174835
0.594452 0.548981 0.132721
0.644379 0.564667 0.067963
0.691650 0.574615 0.008575
0.729431 0.571747 0.000000
0.776947 0.571167 0.000000
0.822723 0.573517 0.000000
0.863159 0.578064 0.000000
0.897736 0.584717 0.000000
0.930969 0.590698 0.000000
0.963135 0.596130 0.000000
0.987366 0.601288 0.000000
1.000000 0.606079 0.000000
1.000000 0.610596 0.000000
1.000000 0.614838 0.000000
1.000000 0.618622 0.000000
0.374664 0.505219 0.345642
0.375854 0.503937 0.346130
0.377014 0.502350 0.346527
0.378021 0.499664 0.346680
0.378784 0.495667 0.346497
0.379272 0.490234 0.345795
0.379059 0.483093 0.344574
0.378479 0.474426 0.343018
0.377319 0.464294 0.340912
0.375549 0.452881 0.338501
0.372803 0.439880 0.335510
0.369904 0.428284 0.331818
0.371613 0.431122 0.326477
0.377960 0.443207 0.319489
0.387360 0.456055 0.311279
0.400909 0.469482 0.301453
0.418640 0.483521 0.289734
0.441132 0.498138 0.275818
0.468658 0.513214 0.259338
0.501068 0.528625 0.239502
0.538086 0.544189 0.215332
0.579681 0.559967 0.184540
0.625549 0.575745 0.142731
0.675232 0.591461 0.079437
0.722931 0.602173 0.009979
0.760498 0.599548 0.000000
0.806519 0.598480 0.000000
0.852570 0.599487 0.000000
0.893555 0.603455 0.000000
0.927856 0.610382 0.000000
0.960938 0.616608 0.000000
0.989105 0.622345 0.000000
1.000000 0.627716 0.000000
1.000000 0.632629 0.000000
1.000000 0.637085 0.000000
1.000000 0.641022 0.000000
0.401001 0.533844 0.368256
0.401733 0.532379 0.368378
0.402313 0.530334 0.368347
0.402710 0.527313 0.367981
0.402863 0.523041 0.367279
0.402740 0.517395 0.366211
0.402405 0.510406 0.364746
0.401459 0.502045 0.362976
0.400238 0.492249 0.360809
0.398651 0.481384 0.358429
0.396118 0.468994 0.355560
0.392731 0.455139 0.352234
0.391632 0.450012 0.347748
0.395844 0.458862 0.341644
0.403564 0.471344 0.334320
0.414459 0.484528 0.325745
0.429352 0.498260 0.315338
