core-styles/future.cube
#Created by: Adobe Photoshop Export Color Lookup Plugin
#Copyright: (C) Copyright 2026 小米
TITLE "夜景-青蓝色调"
#LUT size
LUT_3D_SIZE 6
#data domain
DOMAIN_MIN 0.0 0.0 0.0
DOMAIN_MAX 1.0 1.0 1.0
#LUT data points
0.000000 0.000000 0.000000
0.235474 0.000000 0.000000
0.588074 0.000000 0.000000
0.919678 0.000000 0.000000
1.000000 0.000000 0.000000
1.000000 0.000000 0.000000
0.071655 0.128937 0.070953
0.181793 0.165680 0.005310
0.465027 0.213074 0.000000
0.837952 0.238007 0.000000
1.000000 0.234131 0.000000
1.000000 0.214569 0.000000
0.192963 0.294769 0.185852
0.208893 0.259277 0.186676
0.415283 0.370148 0.005371
0.726990 0.414825 0.000000
0.987366 0.449036 0.000000
1.000000 0.439392 0.000000
0.334137 0.459747 0.310638
0.340393 0.426636 0.309662
0.369446 0.435089 0.269348
0.615509 0.539917 0.058319
0.901947 0.565704 0.000000
1.000000 0.596680 0.000000
0.503326 0.638336 0.457489
0.503418 0.614868 0.452423
0.490784 0.549286 0.432678
0.575134 0.631744 0.364929
0.827454 0.730194 0.146271
1.000000 0.735962 0.000000
0.778503 0.895447 0.726044
0.783966 0.887543 0.727753
0.811829 0.877441 0.749542
0.838196 0.896515 0.746521
0.909943 0.962219 0.688934
1.000000 0.990509 0.464294
0.000000 0.008820 0.215668
0.253601 0.000000 0.249542
0.592773 0.000000 0.272797
0.932190 0.000000 0.294891
1.000000 0.124878 0.336792
1.000000 0.222809 0.348694
0.000000 0.221832 0.195496
0.190521 0.186188 0.186432
0.521698 0.213287 0.217651
0.877380 0.237305 0.254333
1.000000 0.280365 0.300385
1.000000 0.307892 0.322876
0.217407 0.374847 0.246094
0.261505 0.324738 0.250244
0.414520 0.373413 0.168427
0.707764 0.404327 0.105438
0.987610 0.442719 0.156860
1.000000 0.450134 0.216339
0.358063 0.503326 0.345703
0.365295 0.465576 0.339966
0.372101 0.425354 0.307709
0.600128 0.528900 0.169312
0.889221 0.557281 0.000000
1.000000 0.590485 0.000000
0.508911 0.654938 0.470337
0.506165 0.627991 0.461090
0.495758 0.556122 0.442017
0.565552 0.620667 0.385620
0.815125 0.719818 0.204468
1.000000 0.727936 0.000000
0.762177 0.891266 0.713104
0.776947 0.890747 0.724304
0.801392 0.875732 0.740265
0.829071 0.882751 0.743927
0.900055 0.952606 0.685547
1.000000 0.990509 0.476349
0.000000 0.052063 0.496002
0.120117 0.000000 0.535431
0.629913 0.000000 0.600006
0.936737 0.000000 0.597412
1.000000 0.297424 0.613037
1.000000 0.523926 0.667999
0.000000 0.260254 0.442108
0.000000 0.191345 0.483032
0.588226 0.194336 0.558624
0.907715 0.282654 0.582520
1.000000 0.460449 0.631256
1.000000 0.610992 0.697754
0.000000 0.517487 0.462219
0.017700 0.495056 0.452606
0.441071 0.413055 0.414551
0.790009 0.503143 0.508850
1.000000 0.580780 0.586639
1.000000 0.619049 0.621887
0.370697 0.670044 0.465302
0.438690 0.635101 0.472198
0.482605 0.519989 0.446716
0.628906 0.561584 0.365570
0.905243 0.587921 0.342926
1.000000 0.633270 0.401733
0.576202 0.756226 0.565430
0.580994 0.733429 0.556885
0.576721 0.658783 0.527069
0.578278 0.620880 0.469360
0.825562 0.734863 0.349365
1.000000 0.743835 0.157471
0.766693 0.927246 0.737335
0.772369 0.918243 0.736511
0.803589 0.905457 0.753906
0.846069 0.884033 0.784515
0.901733 0.956512 0.730560
1.000000 0.990692 0.527954
0.000000 0.106384 0.739532
0.000000 0.023956 0.761383
0.492371 0.000000 0.814880
0.910492 0.008942 0.871124
1.000000 0.280090 0.838837
1.000000 0.514801 0.808350
0.000000 0.297211 0.708221
0.000000 0.230652 0.733734
0.473602 0.246796 0.797943
0.896759 0.319305 0.855438
1.000000 0.440002 0.832306
1.000000 0.601868 0.820038
0.000000 0.473297 0.619354
0.000000 0.466248 0.633331
0.369171 0.448273 0.713593
0.844055 0.547699 0.797699
1.000000 0.644958 0.816498
1.000000 0.750641 0.846191
0.000000 0.760529 0.692871
0.135376 0.748138 0.687805
0.452637 0.709961 0.670990
0.659332 0.607391 0.610199
0.966492 0.743744 0.746490
1.000000 0.809113 0.808899
0.586517 0.909943 0.703979
0.614105 0.897522 0.703583
0.671783 0.850189 0.693329
0.677185 0.700439 0.623535
0.826569 0.747589 0.532684
1.000000 0.771729 0.514740
0.748077 0.976349 0.774780
0.764587 0.971313 0.779968
0.795746 0.955322 0.784546
0.843353 0.925751 0.799438
0.894989 0.946625 0.793030
1.000000 0.991058 0.614594
0.000000 0.162903 0.927490
0.000000 0.121704 0.939026
0.253326 0.125427 0.963470
0.746490 0.219666 0.994781
1.000000 0.378082 0.999603
1.000000 0.496613 0.972351
0.000000 0.328400 0.918640
0.000000 0.279175 0.928772
0.263458 0.288635 0.953094
0.753082 0.377625 0.987000
1.000000 0.502228 0.998413
1.000000 0.583527 0.969177
0.000000 0.532654 0.868286
0.000000 0.523804 0.882172
0.262573 0.484802 0.920624
0.757202 0.577698 0.964478
1.000000 0.679047 0.990112
1.000000 0.734406 0.962524
0.000000 0.700317 0.829742
0.000000 0.687164 0.824799
0.000000 0.646057 0.813049
0.664856 0.682190 0.903961
0.990997 0.820435 0.968414
1.000000 0.880280 0.960754
0.332306 0.955383 0.885620
0.412628 0.952423 0.887207
0.567108 0.941620 0.889099
0.733276 0.915070 0.883820
0.860352 0.811523 0.814148
1.000000 0.945801 0.945343
0.758636 1.000000 0.865234
0.776215 1.000000 0.870148
0.814545 1.000000 0.879395
0.864777 0.998962 0.889069
0.919739 0.969299 0.893005
1.000000 0.992523 0.782501
0.000000 0.231293 1.000000
0.000000 0.205963 1.000000
0.000000 0.228455 1.000000
0.572601 0.304291 1.000000
0.883118 0.457794 1.000000
1.000000 0.588226 1.000000
0.000000 0.366943 1.000000
0.000000 0.338135 1.000000
0.037964 0.349335 1.000000
0.606079 0.421570 1.000000
0.893738 0.551971 1.000000
1.000000 0.658905 1.000000
0.000000 0.574432 1.000000
0.000000 0.563354 1.000000
0.245361 0.536377 1.000000
0.665100 0.596985 1.000000
0.911041 0.701050 1.000000
1.000000 0.782104 1.000000
0.000000 0.730072 1.000000
0.000000 0.728760 1.000000
0.391083 0.732422 1.000000
0.672211 0.726685 1.000000
0.925293 0.827911 1.000000
1.000000 0.903259 1.000000
0.000000 0.921600 1.000000
0.000000 0.917480 1.000000
0.095612 0.902740 1.000000
0.459747 0.867859 1.000000
0.904449 0.903351 1.000000
1.000000 0.984650 1.000000
0.624420 1.000000 0.972809
0.654327 1.000000 0.974335
0.739990 1.000000 0.979187
0.855103 1.000000 0.987183
0.952423 1.000000 0.995422
1.000000 1.000000 1.000000
