core-styles/japan.cube
# Created by Adobe Lightroom plugin Export LUT (1.17.0)
# www.johnrellis.com/lightroom/exportlut.htm
# Preset: MBOOK 08韩式蓝调
# Color profile: C:\Windows\System32\Spool\Drivers\Color\sRGB Color Space Profile.icm
LUT_3D_SIZE 32
DOMAIN_MIN 0.0 0.0 0.0
DOMAIN_MAX 1.0 1.0 1.0
0.000000 0.000000 0.000000
0.035370 0.001007 0.000000
0.067353 0.001251 0.000000
0.104128 0.002136 0.000000
0.143343 0.004456 0.000000
0.182467 0.007019 0.000000
0.221134 0.009796 0.000000
0.259251 0.014038 0.000000
0.297124 0.017609 0.000000
0.334325 0.023133 0.000000
0.372015 0.027283 0.000000
0.410071 0.031220 0.000000
0.448707 0.032624 0.000000
0.487526 0.035767 0.000000
0.526879 0.036591 0.000000
0.566308 0.036408 0.000000
0.606073 0.035126 0.000000
0.645594 0.032990 0.000000
0.684901 0.028290 0.000000
0.722103 0.024933 0.000000
0.757595 0.017517 0.000000
0.791287 0.010254 0.000000
0.824308 0.001556 0.000000
0.857115 0.000000 0.000000
0.889738 0.000000 0.000000
0.921996 0.000000 0.000000
0.953979 0.000000 0.000000
0.985504 0.000000 0.000000
1.000000 0.000000 0.000000
1.000000 0.000000 0.000000
1.000000 0.000000 0.000000
1.000000 0.000000 0.000000
0.000000 0.043915 0.004150
0.016846 0.045533 0.002991
0.052766 0.051484 0.000000
0.097871 0.055879 0.000000
0.138613 0.059205 0.000000
0.178378 0.062257 0.000000
0.217624 0.065278 0.000000
0.256077 0.068025 0.000000
0.294408 0.070497 0.000000
0.332250 0.072511 0.000000
0.370092 0.074891 0.000000
0.408515 0.076417 0.000000
0.447425 0.077455 0.000000
0.486519 0.078096 0.000000
0.525750 0.078767 0.000000
0.565270 0.078950 0.000000
0.605066 0.078218 0.000000
0.644984 0.075441 0.000000
0.684138 0.073060 0.000000
0.721523 0.068513 0.000000
0.756954 0.064302 0.000000
0.790707 0.057160 0.000000
0.823758 0.048890 0.000000
0.856626 0.038849 0.000000
0.889311 0.025025 0.000000
0.921691 0.010437 0.000000
0.953643 0.000000 0.000000
0.985229 0.000000 0.000000
1.000000 0.000000 0.000000
1.000000 0.000000 0.000000
1.000000 0.000000 0.000000
1.000000 0.000000 0.000000
0.000000 0.079347 0.009277
0.006561 0.079011 0.013062
0.035218 0.083162 0.006867
0.080018 0.090883 0.000000
0.128267 0.097902 0.000000
0.173129 0.101778 0.000000
0.213169 0.104067 0.000000
0.252476 0.106111 0.000000
0.291112 0.107454 0.000000
0.329412 0.108888 0.000000
0.367987 0.109194 0.000000
0.406622 0.110323 0.000000
0.445686 0.111116 0.000000
0.485084 0.111299 0.000000
0.524590 0.111696 0.000000
0.564263 0.111391 0.000000
0.604150 0.110262 0.000000
0.644099 0.107576 0.000000
0.683345 0.105928 0.000000
0.720668 0.102327 0.000000
0.756313 0.097414 0.000000
0.790036 0.093050 0.000000
0.823239 0.086397 0.000000
0.856168 0.078309 0.000000
0.888823 0.069581 0.000000
0.921233 0.058686 0.000000
0.953277 0.043793 0.000000
0.984955 0.027771 0.000000
1.000000 0.006683 0.000000
1.000000 0.000000 0.000000
1.000000 0.000000 0.000000
1.000000 0.000000 0.000000
0.000000 0.115114 0.016480
0.000000 0.110780 0.024018
0.021454 0.115053 0.019104
0.062135 0.120516 0.011505
0.108339 0.129763 0.001740
0.157229 0.137758 0.000000
0.204837 0.142519 0.000000
0.247410 0.144198 0.000000
0.286931 0.145052 0.000000
0.325841 0.145754 0.000000
0.364904 0.146304 0.000000
0.403998 0.146456 0.000000
0.443580 0.146792 0.000000
0.482887 0.147066 0.000000
0.522789 0.146975 0.000000
0.562768 0.146029 0.000000
0.602716 0.145205 0.000000
0.642908 0.142916 0.000000
0.682246 0.141054 0.000000
0.719722 0.137118 0.000000
0.755367 0.132998 0.000000
0.789090 0.128878 0.000000
0.822446 0.123171 0.000000
0.855497 0.116823 0.000000
0.888273 0.109865 0.000000
0.920714 0.101839 0.000000
0.952789 0.092409 0.000000
0.984558 0.081636 0.000000
1.000000 0.068879 0.000000
1.000000 0.052705 0.000000
1.000000 0.030671 0.000000
1.000000 0.007874 0.000000
0.000000 0.148989 0.022522
0.000000 0.144015 0.031128
0.006226 0.145418 0.030091
0.045411 0.150423 0.023743
0.090028 0.157595 0.015015
0.136477 0.167056 0.006439
0.186160 0.175998 0.000000
0.233860 0.181125 0.000000
0.280247 0.183627 0.000000
0.320867 0.184054 0.000000
0.360601 0.184207 0.000000
0.400275 0.184451 0.000000
0.440284 0.184237 0.000000
0.480262 0.184085 0.000000
0.520348 0.183536 0.000000
0.560693 0.182589 0.000000
0.601007 0.181338 0.000000
0.641444 0.179416 0.000000
0.680873 0.176669 0.000000
0.718349 0.173251 0.000000
0.754025 0.169528 0.000000
0.787900 0.165042 0.000000
0.821347 0.160037 0.000000
0.854551 0.154208 0.000000
0.887449 0.148806 0.000000
0.919921 0.142275 0.000000
0.952148 0.134920 0.000000
0.983917 0.126467 0.000000
1.000000 0.117525 0.000000
1.000000 0.106874 0.000000
1.000000 0.095125 0.000000
1.000000 0.080568 0.000000
0.000000 0.182040 0.027680
0.000000 0.177646 0.035706
0.000000 0.174319 0.042054
0.025055 0.179294 0.036866
0.072724 0.185794 0.030152
0.118227 0.193606 0.019928
0.166049 0.203464 0.010163
0.215671 0.212436 0.000000
0.263432 0.217746 0.000000
0.310216 0.220829 0.000000
0.355169 0.222385 0.000000
0.395758 0.222141 0.000000
0.436378 0.222049 0.000000
0.477211 0.221317 0.000000
0.517754 0.220432 0.000000
0.558404 0.219333 0.000000
0.599084 0.217441 0.000000
0.639582 0.215885 0.000000
0.679072 0.213352 0.000000
0.716701 0.210269 0.000000
0.752407 0.205997 0.000000
0.786496 0.201724 0.000000
0.820066 0.196933 0.000000
0.853330 0.191958 0.000000
0.886351 0.186893 0.000000
0.919036 0.180789 0.000000
0.951324 0.174044 0.000000
0.983185 0.167330 0.000000
1.000000 0.159915 0.000000
1.000000 0.151278 0.000000
1.000000 0.142489 0.000000
1.000000 0.132021 0.000000
0.000000 0.213993 0.037812
0.000000 0.210330 0.044526
0.000000 0.205844 0.052216
0.005493 0.207279 0.052857
0.054994 0.212985 0.047639
0.101625 0.220218 0.040986
0.147372 0.228763 0.029358
0.195682 0.238895 0.017823
0.245701 0.247929 0.002228
0.294072 0.253483 0.000000
0.341222 0.256870 0.000000
0.388006 0.258793 0.000000
0.432227 0.259129 0.000000
0.473457 0.258335 0.000000
0.514733 0.257359 0.000000
0.555840 0.255955 0.000000
0.596857 0.254429 0.000000
0.637690 0.252567 0.000000
0.677089 0.250034 0.000000
0.714809 0.246555 0.000000
0.750454 0.242802 0.000000
0.784665 0.238376 0.000000
0.818509 0.233646 0.000000
0.851957 0.228916 0.000000
0.885130 0.223606 0.000000
0.917906 0.218235 0.000000
0.950317 0.212406 0.000000
0.982330 0.205905 0.000000
1.000000 0.199527 0.000000
1.000000 0.192294 0.000000
1.000000 0.184604 0.000000
1.000000 0.176272 0.000000
0.000000 0.244663 0.049714
0.000000 0.241642 0.055451
0.000000 0.238010 0.062135
0.000000 0.234012 0.068330
0.034302 0.239475 0.065156
0.086030 0.245914 0.059998
0.131533 0.253788 0.052155
0.177584 0.262821 0.042206
0.226230 0.273106 0.028290
0.277104 0.282536 0.013947
0.325566 0.288334 0.000000
0.373785 0.291875 0.000000
0.421363 0.293858 0.000000
0.467872 0.294774 0.000000
0.511223 0.294133 0.000000
0.552758 0.292943 0.000000
0.594141 0.291386 0.000000
0.635340 0.289158 0.000000
0.674922 0.286534 0.000000
0.712551 0.283177 0.000000
0.748287 0.279240 0.000000
0.782650 0.274754 0.000000
0.816709 0.270146 0.000000
0.850401 0.265171 0.000000
0.883726 0.260349 0.000000
0.916655 0.254856 0.000000
0.949126 0.249454 0.000000
0.981262 0.243778 0.000000
1.000000 0.237613 0.000000
1.000000 0.230991 0.000000
1.000000 0.224125 0.000000
1.000000 0.216709 0.000000
0.000000 0.274235 0.061830
0.000000 0.271397 0.066926
0.000000 0.268345 0.072450
0.000000 0.263828 0.079194
0.015198 0.264622 0.081056
0.070008 0.270756 0.077424
0.117098 0.278080 0.072145
0.161990 0.286320 0.065583
0.208530 0.295964 0.056306
0.257481 0.306340 0.042542
0.309300 0.316838 0.028382
0.358618 0.322576 0.001495
0.407233 0.326268 0.000000
0.455116 0.328496 0.000000
0.502495 0.329442 0.000000
0.549248 0.329442 0.000000
0.591302 0.327825 0.000000
0.632593 0.325933 0.000000
0.672297 0.323125 0.000000
0.710018 0.319554 0.000000
0.745754 0.315465 0.000000
0.780331 0.310979 0.000000
0.814664 0.306279 0.000000
0.848569 0.301579 0.000000
0.882139 0.296452 0.000000
0.915251 0.291325 0.000000
0.947936 0.285985 0.000000
0.980102 0.280430 0.000000
1.000000 0.274693 0.000000
1.000000 0.268345 0.000000
1.000000 0.262119 0.000000
1.000000 0.255375 0.000000
0.000000 0.302464 0.074220
0.000000 0.299901 0.078370
0.000000 0.297276 0.082979
0.000000 0.293278 0.088624
0.000000 0.288579 0.095583
0.054017 0.294255 0.092958
0.103670 0.301030 0.089662
0.148318 0.308995 0.085237
0.193149 0.317937 0.078584
0.239902 0.328008 0.069917
0.289647 0.338872 0.057221
0.342840 0.350378 0.047547
0.392401 0.356146 0.016876
0.441382 0.359991 0.000000
0.489540 0.362341 0.000000
0.537407 0.363378 0.000000
0.584405 0.363561 0.000000
0.629664 0.362371 0.000000
0.669368 0.359319 0.000000
0.707088 0.355688 0.000000
0.742916 0.351354 0.000000
0.777920 0.346868 0.000000
0.812467 0.342046 0.000000
0.846555 0.337377 0.000000
0.880308 0.332433 0.000000
0.913634 0.327337 0.000000
0.946410 0.322118 0.000000
0.978851 0.316686 0.000000
1.000000 0.311192 0.000000
1.000000 0.305241 0.000000
1.000000 0.299077 0.000000
1.000000 0.292668 0.000000
0.000000 0.329412 0.085573
0.000000 0.327153 0.089326
0.000000 0.324712 0.092744
0.000000 0.320928 0.097963
0.000000 0.316045 0.104585
0.036957 0.316442 0.106935
0.090974 0.322942 0.104829
0.136294 0.330388 0.101045
0.179934 0.338994 0.096834
0.224643 0.348638 0.091463
0.271946 0.359258 0.082918
0.322667 0.370642 0.072145
0.377295 0.383337 0.066590
0.427039 0.389075 0.034852
0.476173 0.393042 0.000000
0.524620 0.395483 0.000000
0.572625 0.396765 0.000000
0.619532 0.396735 0.000000
0.663935 0.394965 0.000000
0.703944 0.391424 0.000000
0.739864 0.386969 0.000000
0.775265 0.382300 0.000000
0.810025 0.377813 0.000000
0.844419 0.373022 0.000000
0.878386 0.368017 0.000000
0.911803 0.363012 0.000000
0.944823 0.357794 0.000000
0.977356 0.352483 0.000000
1.000000 0.346960 0.000000
1.000000 0.341253 0.000000
1.000000 0.335363 0.000000
1.000000 0.328954 0.000000
0.000000 0.355230 0.096040
0.000000 0.353124 0.099184
0.000000 0.350774 0.102358
0.000000 0.347539 0.107088
0.000000 0.343145 0.113283
0.021302 0.337560 0.120058
0.078492 0.343755 0.118196
0.124544 0.350805 0.116030
0.167880 0.359106 0.112673
0.211337 0.368383 0.108431
0.256474 0.378515 0.102907
0.304631 0.389624 0.095247
0.355749 0.401526 0.085420
0.411780 0.414954 0.080354
0.462074 0.421515 0.054658
0.511406 0.425666 0.014862
0.559991 0.428229 0.000000
0.607660 0.429358 0.000000
0.652735 0.428504 0.000000
0.695369 0.425940 0.000000
0.735683 0.422309 0.000000
0.772244 0.417762 0.000000
0.807462 0.412970 0.000000
0.842039 0.408270 0.000000
0.876249 0.403388 0.000000
0.909941 0.398413 0.000000
0.943114 0.393164 0.000000
0.975799 0.387793 0.000000
1.000000 0.382300 0.000000
1.000000 0.376776 0.000000
1.000000 0.370886 0.000000
1.000000 0.364874 0.000000
0.000000 0.380102 0.105928
0.000000 0.378241 0.108431
0.000000 0.375982 0.111452
0.000000 0.373053 0.115572
0.000000 0.368872 0.120790
0.002808 0.363531 0.127138
0.067048 0.363409 0.130068
0.114107 0.370214 0.128237
0.157321 0.378119 0.125948
0.199527 0.387030 0.122927
0.243015 0.396918 0.119265
0.288731 0.407691 0.114107
0.337438 0.419287 0.106905
0.389532 0.431800 0.097719
0.445869 0.445563 0.092317
0.497902 0.453407 0.071748
0.547051 0.457649 0.033783
0.595270 0.460060 0.000000
0.640925 0.460395 0.000000
0.683986 0.458808 0.000000
0.725216 0.455848 0.000000
0.765438 0.452338 0.000000
0.804715 0.447944 0.000000
0.839597 0.443214 0.000000
0.874022 0.438331 0.000000
0.907897 0.433356 0.000000
0.941222 0.428260 0.000000
0.974060 0.422980 0.000000
1.000000 0.417517 0.000000
1.000000 0.411994 0.000000
1.000000 0.406165 0.000000
1.000000 0.400183 0.000000
0.000000 0.403998 0.114839
0.000000 0.402350 0.117464
0.000000 0.400244 0.119875
0.000000 0.397436 0.123598
0.000000 0.393469 0.128023
0.000000 0.388617 0.133700
0.055879 0.382727 0.140108
0.104677 0.388769 0.139437
0.147860 0.396277 0.137850
0.189364 0.404883 0.135775
0.231479 0.414466 0.132998
0.275242 0.424933 0.129854
0.321447 0.436255 0.124941
0.370764 0.448463 0.118257
0.423407 0.461372 0.109804
0.480232 0.475502 0.103761
0.533806 0.484993 0.089235
0.582330 0.488930 0.056123
0.628595 0.490394 0.009949
0.672236 0.489845 0.000000
0.714290 0.488075 0.000000
0.755367 0.485389 0.000000
0.795377 0.482002 0.000000
0.834501 0.477760 0.000000
0.871580 0.473060 0.000000
0.905730 0.468055 0.000000
0.939300 0.462928 0.000000
0.972290 0.457679 0.000000
1.000000 0.452308 0.000000
1.000000 0.446815 0.000000
1.000000 0.441047 0.000000
1.000000 0.435035 0.000000
0.000000 0.427192 0.123629
0.000000 0.425757 0.125917
0.000000 0.423804 0.127779
0.000000 0.421149 0.130983
0.000000 0.417487 0.135348
0.000000 0.412879 0.140261
0.041291 0.407263 0.146151
0.096803 0.406592 0.149477
0.139986 0.413825 0.148775
0.180423 0.422095 0.147036
0.221042 0.431281 0.145357
0.263462 0.441382 0.142855
0.307591 0.452522 0.139254
0.354345 0.464393 0.134981
0.404273 0.477028 0.128511
0.457435 0.490394 0.120699
0.514855 0.504875 0.114137
0.569574 0.515587 0.103944
0.615869 0.518486 0.075135
0.660121 0.519310 0.035523
0.703120 0.518700 0.000000
0.744930 0.517113 0.000000
0.785702 0.514580 0.000000
0.825498 0.511254 0.000000
0.864347 0.507103 0.000000
0.902037 0.502464 0.000000
0.937194 0.497414 0.000000
0.970306 0.492226 0.000000
1.000000 0.486763 0.000000
1.000000 0.481239 0.000000
1.000000 0.475471 0.000000
1.000000 0.469551 0.000000
0.000000 0.450050 0.131502
0.000000 0.448646 0.133486
0.000000 0.446784 0.135592
0.000000 0.444343 0.138277
0.000000 0.440803 0.142153
0.000000 0.436408 0.146731
0.026886 0.431281 0.152285
0.089784 0.424994 0.158053
0.132784 0.430793 0.158480
0.172915 0.438666 0.157351
0.212589 0.447639 0.156161
0.253269 0.457496 0.154635
0.295689 0.468208 0.152193
0.340398 0.479774 0.148745
0.387732 0.492103 0.144533
0.438178 0.505211 0.138827
0.491829 0.519036 0.130617
0.548882 0.533471 0.123781
0.603388 0.544579 0.120211
0.648127 0.546929 0.095003
0.691737 0.547814 0.060334
0.734218 0.547387 0.009674
0.775601 0.546014 0.000000
0.816068 0.543542 0.000000
0.855558 0.540337 0.000000
0.893980 0.536339 0.000000
0.931365 0.531792 0.000000
0.967834 0.526452 0.000000
1.000000 0.520958 0.000000
1.000000 0.515526 0.000000
1.000000 0.509667 0.000000
1.000000 0.503838 0.000000
0.000000 0.472480 0.139193
0.000000 0.470954 0.140993
0.000000 0.469306 0.142824
0.000000 0.466896 0.145418
0.000000 0.463844 0.148989
0.000000 0.459693 0.153017
0.015076 0.454719 0.158022
0.083253 0.448798 0.163485
0.126986 0.447486 0.167086
0.166354 0.455116 0.166690
0.205234 0.463630 0.166079
0.244785 0.473121 0.164828
0.285466 0.483528 0.163363
0.328405 0.494697 0.160952
0.373297 0.506737 0.158083
0.421149 0.519524 0.153567
0.471992 0.533104 0.147585
0.525536 0.546868 0.140475
0.581353 0.560693 0.134463
0.636378 0.572839 0.135317
0.680385 0.575158 0.111086
0.723445 0.576135 0.080903
0.765560 0.575860 0.033448
0.806424 0.574670 0.000000
0.846464 0.572320 0.000000
0.885496 0.569360 0.000000
0.923522 0.565423 0.000000
0.960479 0.560815 0.000000
0.996460 0.555444 0.000000
1.000000 0.549493 0.000000
1.000000 0.543816 0.000000
1.000000 0.537896 0.000000
0.000000 0.494759 0.146639
0.000000 0.493355 0.148196
0.000000 0.491859 0.149752
0.000000 0.489631 0.152316
0.000000 0.486488 0.155276
0.000000 0.482734 0.159243
0.004120 0.477943 0.163821
0.076875 0.472480 0.168887
0.123049 0.466011 0.174655
0.161440 0.471382 0.175265
0.199435 0.479744 0.174899
0.237736 0.488838 0.174166
0.277287 0.499001 0.173159
0.318303 0.509880 0.171633
0.361700 0.521721 0.169284
0.407263 0.534295 0.166110
0.455573 0.547417 0.162051
0.506065 0.560693 0.157046
0.558831 0.574090 0.150546
0.613519 0.587427 0.143526
0.668330 0.600031 0.146975
0.712795 0.603326 0.126711
0.755245 0.604425 0.097566
0.796719 0.604334 0.058228
0.837278 0.603204 0.000000
0.876768 0.601068 0.000000
0.915312 0.598108 0.000000
0.952819 0.594263 0.000000
0.989258 0.589624 0.000000
1.000000 0.584161 0.000000
1.000000 0.578058 0.000000
1.000000 0.571679 0.000000
0.000000 0.517632 0.152956
0.000000 0.516381 0.154726
0.000000 0.515007 0.156069
0.000000 0.512902 0.158419
0.000000 0.510063 0.161196
0.000000 0.506432 0.165042
0.000000 0.501946 0.169162
0.073243 0.496742 0.173953
0.120455 0.490791 0.179385
0.158419 0.488594 0.183047
0.195682 0.496620 0.182956
0.232639 0.505547 0.182589
0.271092 0.515404 0.182010
0.310948 0.526116 0.180545
0.352667 0.537713 0.179202
0.396612 0.549920 0.176730
0.442451 0.562463 0.173983
0.490333 0.575250 0.170108
0.540215 0.588220 0.165347
0.592004 0.601221 0.159701
0.645808 0.614160 0.152316
0.699886 0.626734 0.156283
0.745357 0.631434 0.140505
0.787045 0.632654 0.113710
0.828031 0.632715 0.076051
0.867979 0.631708 0.014435
0.906950 0.629694 0.000000
0.944884 0.626764 0.000000
0.981750 0.622950 0.000000
1.000000 0.618219 0.000000
1.000000 0.612696 0.000000
1.000000 0.606317 0.000000
0.000000 0.542016 0.158846
0.000000 0.540826 0.160220
0.000000 0.539483 0.161685
0.000000 0.537499 0.163851
0.000000 0.534783 0.166506
0.000000 0.531426 0.169986
0.000000 0.527245 0.173922
0.069795 0.522210 0.178531
0.119814 0.516472 0.183474
0.157229 0.509880 0.189212
0.193393 0.514916 0.190433
0.229923 0.523644 0.190249
0.267338 0.533257 0.189883
0.306004 0.543725 0.188815
0.346410 0.554894 0.187594
0.388281 0.566461 0.186343
0.432105 0.578454 0.184207
0.477943 0.590784 0.181491
0.525353 0.603204 0.178103
0.574517 0.615808 0.173770
0.625574 0.628504 0.168734
0.678431 0.641108 0.161349
0.731533 0.653529 0.164645
0.777676 0.659693 0.154208
0.818906 0.660975 0.127352
0.859220 0.661128 0.092164
0.898528 0.660182 0.034150
0.936767 0.658289 0.000000
0.974060 0.655329 0.000000
1.000000 0.651423 0.000000
1.000000 0.646632 0.000000
1.000000 0.640864 0.000000
0.000000 0.567926 0.164096
0.000000 0.566857 0.165255
0.000000 0.565454 0.166720
0.000000 0.563653 0.168765
0.000000 0.561089 0.171084
0.000000 0.558007 0.174533
0.000000 0.554040 0.178286
0.069551 0.549401 0.182681
0.120790 0.543938 0.187839
0.159335 0.537743 0.193179
0.193118 0.534905 0.197238
0.229099 0.543481 0.197330
0.265751 0.552728 0.196994
0.303258 0.562707 0.196445
0.342412 0.573175 0.195804
0.382849 0.584222 0.194827
0.424872 0.595636 0.193454
0.468513 0.607416 0.191867
0.513787 0.619379 0.189242
0.560876 0.631495 0.185855
0.609583 0.643793 0.182071
0.659541 0.656123 0.176852
0.711269 0.668391 0.170108
0.763333 0.680598 0.172274
0.810117 0.687922 0.165896
0.850614 0.689387 0.140078
0.890135 0.689601 0.105684
0.928679 0.688685 0.051392
0.966217 0.686702 0.000000
1.000000 0.683772 0.000000
1.000000 0.679774 0.000000
1.000000 0.674739 0.000000
0.000000 0.594690 0.169100
0.000000 0.593744 0.170199
0.000000 0.592615 0.171511
0.000000 0.590814 0.173404
0.000000 0.588586 0.175814
0.000000 0.585718 0.179049
0.000000 0.582208 0.182773
0.072877 0.577935 0.186831
0.124147 0.572992 0.191684
0.163577 0.567254 0.196994
0.196445 0.560784 0.202640
0.230716 0.565118 0.204166
0.266514 0.573846 0.203983
0.303014 0.583215 0.204135
0.340917 0.593194 0.203708
0.379858 0.603540 0.203067
0.420294 0.614374 0.202121
0.462379 0.625544 0.201022
0.505852 0.636988 0.199161
0.550713 0.648707 0.197116
0.597314 0.660578 0.193606
0.645045 0.672511 0.189853
0.694301 0.684352 0.184756
0.744442 0.696132 0.178286
0.795254 0.708003 0.179568
0.842252 0.716365 0.177890
0.881956 0.717769 0.151675
0.920623 0.718074 0.117830
0.958312 0.717189 0.065583
0.995087 0.715145 0.000000
1.000000 0.712032 0.000000
1.000000 0.707759 0.000000
0.000000 0.622980 0.174197
0.000000 0.622065 0.175265
0.000000 0.620966 0.176822
0.000000 0.619471 0.178439
0.000000 0.617365 0.180880
0.000000 0.614801 0.183780
0.000000 0.611597 0.187533
0.079316 0.607813 0.191623
0.130526 0.603235 0.196231
0.170016 0.598108 0.201358
0.204013 0.592096 0.206943
0.234836 0.588830 0.211398
0.269932 0.597040 0.211704
0.305577 0.605768 0.211612
0.342168 0.615106 0.211734
0.379889 0.624903 0.211429
0.418952 0.635096 0.210819
0.459480 0.645716 0.210086
0.501213 0.656641 0.208713
0.544274 0.667811 0.207065
0.588800 0.679133 0.204654
0.634485 0.690517 0.201511
0.681453 0.701930 0.197513
0.729244 0.713283 0.192142
0.777920 0.724453 0.186099
0.827207 0.735744 0.186099
0.873899 0.744930 0.189395
0.912718 0.746304 0.162905
0.950561 0.746517 0.128298
0.987427 0.745541 0.075837
1.000000 0.743374 0.000000
1.000000 0.740047 0.000000
0.000000 0.652827 0.179904
0.000000 0.652033 0.181033
0.000000 0.651087 0.182345
0.000000 0.649683 0.183993
0.000000 0.647822 0.186343
0.000000 0.645533 0.189273
0.016541 0.642634 0.192813
0.092805 0.639185 0.196872
0.140291 0.635126 0.201389
0.179599 0.630426 0.206455
0.213626 0.625208 0.212039
0.243809 0.619257 0.217899
0.276616 0.622675 0.219974
0.311284 0.630854 0.220279
0.346777 0.639521 0.220188
0.383368 0.648707 0.220310
0.421027 0.658320 0.219883
0.460060 0.668360 0.219455
0.500267 0.678645 0.218387
0.541711 0.689235 0.217197
0.584253 0.699916 0.215152
0.628046 0.710719 0.212589
0.672786 0.721553 0.209354
0.718349 0.732326 0.205142
0.764736 0.742916 0.199680
0.811734 0.753384 0.193271
0.859190 0.763912 0.191958
0.904479 0.772915 0.197208
0.942931 0.774838 0.173129
0.979828 0.774929 0.137667
1.000000 0.773770 0.084413
1.000000 0.771328 0.000000
0.000000 0.685023 0.186587
0.000000 0.684321 0.187625
0.000000 0.683497 0.188724
0.000000 0.682246 0.190372
0.000000 0.680629 0.192874
0.000000 0.678523 0.195682
0.047791 0.675929 0.199008
0.110658 0.672847 0.203250
0.155306 0.669184 0.207858
0.192966 0.664973 0.212924
0.226596 0.660273 0.218540
0.257603 0.654902 0.224430
0.287266 0.651362 0.229709
0.320531 0.658961 0.230045
0.355138 0.667048 0.230198
0.390509 0.675563 0.230198
0.427039 0.684535 0.230106
0.464637 0.693874 0.229740
0.503349 0.703456 0.229221
0.542992 0.713313 0.227909
0.583886 0.723293 0.226413
0.625574 0.733394 0.224308
0.668269 0.743526 0.221683
0.711757 0.753567 0.218051
0.755886 0.763546 0.213504
0.800504 0.773312 0.207736
0.845548 0.782864 0.200656
0.890898 0.792477 0.197391
0.934325 0.800778 0.202884
0.972290 0.803372 0.183261
1.000000 0.803250 0.146914
1.000000 0.801724 0.091737
0.000000 0.719905 0.194369
0.000000 0.719234 0.195468
0.000000 0.718471 0.196719
0.000000 0.717372 0.198489
0.000000 0.715938 0.200687
0.008087 0.714076 0.203647
0.084565 0.711788 0.207065
0.133974 0.709041 0.211215
0.174655 0.705837 0.215793
0.210910 0.702144 0.220981
0.243992 0.697993 0.226810
0.274968 0.693294 0.232914
0.303929 0.688106 0.239475
0.334966 0.690639 0.242130
0.368200 0.698085 0.242191
0.402106 0.705898 0.242588
0.437293 0.714137 0.242435
0.473426 0.722652 0.242191
0.510613 0.731472 0.241611
0.548516 0.740505 0.240696
0.587518 0.749722 0.239475
0.627375 0.758999 0.237613
0.667903 0.768276 0.235080
0.709255 0.777493 0.231998
0.751217 0.786648 0.227939
0.793515 0.795651 0.222995
0.836179 0.804410 0.216556
0.879179 0.812924 0.208347
0.922240 0.821469 0.203128
0.963653 0.828885 0.208103
1.000000 0.831724 0.193240
1.000000 0.831205 0.155184
0.000000 0.757382 0.204654
0.000000 0.756832 0.205997
0.000000 0.756191 0.207126
0.000000 0.755245 0.208835
0.001129 0.753994 0.211185
0.072633 0.752346 0.214084
0.122225 0.750393 0.217777
0.163333 0.748013 0.221897
0.199680 0.745235 0.226566
0.234073 0.742061 0.231968
0.266239 0.738430 0.237949
0.296818 0.734371 0.244175
0.326207 0.729824 0.250950
0.354772 0.726284 0.257389
0.386328 0.732937 0.257572
0.419013 0.740017 0.257816
0.452552 0.747372 0.257786
0.487068 0.755062 0.257572
0.522393 0.762936 0.257053
0.558648 0.771054 0.256382
0.595697 0.779294 0.255070
0.633448 0.787594 0.253452
0.671931 0.795895 0.251408
0.711025 0.804196 0.248295
0.750576 0.812406 0.244755
0.790707 0.820493 0.240116
0.830961 0.828397 0.233921
0.871580 0.836057 0.226474
0.912261 0.843442 0.217166
0.953063 0.850736 0.209018
0.992096 0.857053 0.213779
1.000000 0.859617 0.203250
0.000000 0.797391 0.218692
0.000000 0.796963 0.219883
0.000000 0.796384 0.221134
0.039185 0.795560 0.223026
0.088472 0.794491 0.225315
0.127749 0.793149 0.228305
0.164218 0.791470 0.232029
0.198276 0.789425 0.236179
0.231601 0.787045 0.241184
0.263127 0.784360 0.246647
0.293980 0.781338 0.252689
0.324224 0.777829 0.259434
0.353338 0.774044 0.266453
0.381659 0.769894 0.274174
