core-styles/japan.cube
# Created by Adobe Lightroom plugin Export LUT (1.17.0)
# www.johnrellis.com/lightroom/exportlut.htm
# Preset: MBOOK 08韩式蓝调
# Color profile: C:\Windows\System32\Spool\Drivers\Color\sRGB Color Space Profile.icm
LUT_3D_SIZE 8
DOMAIN_MIN 0.000000 0.000000 0.000000
DOMAIN_MAX 0.903226 0.903226 0.903226
0.000000 0.000000 0.000000
0.143343 0.004456 0.000000
0.297124 0.017609 0.000000
0.448707 0.032624 0.000000
0.606073 0.035126 0.000000
0.757595 0.017517 0.000000
0.889738 0.000000 0.000000
1.000000 0.000000 0.000000
0.000000 0.148989 0.022522
0.090028 0.157595 0.015015
0.280247 0.183627 0.000000
0.440284 0.184237 0.000000
0.601007 0.181338 0.000000
0.754025 0.169528 0.000000
0.887449 0.148806 0.000000
1.000000 0.117525 0.000000
0.000000 0.274235 0.061830
0.015198 0.264622 0.081056
0.208530 0.295964 0.056306
0.407233 0.326268 0.000000
0.591302 0.327825 0.000000
0.745754 0.315465 0.000000
0.882139 0.296452 0.000000
1.000000 0.274693 0.000000
0.000000 0.380102 0.105928
0.000000 0.368872 0.120790
0.157321 0.378119 0.125948
0.337438 0.419287 0.106905
0.547051 0.457649 0.033783
0.725216 0.455848 0.000000
0.874022 0.438331 0.000000
1.000000 0.417517 0.000000
0.000000 0.472480 0.139193
0.000000 0.463844 0.148989
0.126986 0.447486 0.167086
0.285466 0.483528 0.163363
0.471992 0.533104 0.147585
0.680385 0.575158 0.111086
0.846464 0.572320 0.000000
0.996460 0.555444 0.000000
0.000000 0.567926 0.164096
0.000000 0.561089 0.171084
0.120790 0.543938 0.187839
0.265751 0.552728 0.196994
0.424872 0.595636 0.193454
0.609583 0.643793 0.182071
0.810117 0.687922 0.165896
0.966217 0.686702 0.000000
0.000000 0.685023 0.186587
0.000000 0.680629 0.192874
0.155306 0.669184 0.207858
0.287266 0.651362 0.229709
0.427039 0.684535 0.230106
0.583886 0.723293 0.226413
0.755886 0.763546 0.213504
0.934325 0.800778 0.202884
0.065156 0.839322 0.237888
0.154818 0.836912 0.244602
0.269169 0.830747 0.260899
0.385779 0.820035 0.287449
0.500023 0.824063 0.303502
0.625879 0.847532 0.300877
0.761746 0.871946 0.290806
0.903471 0.894743 0.265293
0.000000 0.000000 0.197177
0.130220 0.006958 0.190768
0.292485 0.000000 0.182986
0.451209 0.000000 0.151705
0.609308 0.000000 0.125216
0.759976 0.000000 0.105592
0.891569 0.000000 0.076631
1.000000 0.000000 0.015320
0.000000 0.179110 0.184787
0.090181 0.179629 0.181369
0.281621 0.168368 0.161898
0.442908 0.160067 0.142428
0.603754 0.151736 0.124331
0.755947 0.136233 0.101320
0.889006 0.112947 0.069520
1.000000 0.068086 0.001160
0.000000 0.311009 0.172335
0.019593 0.294652 0.183413
0.215579 0.308721 0.187564
0.413519 0.329747 0.162356
0.591821 0.322362 0.126162
0.746609 0.306523 0.095125
0.883055 0.286381 0.052461
1.000000 0.262211 0.000000
0.000000 0.404944 0.181064
0.000000 0.393469 0.189303
0.168582 0.386114 0.200931
0.344915 0.427070 0.199863
0.552026 0.461402 0.174533
0.728420 0.455482 0.108125
0.873960 0.435706 0.028138
1.000000 0.413306 0.000000
0.000000 0.490272 0.191745
0.000000 0.481453 0.198184
0.139925 0.459174 0.212558
0.292088 0.488045 0.217166
0.477882 0.537987 0.215702
0.683253 0.577661 0.199710
0.848112 0.573358 0.121798
0.997833 0.554498 0.000000
0.000000 0.580316 0.202609
0.000000 0.573510 0.207828
0.128450 0.556268 0.220127
0.269993 0.554284 0.232029
0.428443 0.597742 0.234714
0.612940 0.646326 0.233585
0.811734 0.689693 0.229038
0.967010 0.687648 0.133211
0.000000 0.692226 0.214603
0.000000 0.687648 0.219638
0.153231 0.676081 0.232029
0.288945 0.655543 0.251286
0.427497 0.684230 0.256748
0.585138 0.723720 0.258427
0.757534 0.764645 0.253971
0.935637 0.802335 0.254459
0.014954 0.842893 0.255100
0.136751 0.840452 0.261082
0.261662 0.834195 0.275914
0.382910 0.823239 0.300237
0.498970 0.823270 0.319646
0.625940 0.847196 0.319799
0.762448 0.872007 0.314092
0.904295 0.895140 0.295506
0.000000 0.000000 0.353674
0.099306 0.000000 0.351476
0.275639 0.027100 0.342809
0.439734 0.024201 0.336889
0.605493 0.000000 0.321355
0.761471 0.000000 0.292424
0.896635 0.000000 0.253483
1.000000 0.000000 0.237339
0.000000 0.158419 0.346136
0.017914 0.162844 0.344030
0.261540 0.185611 0.337011
0.433478 0.177249 0.331792
0.605676 0.113832 0.308385
0.761898 0.000000 0.273533
0.893217 0.000000 0.254307
1.000000 0.000000 0.236637
0.000000 0.334264 0.331884
0.000000 0.333837 0.330632
0.234684 0.332830 0.326848
0.428687 0.313176 0.305333
0.598901 0.297490 0.288029
0.749905 0.281987 0.273014
0.885130 0.264347 0.256870
1.000000 0.240574 0.235264
0.000000 0.459174 0.299351
0.000000 0.451179 0.301884
0.199924 0.423011 0.310613
0.363928 0.444343 0.322210
0.565759 0.467445 0.310430
0.731472 0.453346 0.284825
0.873533 0.431739 0.261509
1.000000 0.408057 0.232578
0.000000 0.537072 0.288945
0.000000 0.527306 0.291722
0.168765 0.503349 0.298100
0.310094 0.498604 0.308446
0.493507 0.549950 0.321141
0.690730 0.583215 0.318120
0.852689 0.575372 0.279362
0.997131 0.554406 0.228183
0.000000 0.612268 0.280156
0.000000 0.605310 0.282750
0.144991 0.587732 0.289250
0.281224 0.557641 0.298894
0.437690 0.602533 0.311040
0.622431 0.652796 0.324102
0.816342 0.693874 0.330358
0.969451 0.689845 0.275883
0.000000 0.711025 0.274296
0.000000 0.706325 0.277317
0.144686 0.694240 0.285130
0.295262 0.672847 0.297795
0.428290 0.683070 0.310430
0.588342 0.724605 0.321538
0.762203 0.767422 0.330999
0.938476 0.805844 0.345403
0.000000 0.852476 0.294224
0.060975 0.849912 0.299016
0.237888 0.843351 0.310826
0.373693 0.831876 0.330907
0.495277 0.820920 0.355322
0.625513 0.846098 0.361395
0.764096 0.872038 0.364324
0.906340 0.896086 0.358618
0.000000 0.000000 0.487648
0.064790 0.000000 0.486336
0.270268 0.008301 0.482856
0.433783 0.060090 0.473945
0.599847 0.028962 0.469398
0.752865 0.000000 0.455634
0.889494 0.000000 0.431617
1.000000 0.000000 0.404913
0.000000 0.152346 0.482521
0.000000 0.156649 0.481361
0.255985 0.169345 0.478370
0.427832 0.190494 0.470283
0.596551 0.176455 0.466194
0.750423 0.138552 0.451148
0.888701 0.030488 0.426093
1.000000 0.000000 0.398047
0.000000 0.308385 0.474372
0.000000 0.304021 0.473640
0.208957 0.311986 0.470344
0.416938 0.332433 0.462654
0.589899 0.323033 0.458747
0.747768 0.279637 0.436439
0.888701 0.229709 0.407538
1.000000 0.169345 0.377325
0.000000 0.479103 0.458228
0.000000 0.478676 0.457496
0.088624 0.477150 0.455329
0.403510 0.473579 0.451392
0.588556 0.451575 0.431922
0.738918 0.433112 0.415930
0.878050 0.414282 0.400244
1.000000 0.392462 0.382208
0.000000 0.595819 0.418982
0.000000 0.592554 0.417884
0.134005 0.581415 0.417487
0.361578 0.542840 0.420142
0.523339 0.570245 0.439307
0.704707 0.590723 0.437781
0.860014 0.576745 0.413794
0.996643 0.553429 0.387518
0.000000 0.667567 0.387640
0.000000 0.662623 0.390051
0.157229 0.644862 0.391577
0.325231 0.612360 0.392340
0.455421 0.610254 0.403265
0.640345 0.664118 0.431067
0.824704 0.700618 0.441901
0.974670 0.693202 0.404273
0.000000 0.747066 0.361151
0.000000 0.742031 0.362554
0.111391 0.729000 0.365484
0.304021 0.705837 0.370489
0.426825 0.679316 0.378515
0.593072 0.725399 0.401495
0.770901 0.772213 0.427405
0.942657 0.810269 0.448554
0.000000 0.870817 0.354742
0.000000 0.868040 0.358007
0.169039 0.860899 0.366217
0.350164 0.848325 0.380407
0.487770 0.829984 0.401068
0.622370 0.843412 0.419135
0.766110 0.871794 0.432990
0.910002 0.897765 0.441779
0.000000 0.000000 0.608911
0.046448 0.000000 0.608087
0.264225 0.003876 0.605921
0.433845 0.027375 0.602258
0.592279 0.084596 0.593225
0.748135 0.046296 0.585199
0.883055 0.032929 0.568414
1.000000 0.000000 0.548974
0.000000 0.151553 0.605402
0.000000 0.153506 0.604669
0.250401 0.159884 0.602747
0.428931 0.173526 0.599207
0.589319 0.194675 0.590570
0.744808 0.178622 0.582544
0.880552 0.171939 0.566827
1.000000 0.090059 0.546807
0.000000 0.294316 0.599207
0.000000 0.294591 0.598535
0.207126 0.302434 0.596399
0.416388 0.316625 0.592645
0.583673 0.331701 0.584588
0.737392 0.322240 0.576287
0.875944 0.306950 0.561761
1.000000 0.254551 0.539971
0.000000 0.451850 0.588708
0.000000 0.448829 0.588312
0.000000 0.441291 0.587457
0.387610 0.452461 0.582971
0.576257 0.471443 0.575158
0.726467 0.465034 0.567926
0.873564 0.428962 0.549096
1.000000 0.382086 0.521782
0.000000 0.610620 0.572045
0.000000 0.610101 0.571435
0.000000 0.608728 0.570001
0.352819 0.605859 0.567437
0.570184 0.601099 0.563622
0.726009 0.580652 0.546075
0.869718 0.560021 0.528954
1.000000 0.538109 0.510521
0.000000 0.718471 0.528801
0.000000 0.715877 0.527550
0.021851 0.709010 0.524804
0.355474 0.694453 0.521660
0.509514 0.649104 0.515404
0.668757 0.682002 0.544427
0.839414 0.707607 0.548882
0.984588 0.693996 0.522454
0.000000 0.799619 0.477577
0.000000 0.795773 0.477211
0.000000 0.785367 0.477363
0.311894 0.762661 0.476967
0.458717 0.723659 0.472084
0.597864 0.724208 0.487984
0.784146 0.779934 0.529656
0.950774 0.815610 0.549340
0.000000 0.902007 0.442329
0.000000 0.898833 0.443732
0.000000 0.890776 0.447547
0.296208 0.876524 0.454627
0.473243 0.855436 0.465766
0.610132 0.837064 0.483040
0.765988 0.870603 0.509300
0.915190 0.900420 0.533318
0.000000 0.007904 0.717617
0.026856 0.010010 0.717067
0.253422 0.014099 0.715816
0.418860 0.029511 0.713436
0.578759 0.065156 0.709834
0.729274 0.119783 0.701045
0.879911 0.083955 0.695949
1.000000 0.067048 0.679500
0.000000 0.152651 0.715328
0.000000 0.153994 0.714931
0.242557 0.158236 0.713619
0.414588 0.166873 0.711360
0.576867 0.183139 0.707790
0.727718 0.209415 0.699306
0.877531 0.189761 0.694087
1.000000 0.179873 0.678462
0.000000 0.291020 0.711025
0.000000 0.292729 0.710445
0.211551 0.297490 0.709194
0.404761 0.305943 0.706844
0.573236 0.320684 0.703090
0.724666 0.336858 0.695094
0.871946 0.324834 0.689693
1.000000 0.316258 0.676204
0.000000 0.428473 0.704829
0.000000 0.428290 0.704311
0.115480 0.430488 0.702937
0.384771 0.440742 0.700130
0.569085 0.457008 0.695918
0.721035 0.472358 0.688411
0.863615 0.463844 0.683589
0.995056 0.452277 0.673213
0.000000 0.577966 0.694697
0.000000 0.576867 0.694484
0.000000 0.573846 0.693812
0.313848 0.568322 0.692531
0.555566 0.581353 0.687984
0.718471 0.597162 0.680751
0.858335 0.588251 0.676631
0.997101 0.555230 0.658747
0.000000 0.726772 0.680629
0.000000 0.726345 0.680323
0.000000 0.725338 0.679408
0.317815 0.723354 0.677852
0.529961 0.720150 0.675319
0.716060 0.715084 0.671595
0.861784 0.696101 0.654170
0.994903 0.676722 0.636316
0.000000 0.841825 0.641260
0.000000 0.840055 0.639979
0.000000 0.835294 0.636316
0.298955 0.825986 0.629725
0.495460 0.808896 0.619196
0.636286 0.755245 0.602106
0.805600 0.794247 0.645533
0.962921 0.821164 0.657343
0.000000 0.938293 0.578027
0.000000 0.937011 0.576623
0.000000 0.932799 0.573541
0.171603 0.920775 0.572351
0.447150 0.899168 0.571191
0.610224 0.865507 0.570275
0.761074 0.866484 0.594324
0.922210 0.904631 0.639582
0.000000 0.018555 0.832761
0.000000 0.020417 0.832456
0.238773 0.024414 0.831662
0.403418 0.033936 0.830228
0.560357 0.054932 0.828000
0.714046 0.091737 0.824887
0.858366 0.153140 0.816770
1.000000 0.114717 0.814755
0.000000 0.153872 0.831449
0.000000 0.155093 0.831144
0.231388 0.157717 0.830381
0.400671 0.162905 0.828977
0.559411 0.173251 0.826749
0.713680 0.192294 0.823606
0.857603 0.227115 0.815640
1.000000 0.202914 0.813321
0.000000 0.289586 0.828733
0.000000 0.290837 0.828458
0.209873 0.293675 0.827604
0.393744 0.299107 0.826169
0.557488 0.308354 0.823850
0.713222 0.323857 0.820584
0.855924 0.344244 0.812955
0.996918 0.328679 0.810117
0.000000 0.420844 0.825040
0.000000 0.422126 0.824704
0.158785 0.425666 0.823819
0.381109 0.432105 0.822171
0.555474 0.442634 0.819577
0.713863 0.458961 0.815946
0.853819 0.474220 0.808743
0.990295 0.461067 0.805478
0.000000 0.550317 0.820279
0.000000 0.549859 0.820127
0.000000 0.550744 0.819425
0.340154 0.556359 0.817929
0.545495 0.567407 0.815000
0.712978 0.582147 0.811032
0.852537 0.593652 0.804410
0.985290 0.582544 0.800351
0.000000 0.696132 0.811917
0.000000 0.695430 0.811795
0.000000 0.693874 0.811460
0.267826 0.690883 0.810880
0.489876 0.685512 0.809934
0.700008 0.697017 0.805814
0.850950 0.711482 0.798947
0.979583 0.703517 0.794156
0.000000 0.841154 0.800717
0.000000 0.840818 0.800534
0.000000 0.840116 0.799954
0.257542 0.838804 0.798978
0.492195 0.836515 0.797330
0.679713 0.833249 0.794797
0.846830 0.828916 0.791196
0.977905 0.813474 0.774929
0.000000 0.961334 0.762264
0.000000 0.960327 0.761410
0.000000 0.957702 0.758968
0.216922 0.952667 0.754513
0.457282 0.944152 0.746731
0.627344 0.929717 0.732570
0.770413 0.882231 0.711147
0.931365 0.912566 0.765438
0.000000 0.027558 0.954528
0.000000 0.028351 0.954345
0.206027 0.030243 0.953918
0.378882 0.035431 0.953094
0.535485 0.045411 0.951812
0.687495 0.067506 0.950042
0.835233 0.135286 0.946166
0.973114 0.187930 0.940398
0.000000 0.154391 0.953857
0.000000 0.155154 0.953643
0.200290 0.156588 0.953185
0.377295 0.159579 0.952392
0.535241 0.165103 0.951110
0.687617 0.176059 0.949310
0.835355 0.210575 0.945739
0.972564 0.249241 0.939727
0.000000 0.287541 0.952300
0.000000 0.288304 0.952117
0.186587 0.290105 0.951659
0.373846 0.293156 0.950805
0.535119 0.298589 0.949523
0.688563 0.308049 0.947601
0.835782 0.326452 0.944732
0.971191 0.355779 0.938109
0.000000 0.418036 0.950225
0.000000 0.418891 0.950042
0.160220 0.421088 0.949523
0.368261 0.425025 0.948577
0.535851 0.431556 0.947082
0.691249 0.441901 0.945006
0.837339 0.457954 0.942168
0.969360 0.476204 0.935760
0.000000 0.539269 0.948028
0.000000 0.540307 0.947875
0.035737 0.544152 0.947387
0.350439 0.549859 0.946349
0.531884 0.556756 0.944671
0.692103 0.566369 0.942351
0.838132 0.579767 0.939391
0.967559 0.592126 0.933349
0.000000 0.665583 0.944549
0.000000 0.665126 0.944549
0.000000 0.663874 0.944427
0.253269 0.664363 0.943969
0.500725 0.672419 0.942473
0.684321 0.684077 0.939727
0.837125 0.697932 0.936156
0.964874 0.709773 0.930236
0.000000 0.805844 0.938201
0.000000 0.805631 0.938109
0.000000 0.804929 0.937865
0.198947 0.803769 0.937499
0.458350 0.802396 0.936797
0.648341 0.801358 0.935668
0.829526 0.814542 0.931914
0.959960 0.827176 0.925963
0.000000 0.948577 0.929137
0.000000 0.948394 0.928985
0.000000 0.947875 0.928649
0.163821 0.946899 0.927977
0.455299 0.945342 0.926909
0.650324 0.943297 0.925292
0.815305 0.940826 0.923003
0.951568 0.938079 0.919799
