core-styles/japan.cube
# Created by Adobe Lightroom plugin Export LUT (1.17.0)
# www.johnrellis.com/lightroom/exportlut.htm
# Preset: MBOOK 08韩式蓝调
# Color profile: C:\Windows\System32\Spool\Drivers\Color\sRGB Color Space Profile.icm
LUT_3D_SIZE 5
DOMAIN_MIN 0.000000 0.000000 0.000000
DOMAIN_MAX 0.903226 0.903226 0.903226
0.000000 0.000000 0.000000
0.259251 0.014038 0.000000
0.526879 0.036591 0.000000
0.791287 0.010254 0.000000
1.000000 0.000000 0.000000
0.000000 0.244663 0.049714
0.177584 0.262821 0.042206
0.511223 0.294133 0.000000
0.782650 0.274754 0.000000
1.000000 0.237613 0.000000
0.000000 0.427192 0.123629
0.096803 0.406592 0.149477
0.404273 0.477028 0.128511
0.744930 0.517113 0.000000
1.000000 0.486763 0.000000
0.000000 0.594690 0.169100
0.072877 0.577935 0.186831
0.340917 0.593194 0.203708
0.645045 0.672511 0.189853
0.958312 0.717189 0.065583
0.065156 0.839322 0.237888
0.239994 0.832700 0.255833
0.441962 0.813443 0.303441
0.659144 0.853635 0.299321
0.903471 0.894743 0.265293
0.000000 0.000000 0.317479
0.238865 0.018433 0.307897
0.524926 0.000000 0.288304
0.797910 0.000000 0.228092
1.000000 0.000000 0.195529
0.000000 0.296818 0.297490
0.195621 0.296086 0.293034
0.517784 0.266361 0.257877
0.785946 0.240665 0.229831
1.000000 0.200443 0.191867
0.000000 0.484871 0.263615
0.130709 0.455909 0.273716
0.423102 0.493233 0.291112
0.751797 0.519860 0.253758
1.000000 0.483406 0.181216
0.000000 0.624872 0.256626
0.081910 0.607691 0.265415
0.348882 0.595880 0.284672
0.653559 0.678279 0.301366
0.960723 0.719936 0.261357
0.000000 0.849363 0.282353
0.211124 0.842466 0.296117
0.437446 0.821469 0.335058
0.659571 0.852873 0.349706
0.905669 0.895811 0.340276
0.000000 0.000000 0.551110
0.223728 0.000000 0.548089
0.515953 0.071077 0.536004
0.784146 0.016693 0.517571
1.000000 0.000000 0.480049
0.000000 0.261173 0.541894
0.158053 0.268315 0.539300
0.506706 0.295933 0.528405
0.776974 0.272984 0.510124
1.000000 0.169467 0.468177
0.000000 0.548577 0.517754
0.000000 0.547112 0.516014
0.491035 0.540795 0.509941
0.768185 0.503838 0.478798
1.000000 0.466316 0.447639
0.000000 0.714107 0.441688
0.000000 0.701381 0.443427
0.403540 0.646571 0.441718
0.682155 0.695949 0.484810
0.970336 0.726925 0.472297
0.000000 0.884489 0.393347
0.000000 0.876402 0.400183
0.409644 0.851621 0.420783
0.654871 0.848631 0.455482
0.912413 0.898924 0.485878
0.000000 0.011139 0.745693
0.206638 0.014649 0.744411
0.495155 0.044373 0.740444
0.762478 0.128176 0.729091
1.000000 0.079988 0.712245
0.000000 0.256748 0.740871
0.166232 0.260838 0.739742
0.488960 0.275273 0.735775
0.759365 0.305516 0.724910
1.000000 0.284764 0.709407
0.000000 0.494606 0.730678
0.000000 0.493721 0.729732
0.470344 0.509545 0.724910
0.754269 0.536858 0.714290
0.991272 0.517906 0.703151
0.000000 0.755520 0.709560
0.000000 0.754604 0.708736
0.419623 0.751186 0.706020
0.750484 0.743648 0.700313
0.991730 0.711177 0.669612
0.000000 0.943755 0.622553
0.000000 0.940368 0.618891
0.316045 0.924346 0.609400
0.647761 0.868681 0.601099
0.924285 0.906096 0.669032
0.000000 0.027558 0.954528
0.153536 0.029694 0.954040
0.457984 0.038636 0.952544
0.724910 0.075624 0.949493
0.973114 0.187930 0.940398
0.000000 0.254368 0.952758
0.130007 0.255985 0.952270
0.456153 0.261967 0.950683
0.725643 0.277684 0.947570
0.971588 0.326482 0.938628
0.000000 0.480446 0.949187
0.000000 0.483589 0.948608
0.452277 0.492103 0.946654
0.730068 0.509483 0.942962
0.968536 0.533837 0.934630
0.000000 0.700587 0.943175
0.000000 0.699428 0.943053
0.361486 0.696559 0.942565
0.721767 0.716579 0.938079
0.963897 0.739284 0.929320
0.000000 0.948577 0.929137
0.000000 0.948058 0.928740
0.335790 0.946197 0.927489
0.693874 0.942718 0.924773
0.951568 0.938079 0.919799
