core-styles/JC.cube
#Created by: Adobe Photoshop Export Color Lookup Plugin
#Copyright: (C) Copyright 2026 汉图
TITLE "mint本征源文件-适配lut筛选.psd"
#LUT size
LUT_3D_SIZE 7
#data domain
#LUT data points
DOMAIN_MIN 0.000000 0.000000 0.000000
DOMAIN_MAX 0.909091 0.909091 0.909091
0.000000 0.000000 0.000000
0.000000 0.000000 0.000000
0.000000 0.000000 0.000000
0.226349 0.000000 0.000000
0.483673 0.000000 0.000000
0.733887 0.000000 0.000000
0.950409 0.000000 0.000000
0.000000 0.132050 0.000000
0.000000 0.132050 0.000000
0.000000 0.132050 0.000000
0.226349 0.064087 0.000000
0.483673 0.119751 0.000000
0.733887 0.132080 0.000000
0.950409 0.132111 0.000000
0.000000 0.287994 0.000000
0.000000 0.287994 0.000000
0.000000 0.287994 0.000000
0.287994 0.218292 0.000000
0.483673 0.136292 0.000000
0.733887 0.189819 0.000000
0.950409 0.241821 0.000000
0.000000 0.456573 0.000000
0.000000 0.456573 0.000000
0.000000 0.456573 0.000000
0.332458 0.456573 0.000000
0.483673 0.236145 0.000000
0.733887 0.207458 0.000000
0.950409 0.259674 0.000000
0.000000 0.635284 0.000000
0.000000 0.635284 0.000000
0.000000 0.635284 0.000000
0.294006 0.635284 0.000000
0.635284 0.492310 0.000000
0.733887 0.299713 0.000000
0.950409 0.278229 0.000000
0.000000 0.813904 0.000000
0.000000 0.813904 0.000000
0.000000 0.813904 0.000000
0.254425 0.813904 0.000000
0.748779 0.813904 0.000000
0.813904 0.526154 0.000000
0.950409 0.372253 0.000000
0.000000 0.972412 0.000000
0.000000 0.972412 0.000000
0.000000 0.972412 0.000000
0.226257 0.972412 0.000000
0.708313 0.972412 0.000000
0.972412 0.822906 0.000000
0.972412 0.574310 0.000000
0.023621 0.000000 0.160065
0.023621 0.000000 0.160065
0.023621 0.000000 0.160065
0.226349 0.000000 0.160034
0.483673 0.000000 0.160034
0.733887 0.000000 0.160126
0.950409 0.000000 0.160156
0.000000 0.115936 0.160065
0.000000 0.115936 0.160065
0.000000 0.115936 0.160065
0.246552 0.112122 0.151947
0.566284 0.053741 0.094269
0.864349 0.000000 0.039978
1.000000 0.000000 0.036591
0.000000 0.287994 0.177521
0.000000 0.287994 0.177521
0.000000 0.287994 0.177521
0.264374 0.300079 0.148132
0.546478 0.216583 0.100128
0.858459 0.218018 0.033630
1.000000 0.194275 0.024109
0.000000 0.456573 0.169006
0.000000 0.456573 0.169006
0.000000 0.456573 0.169006
0.212524 0.482544 0.135071
0.517242 0.307739 0.127899
0.821381 0.277527 0.072418
1.000000 0.303680 0.024109
0.000000 0.635284 0.160187
0.000000 0.635284 0.160187
0.000000 0.635284 0.160187
0.197876 0.676758 0.120453
0.683350 0.634583 0.114166
0.790649 0.360077 0.103668
1.000000 0.339417 0.048279
0.000000 0.813904 0.160095
0.000000 0.813904 0.160095
0.000000 0.813904 0.160095
0.182617 0.865753 0.105469
0.663361 0.870300 0.100525
0.874878 0.626801 0.095581
1.000000 0.423615 0.080292
0.000000 0.972412 0.160095
0.000000 0.972412 0.160095
0.000000 0.972412 0.160095
0.167175 1.000000 0.090149
0.596039 1.000000 0.087006
1.000000 0.979309 0.079071
1.000000 0.665436 0.077515
0.047974 0.000000 0.325653
0.047974 0.000000 0.325653
0.047974 0.000000 0.325653
0.232513 0.000000 0.325653
0.483673 0.000000 0.325623
0.733887 0.000000 0.325623
0.950409 0.000000 0.325714
0.000000 0.088989 0.325653
0.000000 0.088989 0.325653
0.000000 0.088989 0.325653
0.247131 0.097717 0.360931
0.538605 0.079773 0.331665
0.851654 0.007141 0.283813
1.000000 0.000000 0.253601
0.000000 0.254944 0.325653
0.000000 0.254944 0.325653
0.000000 0.254944 0.325653
0.212463 0.277130 0.339722
0.529053 0.243896 0.298553
0.831116 0.188812 0.243195
1.000000 0.150146 0.202576
0.000000 0.456573 0.368469
0.000000 0.456573 0.368469
0.000000 0.456573 0.368469
0.205078 0.478455 0.332520
0.499878 0.381500 0.309784
0.815613 0.388824 0.242310
1.000000 0.372925 0.187195
0.000000 0.635284 0.359375
0.000000 0.635284 0.359375
0.000000 0.635284 0.359375
0.192108 0.670837 0.308167
0.574219 0.664490 0.297241
0.774139 0.434235 0.285034
1.000000 0.451965 0.216766
0.000000 0.813904 0.350311
0.000000 0.813904 0.350311
0.000000 0.813904 0.350311
0.176971 0.860474 0.292816
0.509216 0.853485 0.283325
0.859528 0.701935 0.276764
0.999634 0.498352 0.261139
0.000000 0.972412 0.340698
0.000000 0.972412 0.340698
0.000000 0.972412 0.340698
0.161530 1.000000 0.277069
0.452881 1.000000 0.268646
0.974884 1.000000 0.260864
1.000000 0.739868 0.258331
0.072388 0.000000 0.495544
0.072388 0.000000 0.495544
0.072388 0.000000 0.495544
0.270660 0.000000 0.495544
0.483704 0.000000 0.495544
0.733887 0.000000 0.495575
0.950409 0.000000 0.495544
0.000000 0.060760 0.495544
0.000000 0.060760 0.495544
0.000000 0.060760 0.495544
0.265198 0.047058 0.585480
0.521759 0.093262 0.536346
0.814667 0.051605 0.514221
1.000000 0.000000 0.478058
0.000000 0.230743 0.495544
0.000000 0.230743 0.495544
0.000000 0.230743 0.495544
0.162933 0.194916 0.561707
0.504028 0.265625 0.518585
0.808441 0.212433 0.490784
1.000000 0.150146 0.440247
0.000000 0.405914 0.495544
0.000000 0.405914 0.495544
0.000000 0.405914 0.495544
0.197388 0.444641 0.525543
0.486542 0.451691 0.500427
0.794739 0.393860 0.450348
1.000000 0.339478 0.395599
0.000000 0.635284 0.560883
0.000000 0.635284 0.560883
0.000000 0.635284 0.560883
0.184326 0.678894 0.550690
0.470764 0.648315 0.484650
0.767212 0.548920 0.461334
1.000000 0.566223 0.391357
0.000000 0.813904 0.555237
0.000000 0.813904 0.555237
0.000000 0.813904 0.555237
0.171387 0.865631 0.519714
0.455170 0.840240 0.469025
0.843872 0.777771 0.462982
0.994598 0.613708 0.436768
0.000000 0.972412 0.545410
0.000000 0.972412 0.545410
0.000000 0.972412 0.545410
0.158630 1.000000 0.491608
0.439148 1.000000 0.453094
0.844574 1.000000 0.448059
1.000000 0.811920 0.444122
0.096954 0.000000 0.669159
0.096954 0.000000 0.669159
0.096954 0.000000 0.669159
0.308899 0.000000 0.669159
0.490021 0.000000 0.669159
0.733887 0.000000 0.669098
0.950409 0.000000 0.669037
0.000000 0.034576 0.669159
0.000000 0.034576 0.669159
0.000000 0.034576 0.669159
0.262360 0.002319 0.796692
0.528473 0.061218 0.742706
0.797943 0.068512 0.721161
1.000000 0.024353 0.700592
0.000000 0.201965 0.669159
0.000000 0.201965 0.669159
0.000000 0.201965 0.669159
0.128082 0.123291 0.774353
0.523499 0.224121 0.734283
0.781189 0.240387 0.703644
1.000000 0.186157 0.680481
0.000000 0.385406 0.669159
0.000000 0.385406 0.669159
0.000000 0.385406 0.669159
0.154968 0.388824 0.742371
0.492798 0.406189 0.719574
0.763275 0.426483 0.685120
1.000000 0.360352 0.651031
0.000000 0.566162 0.669159
0.000000 0.566162 0.669159
0.000000 0.566162 0.669159
0.179260 0.622131 0.717651
0.463562 0.625488 0.689240
0.753662 0.614716 0.662628
1.000000 0.556488 0.606171
0.000000 0.813904 0.751343
0.000000 0.813904 0.751343
0.000000 0.813904 0.751343
0.163544 0.872803 0.771362
0.450592 0.844391 0.696228
0.761902 0.826569 0.655396
0.989716 0.729736 0.616577
0.000000 0.972412 0.752472
0.000000 0.972412 0.752472
0.000000 0.972412 0.752472
0.149841 1.000000 0.738373
0.437164 1.000000 0.667297
0.716583 0.993561 0.640137
0.997314 0.880341 0.634857
0.121613 0.000000 0.835693
0.121613 0.000000 0.835693
0.121613 0.000000 0.835693
0.347534 0.000000 0.835693
0.529694 0.000000 0.835693
0.733856 0.000000 0.835693
0.950409 0.000000 0.835815
0.000000 0.003937 0.835693
0.000000 0.003937 0.835693
0.000000 0.003937 0.835693
0.272949 0.000000 0.954041
0.560059 0.004730 0.944763
0.786743 0.057373 0.904663
1.000000 0.043427 0.892212
0.000000 0.173096 0.835693
0.000000 0.173096 0.835693
0.000000 0.173096 0.835693
0.125122 0.083740 0.961334
0.546082 0.172516 0.938293
0.769989 0.228973 0.889557
1.000000 0.214783 0.876801
0.000000 0.355927 0.835693
0.000000 0.355927 0.835693
0.000000 0.355927 0.835693
0.105591 0.309875 0.943390
0.489655 0.365265 0.916260
0.759613 0.410431 0.877258
0.992920 0.400299 0.860260
0.000000 0.548645 0.835693
0.000000 0.548645 0.835693
0.000000 0.548645 0.835693
0.149506 0.577484 0.905792
0.415741 0.558807 0.896088
0.755585 0.597382 0.869324
0.986603 0.586792 0.844879
0.000000 0.731995 0.835693
0.000000 0.731995 0.835693
0.000000 0.731995 0.835693
0.161102 0.801697 0.895538
0.444794 0.804932 0.870697
0.722382 0.807831 0.846344
0.977966 0.779846 0.812317
0.000000 0.972412 0.924316
0.000000 0.972412 0.924316
0.000000 0.972412 0.924316
0.143982 1.000000 0.958710
0.429077 1.000000 0.901215
0.709473 0.990662 0.839142
0.984680 0.943634 0.820465
0.146454 0.000000 0.979767
0.146454 0.000000 0.979767
0.146454 0.000000 0.979767
0.376953 0.000000 0.979767
0.569397 0.000000 0.979767
0.744293 0.000000 0.979767
0.950500 0.000000 0.979767
0.008118 0.000000 0.979767
0.008118 0.000000 0.979767
0.008118 0.000000 0.979767
0.307495 0.033020 1.000000
0.581909 0.033020 1.000000
0.795105 0.033020 1.000000
1.000000 0.039398 1.000000
0.000000 0.144531 0.979767
0.000000 0.144531 0.979767
0.000000 0.144531 0.979767
0.193329 0.126312 1.000000
0.574310 0.187195 1.000000
0.796509 0.187195 1.000000
1.000000 0.210693 1.000000
0.000000 0.326324 0.979767
0.000000 0.326324 0.979767
0.000000 0.326324 0.979767
0.126312 0.272980 1.000000
0.504517 0.353729 1.000000
0.791077 0.357544 1.000000
0.989960 0.396149 1.000000
0.000000 0.519745 0.979767
0.000000 0.519745 0.979767
0.000000 0.519745 0.979767
0.126312 0.516418 1.000000
0.380524 0.481781 1.000000
0.773254 0.543091 1.000000
0.975677 0.593292 1.000000
0.000000 0.714966 0.979767
0.000000 0.714966 0.979767
0.000000 0.714966 0.979767
0.142944 0.763611 1.000000
0.410645 0.760315 1.000000
0.671509 0.733734 1.000000
0.960541 0.793701 0.995331
0.000000 0.889252 0.979767
0.000000 0.889252 0.979767
0.000000 0.889252 0.979767
0.142944 0.963196 1.000000
0.426025 0.965759 1.000000
0.703705 0.968109 1.000000
0.947083 0.970459 0.982880
