core-styles/JC.cube
#Created by: Adobe Photoshop Export Color Lookup Plugin
#Copyright: (C) Copyright 2026 汉图
TITLE "mint本征源文件-适配lut筛选.psd"
#LUT size
LUT_3D_SIZE 34
#data domain
DOMAIN_MIN 0.0 0.0 0.0
DOMAIN_MAX 1.0 1.0 1.0
#LUT data points
0.000000 0.000000 0.000000
0.000000 0.000000 0.000000
0.000000 0.000000 0.000000
0.000000 0.000000 0.000000
0.000000 0.000000 0.000000
0.000000 0.000000 0.000000
0.000000 0.000000 0.000000
0.000000 0.000000 0.000000
0.000000 0.000000 0.000000
0.000000 0.000000 0.000000
0.000000 0.000000 0.000000
0.000000 0.000000 0.000000
0.062897 0.000000 0.000000
0.119110 0.000000 0.000000
0.173248 0.000000 0.000000
0.226349 0.000000 0.000000
0.278595 0.000000 0.000000
0.330322 0.000000 0.000000
0.381714 0.000000 0.000000
0.432800 0.000000 0.000000
0.483673 0.000000 0.000000
0.534424 0.000000 0.000000
0.585205 0.000000 0.000000
0.635559 0.000000 0.000000
0.685242 0.000000 0.000000
0.733887 0.000000 0.000000
0.781128 0.000000 0.000000
0.826691 0.000000 0.000000
0.870239 0.000000 0.000000
0.911591 0.000000 0.000000
0.950409 0.000000 0.000000
0.986481 0.000000 0.000000
1.000000 0.000000 0.000000
1.000000 0.000000 0.000000
0.000000 0.021118 0.000000
0.000000 0.021118 0.000000
0.000000 0.021118 0.000000
0.000000 0.021118 0.000000
0.000000 0.021118 0.000000
0.000000 0.021118 0.000000
0.000000 0.021118 0.000000
0.000000 0.021118 0.000000
0.000000 0.021118 0.000000
0.000000 0.021118 0.000000
0.000000 0.021118 0.000000
0.000000 0.021118 0.000000
0.062897 0.011017 0.000000
0.119110 0.021118 0.000000
0.173248 0.021118 0.000000
0.226349 0.021057 0.000000
0.278595 0.021118 0.000000
0.330322 0.021179 0.000000
0.381714 0.021118 0.000000
0.432800 0.021118 0.000000
0.483673 0.021057 0.000000
0.534424 0.021179 0.000000
0.585205 0.021118 0.000000
0.635559 0.021118 0.000000
0.685242 0.020966 0.000000
0.733887 0.021332 0.000000
0.781128 0.021240 0.000000
0.826691 0.021179 0.000000
0.870239 0.021240 0.000000
0.911591 0.020966 0.000000
0.950409 0.020905 0.000000
0.986481 0.021118 0.000000
1.000000 0.021179 0.000000
1.000000 0.020966 0.000000
0.000000 0.047455 0.000000
0.000000 0.047455 0.000000
0.000000 0.047455 0.000000
0.000000 0.047455 0.000000
0.000000 0.047455 0.000000
0.000000 0.047455 0.000000
0.000000 0.047455 0.000000
0.000000 0.047455 0.000000
0.000000 0.047455 0.000000
0.000000 0.047455 0.000000
0.000000 0.047455 0.000000
0.000000 0.047455 0.000000
0.062897 0.015656 0.000000
0.119110 0.031464 0.000000
0.173248 0.043365 0.000000
0.226349 0.047455 0.000000
0.278595 0.047455 0.000000
0.330322 0.047455 0.000000
0.381714 0.047455 0.000000
0.432800 0.047455 0.000000
0.483673 0.047455 0.000000
0.534424 0.047485 0.000000
0.585205 0.047394 0.000000
0.635559 0.047424 0.000000
0.685242 0.047516 0.000000
0.733887 0.047394 0.000000
0.781128 0.047394 0.000000
0.826691 0.047546 0.000000
0.870239 0.047394 0.000000
0.911591 0.047546 0.000000
0.950409 0.047455 0.000000
0.986481 0.047333 0.000000
1.000000 0.047485 0.000000
1.000000 0.047485 0.000000
0.000000 0.074554 0.000000
0.000000 0.074554 0.000000
0.000000 0.074554 0.000000
0.000000 0.074554 0.000000
0.000000 0.074554 0.000000
0.000000 0.074554 0.000000
0.000000 0.074554 0.000000
0.000000 0.074554 0.000000
0.000000 0.074554 0.000000
0.000000 0.074554 0.000000
0.000000 0.074554 0.000000
0.000000 0.074554 0.000000
0.074554 0.052551 0.000000
0.119110 0.034241 0.000000
0.173248 0.046326 0.000000
0.226349 0.057922 0.000000
0.278595 0.069336 0.000000
0.330322 0.074615 0.000000
0.381714 0.074615 0.000000
0.432800 0.074615 0.000000
0.483673 0.074615 0.000000
0.534424 0.074554 0.000000
0.585205 0.074615 0.000000
0.635559 0.074493 0.000000
0.685242 0.074524 0.000000
0.733887 0.074615 0.000000
0.781128 0.074493 0.000000
0.826691 0.074554 0.000000
0.870239 0.074493 0.000000
0.911591 0.074615 0.000000
0.950409 0.074493 0.000000
0.986481 0.074493 0.000000
1.000000 0.074646 0.000000
1.000000 0.074493 0.000000
0.000000 0.102844 0.000000
0.000000 0.102844 0.000000
0.000000 0.102844 0.000000
0.000000 0.102844 0.000000
0.000000 0.102844 0.000000
0.000000 0.102844 0.000000
0.000000 0.102844 0.000000
0.000000 0.102844 0.000000
0.000000 0.102844 0.000000
0.000000 0.102844 0.000000
0.000000 0.102844 0.000000
0.000000 0.102844 0.000000
0.096985 0.102844 0.000000
0.119110 0.049072 0.000000
0.173248 0.049316 0.000000
0.226349 0.061035 0.000000
0.278595 0.072388 0.000000
0.330322 0.083588 0.000000
0.381714 0.094666 0.000000
0.432800 0.102783 0.000000
0.483673 0.102905 0.000000
0.534424 0.102936 0.000000
0.585205 0.102905 0.000000
0.635559 0.102905 0.000000
0.685242 0.102783 0.000000
0.733887 0.102783 0.000000
0.781128 0.102844 0.000000
0.826691 0.102844 0.000000
0.870239 0.102966 0.000000
0.911591 0.102814 0.000000
0.950409 0.102783 0.000000
0.986481 0.102966 0.000000
1.000000 0.102905 0.000000
1.000000 0.102936 0.000000
0.000000 0.132050 0.000000
0.000000 0.132050 0.000000
0.000000 0.132050 0.000000
0.000000 0.132050 0.000000
0.000000 0.132050 0.000000
0.000000 0.132050 0.000000
0.000000 0.132050 0.000000
0.000000 0.132050 0.000000
0.000000 0.132050 0.000000
0.000000 0.132050 0.000000
0.000000 0.132050 0.000000
0.000000 0.132050 0.000000
0.090515 0.132050 0.000000
0.132050 0.085236 0.000000
0.173248 0.054016 0.000000
0.226349 0.064087 0.000000
0.278595 0.075500 0.000000
0.330322 0.086731 0.000000
0.381714 0.097900 0.000000
0.432800 0.108887 0.000000
0.483673 0.119751 0.000000
0.534424 0.130585 0.000000
0.585205 0.131989 0.000000
0.635559 0.131989 0.000000
0.685242 0.131989 0.000000
0.733887 0.132080 0.000000
0.781128 0.132050 0.000000
0.826691 0.132050 0.000000
0.870239 0.131958 0.000000
0.911591 0.132050 0.000000
0.950409 0.132111 0.000000
0.986481 0.131989 0.000000
1.000000 0.132019 0.000000
1.000000 0.131989 0.000000
0.000000 0.162018 0.000000
0.000000 0.162018 0.000000
0.000000 0.162018 0.000000
0.000000 0.162018 0.000000
0.000000 0.162018 0.000000
0.000000 0.162018 0.000000
0.000000 0.162018 0.000000
0.000000 0.162018 0.000000
0.000000 0.162018 0.000000
0.000000 0.162018 0.000000
0.000000 0.162018 0.000000
0.000000 0.162018 0.000000
0.083923 0.162018 0.000000
0.162018 0.132782 0.000000
0.173248 0.083649 0.000000
0.226349 0.067291 0.000000
0.278595 0.078613 0.000000
0.330322 0.089905 0.000000
0.381714 0.101013 0.000000
0.432800 0.111969 0.000000
0.483673 0.122894 0.000000
0.534424 0.133698 0.000000
0.585205 0.144470 0.000000
0.635559 0.155060 0.000000
0.685242 0.161957 0.000000
0.733887 0.162048 0.000000
0.781128 0.162079 0.000000
0.826691 0.161957 0.000000
0.870239 0.162079 0.000000
0.911591 0.162079 0.000000
0.950409 0.162018 0.000000
0.986481 0.162109 0.000000
1.000000 0.161987 0.000000
1.000000 0.161957 0.000000
0.000000 0.192627 0.000000
0.000000 0.192627 0.000000
0.000000 0.192627 0.000000
0.000000 0.192627 0.000000
0.000000 0.192627 0.000000
0.000000 0.192627 0.000000
0.000000 0.192627 0.000000
0.000000 0.192627 0.000000
0.000000 0.192627 0.000000
0.000000 0.192627 0.000000
0.000000 0.192627 0.000000
0.000000 0.192627 0.000000
0.077209 0.192627 0.000000
0.184540 0.192627 0.000000
0.192627 0.124573 0.000000
0.226349 0.090424 0.000000
0.278595 0.081909 0.000000
0.330322 0.093109 0.000000
0.381714 0.104218 0.000000
0.432800 0.115204 0.000000
0.483673 0.126282 0.000000
0.534424 0.136902 0.000000
0.585205 0.147705 0.000000
0.635559 0.158417 0.000000
0.685242 0.168976 0.000000
0.733887 0.179626 0.000000
0.781128 0.190186 0.000000
0.826691 0.192535 0.000000
0.870239 0.192535 0.000000
0.911591 0.192596 0.000000
0.950409 0.192688 0.000000
0.986481 0.192596 0.000000
1.000000 0.192566 0.000000
1.000000 0.192535 0.000000
0.000000 0.223877 0.000000
0.000000 0.223877 0.000000
0.000000 0.223877 0.000000
0.000000 0.223877 0.000000
0.000000 0.223877 0.000000
0.000000 0.223877 0.000000
0.000000 0.223877 0.000000
0.000000 0.223877 0.000000
0.000000 0.223877 0.000000
0.000000 0.223877 0.000000
0.000000 0.223877 0.000000
0.000000 0.223877 0.000000
0.070435 0.223877 0.000000
0.177643 0.223877 0.000000
0.223877 0.172668 0.000000
0.226349 0.121277 0.000000
0.278595 0.098175 0.000000
0.330322 0.096405 0.000000
0.381714 0.107574 0.000000
0.432800 0.118561 0.000000
0.483673 0.129547 0.000000
0.534424 0.140350 0.000000
0.585205 0.151062 0.000000
0.635559 0.161774 0.000000
0.685242 0.172455 0.000000
0.733887 0.182953 0.000000
0.781128 0.193542 0.000000
0.826691 0.203888 0.000000
0.870239 0.214264 0.000000
0.911591 0.223907 0.000000
0.950409 0.223785 0.000000
0.986481 0.223907 0.000000
1.000000 0.223785 0.000000
1.000000 0.223785 0.000000
0.000000 0.255676 0.000000
0.000000 0.255676 0.000000
0.000000 0.255676 0.000000
0.000000 0.255676 0.000000
0.000000 0.255676 0.000000
0.000000 0.255676 0.000000
0.000000 0.255676 0.000000
0.000000 0.255676 0.000000
0.000000 0.255676 0.000000
0.000000 0.255676 0.000000
0.000000 0.255676 0.000000
0.000000 0.255676 0.000000
0.063507 0.255676 0.000000
0.170654 0.255676 0.000000
0.255676 0.236816 0.000000
0.255676 0.168701 0.000000
0.278595 0.129547 0.000000
0.330322 0.106720 0.000000
0.381714 0.110962 0.000000
0.432800 0.121887 0.000000
0.483673 0.132812 0.000000
0.534424 0.143677 0.000000
0.585205 0.154449 0.000000
0.635559 0.165131 0.000000
0.685242 0.175751 0.000000
0.733887 0.186279 0.000000
0.781128 0.196930 0.000000
0.826691 0.207306 0.000000
0.870239 0.217834 0.000000
0.911591 0.228149 0.000000
0.950409 0.238525 0.000000
0.986481 0.248749 0.000000
1.000000 0.255646 0.000000
1.000000 0.255676 0.000000
0.000000 0.287994 0.000000
0.000000 0.287994 0.000000
0.000000 0.287994 0.000000
0.000000 0.287994 0.000000
0.000000 0.287994 0.000000
0.000000 0.287994 0.000000
0.000000 0.287994 0.000000
0.000000 0.287994 0.000000
0.000000 0.287994 0.000000
0.000000 0.287994 0.000000
0.000000 0.287994 0.000000
0.000000 0.287994 0.000000
0.062897 0.287994 0.000000
0.163696 0.287994 0.000000
0.267517 0.287994 0.000000
0.287994 0.218292 0.000000
0.287994 0.166351 0.000000
0.330322 0.138489 0.000000
0.381714 0.115967 0.000000
0.432800 0.125366 0.000000
0.483673 0.136292 0.000000
0.534424 0.147064 0.000000
0.585205 0.157837 0.000000
0.635559 0.168488 0.000000
0.685242 0.179169 0.000000
0.733887 0.189819 0.000000
0.781128 0.200317 0.000000
0.826691 0.210693 0.000000
0.870239 0.221222 0.000000
0.911591 0.231537 0.000000
0.950409 0.241821 0.000000
0.986481 0.252167 0.000000
1.000000 0.262604 0.000000
1.000000 0.272919 0.000000
0.000000 0.320831 0.000000
0.000000 0.320831 0.000000
0.000000 0.320831 0.000000
0.000000 0.320831 0.000000
0.000000 0.320831 0.000000
0.000000 0.320831 0.000000
0.000000 0.320831 0.000000
0.000000 0.320831 0.000000
0.000000 0.320831 0.000000
0.000000 0.320831 0.000000
0.000000 0.320831 0.000000
0.000000 0.320831 0.000000
0.062897 0.320831 0.000000
0.156555 0.320831 0.000000
0.260101 0.320831 0.000000
0.320831 0.279541 0.000000
0.320831 0.216614 0.000000
0.330322 0.170746 0.000000
0.381714 0.148163 0.000000
0.432800 0.128815 0.000000
0.483673 0.139709 0.000000
0.534424 0.150513 0.000000
0.585205 0.161346 0.000000
0.635559 0.171967 0.000000
0.685242 0.182617 0.000000
0.733887 0.193176 0.000000
0.781128 0.203674 0.000000
0.826691 0.214081 0.000000
0.870239 0.224609 0.000000
0.911591 0.235077 0.000000
0.950409 0.245331 0.000000
0.986481 0.255859 0.000000
1.000000 0.266205 0.000000
1.000000 0.276428 0.000000
0.000000 0.354126 0.000000
0.000000 0.354126 0.000000
0.000000 0.354126 0.000000
0.000000 0.354126 0.000000
0.000000 0.354126 0.000000
0.000000 0.354126 0.000000
0.000000 0.354126 0.000000
0.000000 0.354126 0.000000
0.000000 0.354126 0.000000
0.000000 0.354126 0.000000
0.000000 0.354126 0.000000
0.000000 0.354126 0.000000
0.062897 0.354126 0.000000
0.149292 0.354126 0.000000
0.252960 0.354126 0.000000
0.354126 0.353149 0.000000
0.354126 0.267639 0.000000
0.354126 0.216278 0.000000
0.381714 0.180664 0.000000
0.432800 0.158356 0.000000
0.483673 0.143158 0.000000
0.534424 0.154022 0.000000
0.585205 0.164703 0.000000
0.635559 0.175507 0.000000
0.685242 0.186218 0.000000
0.733887 0.196716 0.000000
0.781128 0.207275 0.000000
0.826691 0.217682 0.000000
0.870239 0.228149 0.000000
0.911591 0.238647 0.000000
0.950409 0.248871 0.000000
0.986481 0.259277 0.000000
1.000000 0.269592 0.000000
1.000000 0.279907 0.000000
0.000000 0.387848 0.000000
0.000000 0.387848 0.000000
0.000000 0.387848 0.000000
0.000000 0.387848 0.000000
0.000000 0.387848 0.000000
0.000000 0.387848 0.000000
0.000000 0.387848 0.000000
0.000000 0.387848 0.000000
0.000000 0.387848 0.000000
0.000000 0.387848 0.000000
0.000000 0.387848 0.000000
0.000000 0.387848 0.000000
0.062927 0.387848 0.000000
0.142059 0.387848 0.000000
0.245483 0.387848 0.000000
0.347534 0.387848 0.000000
0.387848 0.327484 0.000000
0.387848 0.267700 0.000000
0.387848 0.217041 0.000000
0.432800 0.191376 0.000000
0.483673 0.169128 0.000000
0.534424 0.157440 0.000000
0.585205 0.168365 0.000000
0.635559 0.179016 0.000000
0.685242 0.189697 0.000000
0.733887 0.200195 0.000000
0.781128 0.210663 0.000000
0.826691 0.221283 0.000000
0.870239 0.231567 0.000000
0.911591 0.242218 0.000000
0.950409 0.252625 0.000000
0.986481 0.263000 0.000000
1.000000 0.273193 0.000000
1.000000 0.283417 0.000000
0.000000 0.421967 0.000000
0.000000 0.421967 0.000000
0.000000 0.421967 0.000000
0.000000 0.421967 0.000000
0.000000 0.421967 0.000000
0.000000 0.421967 0.000000
0.000000 0.421967 0.000000
0.000000 0.421967 0.000000
0.000000 0.421967 0.000000
0.000000 0.421967 0.000000
0.000000 0.421967 0.000000
0.000000 0.421967 0.000000
0.062866 0.421967 0.000000
0.134735 0.421967 0.000000
0.238190 0.421967 0.000000
0.339966 0.421967 0.000000
0.421967 0.403015 0.000000
0.421967 0.319977 0.000000
0.421967 0.268982 0.000000
0.432800 0.224640 0.000000
0.483673 0.202423 0.000000
0.534424 0.180420 0.000000
0.585205 0.171875 0.000000
0.635559 0.182495 0.000000
0.685242 0.193146 0.000000
0.733887 0.203735 0.000000
0.781128 0.214386 0.000000
0.826691 0.224854 0.000000
0.870239 0.235382 0.000000
0.911591 0.245789 0.000000
0.950409 0.256134 0.000000
0.986481 0.266449 0.000000
1.000000 0.276764 0.000000
1.000000 0.287201 0.000000
0.000000 0.456573 0.000000
0.000000 0.456573 0.000000
0.000000 0.456573 0.000000
0.000000 0.456573 0.000000
0.000000 0.456573 0.000000
0.000000 0.456573 0.000000
0.000000 0.456573 0.000000
0.000000 0.456573 0.000000
0.000000 0.456573 0.000000
0.000000 0.456573 0.000000
0.000000 0.456573 0.000000
0.000000 0.456573 0.000000
0.062897 0.456573 0.000000
0.127380 0.456573 0.000000
0.230682 0.456573 0.000000
0.332458 0.456573 0.000000
0.433197 0.456573 0.000000
0.456573 0.380157 0.000000
0.456573 0.321625 0.000000
0.456573 0.271271 0.000000
0.483673 0.236145 0.000000
0.534424 0.214050 0.000000
0.585205 0.192169 0.000000
0.635559 0.186157 0.000000
0.685242 0.196930 0.000000
0.733887 0.207458 0.000000
0.781128 0.217987 0.000000
0.826691 0.228485 0.000000
0.870239 0.238983 0.000000
0.911591 0.249359 0.000000
0.950409 0.259674 0.000000
0.986481 0.270142 0.000000
1.000000 0.280426 0.000000
1.000000 0.290710 0.000000
0.000000 0.491516 0.000000
0.000000 0.491516 0.000000
0.000000 0.491516 0.000000
0.000000 0.491516 0.000000
0.000000 0.491516 0.000000
0.000000 0.491516 0.000000
0.000000 0.491516 0.000000
0.000000 0.491516 0.000000
0.000000 0.491516 0.000000
0.000000 0.491516 0.000000
0.000000 0.491516 0.000000
0.000000 0.491516 0.000000
0.062897 0.491516 0.000000
0.119751 0.491516 0.000000
0.223175 0.491516 0.000000
0.324951 0.491516 0.000000
0.425629 0.491516 0.000000
0.491516 0.457336 0.000000
0.491516 0.375000 0.000000
0.491516 0.324341 0.000000
0.491516 0.274292 0.000000
0.534424 0.248016 0.000000
0.585205 0.226135 0.000000
0.635559 0.204376 0.000000
0.685242 0.200378 0.000000
0.733887 0.210999 0.000000
0.781128 0.221771 0.000000
0.826691 0.232056 0.000000
0.870239 0.242554 0.000000
0.911591 0.252960 0.000000
0.950409 0.263397 0.000000
0.986481 0.273834 0.000000
1.000000 0.284027 0.000000
1.000000 0.294464 0.000000
0.000000 0.526886 0.000000
0.000000 0.526886 0.000000
0.000000 0.526886 0.000000
0.000000 0.526886 0.000000
0.000000 0.526886 0.000000
0.000000 0.526886 0.000000
0.000000 0.526886 0.000000
0.000000 0.526886 0.000000
0.000000 0.526886 0.000000
0.000000 0.526886 0.000000
0.000000 0.526886 0.000000
0.000000 0.526886 0.000000
0.062897 0.526886 0.000000
0.119080 0.526886 0.000000
0.215454 0.526886 0.000000
0.317291 0.526886 0.000000
0.418030 0.526886 0.000000
0.517914 0.526886 0.000000
0.526886 0.436646 0.000000
0.526886 0.377991 0.000000
0.526886 0.327789 0.000000
0.534424 0.282288 0.000000
0.585205 0.260345 0.000000
0.635559 0.238586 0.000000
0.685242 0.217041 0.000000
0.733887 0.214722 0.000000
0.781128 0.225128 0.000000
0.826691 0.235687 0.000000
0.870239 0.246155 0.000000
0.911591 0.256744 0.000000
0.950409 0.266907 0.000000
0.986481 0.277344 0.000000
1.000000 0.287903 0.000000
1.000000 0.298004 0.000000
0.000000 0.562744 0.000000
0.000000 0.562744 0.000000
0.000000 0.562744 0.000000
0.000000 0.562744 0.000000
0.000000 0.562744 0.000000
0.000000 0.562744 0.000000
0.000000 0.562744 0.000000
0.000000 0.562744 0.000000
0.000000 0.562744 0.000000
0.000000 0.562744 0.000000
0.000000 0.562744 0.000000
0.000000 0.562744 0.000000
0.062866 0.562744 0.000000
0.119141 0.562744 0.000000
0.207977 0.562744 0.000000
0.309662 0.562744 0.000000
0.409943 0.562744 0.000000
0.510315 0.562744 0.000000
0.562744 0.515259 0.000000
0.562744 0.432434 0.000000
0.562744 0.381927 0.000000
0.562744 0.332184 0.000000
0.585205 0.294891 0.000000
0.635559 0.273132 0.000000
0.685242 0.251434 0.000000
0.733887 0.229889 0.000000
0.781128 0.228912 0.000000
0.826691 0.239471 0.000000
0.870239 0.250000 0.000000
0.911591 0.260284 0.000000
0.950409 0.270660 0.000000
0.986481 0.281006 0.000000
1.000000 0.291504 0.000000
1.000000 0.301788 0.000000
0.000000 0.598907 0.000000
0.000000 0.598907 0.000000
0.000000 0.598907 0.000000
0.000000 0.598907 0.000000
0.000000 0.598907 0.000000
0.000000 0.598907 0.000000
0.000000 0.598907 0.000000
0.000000 0.598907 0.000000
0.000000 0.598907 0.000000
0.000000 0.598907 0.000000
0.000000 0.598907 0.000000
0.000000 0.598907 0.000000
0.062958 0.598907 0.000000
0.119110 0.598907 0.000000
0.200165 0.598907 0.000000
0.301819 0.598907 0.000000
0.402313 0.598907 0.000000
0.502380 0.598907 0.000000
0.598907 0.595245 0.000000
0.598907 0.496674 0.000000
0.598907 0.436737 0.000000
0.598907 0.386658 0.000000
0.598907 0.337158 0.000000
0.635559 0.307922 0.000000
0.685242 0.286133 0.000000
0.733887 0.264648 0.000000
0.781128 0.243256 0.000000
0.826691 0.243073 0.000000
0.870239 0.253601 0.000000
0.911591 0.264099 0.000000
0.950409 0.274445 0.000000
0.986481 0.284973 0.000000
1.000000 0.295166 0.000000
1.000000 0.305573 0.000000
0.000000 0.635284 0.000000
0.000000 0.635284 0.000000
0.000000 0.635284 0.000000
0.000000 0.635284 0.000000
0.000000 0.635284 0.000000
0.000000 0.635284 0.000000
0.000000 0.635284 0.000000
0.000000 0.635284 0.000000
0.000000 0.635284 0.000000
0.000000 0.635284 0.000000
0.000000 0.635284 0.000000
0.000000 0.635284 0.000000
0.062897 0.635284 0.000000
0.119049 0.635284 0.000000
0.192657 0.635284 0.000000
0.294006 0.635284 0.000000
0.394226 0.635284 0.000000
0.494232 0.635284 0.000000
0.594421 0.635284 0.000000
0.635284 0.576935 0.000000
0.635284 0.492310 0.000000
0.635284 0.441833 0.000000
0.635284 0.392059 0.000000
0.635559 0.343231 0.000000
0.685242 0.321320 0.000000
0.733887 0.299713 0.000000
0.781128 0.278259 0.000000
0.826691 0.256897 0.000000
0.870239 0.257416 0.000000
0.911591 0.267914 0.000000
0.950409 0.278229 0.000000
0.986481 0.288391 0.000000
1.000000 0.298767 0.000000
1.000000 0.309357 0.000000
0.000000 0.671661 0.000000
0.000000 0.671661 0.000000
0.000000 0.671661 0.000000
0.000000 0.671661 0.000000
0.000000 0.671661 0.000000
0.000000 0.671661 0.000000
0.000000 0.671661 0.000000
0.000000 0.671661 0.000000
0.000000 0.671661 0.000000
0.000000 0.671661 0.000000
0.000000 0.671661 0.000000
0.000000 0.671661 0.000000
0.062927 0.671661 0.000000
0.119171 0.671661 0.000000
0.184814 0.671661 0.000000
0.286163 0.671661 0.000000
0.386353 0.671661 0.000000
0.486328 0.671661 0.000000
0.586243 0.671661 0.000000
0.671661 0.658051 0.000000
0.671661 0.560181 0.000000
0.671661 0.497681 0.000000
0.671661 0.447662 0.000000
0.671661 0.398224 0.000000
0.685242 0.356842 0.000000
0.733887 0.335114 0.000000
0.781128 0.313599 0.000000
0.826691 0.292267 0.000000
0.870239 0.270996 0.000000
0.911591 0.271729 0.000000
0.950409 0.282013 0.000000
0.986481 0.292389 0.000000
1.000000 0.302673 0.000000
1.000000 0.313141 0.000000
0.000000 0.707825 0.000000
0.000000 0.707825 0.000000
0.000000 0.707825 0.000000
0.000000 0.707825 0.000000
0.000000 0.707825 0.000000
0.000000 0.707825 0.000000
0.000000 0.707825 0.000000
0.000000 0.707825 0.000000
0.000000 0.707825 0.000000
0.000000 0.707825 0.000000
0.000000 0.707825 0.000000
0.000000 0.707825 0.000000
0.062927 0.707825 0.000000
0.119141 0.707825 0.000000
0.176910 0.707825 0.000000
0.278442 0.707825 0.000000
0.378601 0.707825 0.000000
0.478241 0.707825 0.000000
0.578186 0.707825 0.000000
0.677002 0.707825 0.000000
0.707825 0.641785 0.000000
0.707825 0.554504 0.000000
0.707825 0.503937 0.000000
0.707825 0.454193 0.000000
0.707825 0.405060 0.000000
0.733887 0.370880 0.000000
0.781128 0.349274 0.000000
0.826691 0.327850 0.000000
0.870239 0.306580 0.000000
0.911591 0.285400 0.000000
0.950409 0.285797 0.000000
0.986481 0.296112 0.000000
1.000000 0.306549 0.000000
1.000000 0.316925 0.000000
0.000000 0.743713 0.000000
0.000000 0.743713 0.000000
0.000000 0.743713 0.000000
0.000000 0.743713 0.000000
0.000000 0.743713 0.000000
0.000000 0.743713 0.000000
0.000000 0.743713 0.000000
0.000000 0.743713 0.000000
0.000000 0.743713 0.000000
0.000000 0.743713 0.000000
0.000000 0.743713 0.000000
0.000000 0.743713 0.000000
0.062958 0.743713 0.000000
0.119049 0.743713 0.000000
0.173309 0.743713 0.000000
0.270569 0.743713 0.000000
0.370483 0.743713 0.000000
0.470093 0.743713 0.000000
0.569763 0.743713 0.000000
0.668823 0.743713 0.000000
0.743713 0.722504 0.000000
0.743713 0.626526 0.000000
0.743713 0.560974 0.000000
0.743713 0.510803 0.000000
0.743713 0.461273 0.000000
0.743713 0.412354 0.000000
0.781128 0.385284 0.000000
0.826691 0.363739 0.000000
0.870239 0.342255 0.000000
0.911591 0.321136 0.000000
0.950409 0.299927 0.000000
0.986481 0.300049 0.000000
1.000000 0.310425 0.000000
1.000000 0.320709 0.000000
0.000000 0.779175 0.000000
0.000000 0.779175 0.000000
0.000000 0.779175 0.000000
0.000000 0.779175 0.000000
0.000000 0.779175 0.000000
0.000000 0.779175 0.000000
0.000000 0.779175 0.000000
0.000000 0.779175 0.000000
0.000000 0.779175 0.000000
0.000000 0.779175 0.000000
0.000000 0.779175 0.000000
0.000000 0.779175 0.000000
0.062897 0.779175 0.000000
0.119110 0.779175 0.000000
0.173218 0.779175 0.000000
0.262817 0.779175 0.000000
0.362701 0.779175 0.000000
0.461975 0.779175 0.000000
0.561707 0.779175 0.000000
0.660919 0.779175 0.000000
0.756775 0.779175 0.000000
0.779175 0.708313 0.000000
0.779175 0.618439 0.000000
0.779175 0.568207 0.000000
0.779175 0.518250 0.000000
0.779175 0.468964 0.000000
0.781128 0.421478 0.000000
0.826691 0.399994 0.000000
0.870239 0.378357 0.000000
0.911591 0.357025 0.000000
0.950409 0.335876 0.000000
0.986481 0.314941 0.000000
1.000000 0.314301 0.000000
1.000000 0.324493 0.000000
0.000000 0.813904 0.000000
0.000000 0.813904 0.000000
0.000000 0.813904 0.000000
0.000000 0.813904 0.000000
0.000000 0.813904 0.000000
0.000000 0.813904 0.000000
0.000000 0.813904 0.000000
0.000000 0.813904 0.000000
0.000000 0.813904 0.000000
0.000000 0.813904 0.000000
0.000000 0.813904 0.000000
0.000000 0.813904 0.000000
0.062927 0.813904 0.000000
0.119049 0.813904 0.000000
0.173309 0.813904 0.000000
0.254425 0.813904 0.000000
0.354279 0.813904 0.000000
0.453918 0.813904 0.000000
0.553436 0.813904 0.000000
0.652344 0.813904 0.000000
0.748779 0.813904 0.000000
0.813904 0.787964 0.000000
0.813904 0.694824 0.000000
0.813904 0.625977 0.000000
0.813904 0.575836 0.000000
0.813904 0.526154 0.000000
0.813904 0.477203 0.000000
0.826691 0.436401 0.000000
0.870239 0.414795 0.000000
0.911591 0.393524 0.000000
