core-styles/JC.cube
#Created by: Adobe Photoshop Export Color Lookup Plugin
#Copyright: (C) Copyright 2026 汉图
TITLE "mint本征源文件-适配lut筛选.psd"
#LUT size
LUT_3D_SIZE 4
#data domain
DOMAIN_MIN 0.0 0.0 0.0
DOMAIN_MAX 1.0 1.0 1.0
#LUT data points
0.000000 0.000000 0.000000
0.000000 0.000000 0.000000
0.585205 0.000000 0.000000
1.000000 0.000000 0.000000
0.000000 0.320831 0.000000
0.000000 0.320831 0.000000
0.585205 0.161346 0.000000
1.000000 0.276428 0.000000
0.000000 0.707825 0.000000
0.000000 0.707825 0.000000
0.707825 0.503937 0.000000
1.000000 0.316925 0.000000
0.000000 1.000000 0.000000
0.000000 1.000000 0.000000
0.865479 1.000000 0.000000
1.000000 0.608734 0.000000
0.052795 0.000000 0.359314
0.052979 0.000000 0.359314
0.585205 0.000000 0.359314
1.000000 0.000000 0.359222
0.000000 0.284332 0.359314
0.000000 0.284485 0.359497
0.646484 0.261597 0.317352
1.000000 0.320831 0.359314
0.000000 0.707825 0.396362
0.000000 0.708069 0.396332
0.741272 0.736115 0.325897
1.000000 0.565460 0.359314
0.000000 1.000000 0.375305
0.000000 1.000000 0.375458
0.621185 1.000000 0.359314
1.000000 0.775238 0.359314
0.106781 0.000000 0.737518
0.106995 0.000000 0.737518
0.585266 0.000000 0.737518
1.000000 0.000000 0.737640
0.000000 0.226074 0.737518
0.000000 0.226135 0.737732
0.622009 0.262665 0.794769
1.000000 0.320831 0.737457
0.000000 0.632568 0.737518
0.000000 0.632782 0.737732
0.568329 0.699402 0.753723
1.000000 0.707825 0.737518
0.000000 1.000000 0.825256
0.000000 1.000000 0.825043
0.585205 1.000000 0.740387
1.000000 0.927399 0.737518
0.161407 0.000000 1.000000
0.161652 0.000000 1.000000
0.664764 0.000000 1.000000
1.000000 0.000000 1.000000
0.000000 0.162476 1.000000
0.000000 0.162384 1.000000
0.688568 0.320831 1.000000
1.000000 0.320831 1.000000
0.000000 0.581879 1.000000
0.000000 0.581970 1.000000
0.585205 0.627838 1.000000
1.000000 0.707825 1.000000
0.000000 0.972748 1.000000
0.000000 0.972778 1.000000
0.585205 1.000000 1.000000
1.000000 1.000000 1.000000
