core-styles/PB.cube
#Created by: Adobe Photoshop Export Color Lookup Plugin
#Copyright: (C) Copyright 2026 汉图
TITLE "mint本征源文件-适配lut筛选.psd"
#LUT size
LUT_3D_SIZE 34
#data domain
DOMAIN_MIN 0.0 0.0 0.0
DOMAIN_MAX 1.0 1.0 1.0
#LUT data points
0.020538 0.032379 0.028870
0.026245 0.032990 0.029541
0.033051 0.033875 0.030518
0.043365 0.034760 0.031464
0.053833 0.035828 0.032745
0.065826 0.036865 0.034363
0.078918 0.037842 0.036011
0.093262 0.038574 0.037598
0.109436 0.038818 0.039246
0.127747 0.038544 0.040924
0.148041 0.037872 0.042450
0.170502 0.036316 0.044067
0.195496 0.033142 0.046051
0.222870 0.028839 0.048126
0.252838 0.022766 0.050171
0.285431 0.014252 0.052155
0.320374 0.003510 0.054382
0.357941 0.000122 0.056732
0.397827 0.000000 0.059235
0.439301 0.000000 0.061432
0.482361 0.000000 0.064026
0.525726 0.000000 0.066467
0.568695 0.000000 0.069427
0.611023 0.000000 0.072449
0.652618 0.000000 0.075653
0.692993 0.000000 0.079315
0.734039 0.000000 0.084076
0.774811 0.000000 0.090179
0.810730 0.000000 0.097076
0.842865 0.000000 0.104828
0.872192 0.000000 0.113983
0.899261 0.000000 0.124390
0.924622 0.002533 0.136841
0.948395 0.042023 0.151428
0.022308 0.040894 0.033691
0.026917 0.041199 0.033997
0.033936 0.042053 0.034210
0.042694 0.043365 0.035461
0.053589 0.044373 0.036438
0.065582 0.045013 0.037659
0.078674 0.045807 0.038849
0.093384 0.046204 0.039978
0.109802 0.046265 0.041260
0.127838 0.046082 0.042786
0.148041 0.045471 0.044250
0.170685 0.044128 0.045776
0.195374 0.041565 0.047607
0.222473 0.037750 0.049438
0.252228 0.032501 0.051605
0.284607 0.024536 0.053528
0.319397 0.014587 0.055664
0.356750 0.001099 0.057953
0.396576 0.000031 0.060333
0.437958 0.000000 0.062683
0.480530 0.000000 0.065308
0.523529 0.000000 0.067902
0.566101 0.000000 0.070648
0.608124 0.000000 0.073517
0.649567 0.000000 0.076508
0.690460 0.000000 0.080139
0.731384 0.000000 0.084900
0.770966 0.000000 0.090790
0.806183 0.000000 0.097412
0.838013 0.000000 0.104767
0.867249 0.000000 0.113434
0.894470 0.000000 0.123871
0.920013 0.003571 0.135864
0.943970 0.057739 0.150269
0.025024 0.049652 0.039886
0.029999 0.049225 0.040680
0.034393 0.050201 0.040070
0.042877 0.051422 0.039795
0.053284 0.052429 0.039978
0.065735 0.053009 0.040710
0.079254 0.053619 0.041504
0.094025 0.053955 0.042480
0.110382 0.053986 0.043701
0.128571 0.053925 0.044922
0.148865 0.053497 0.046173
0.171478 0.052368 0.047638
0.196167 0.050476 0.049469
0.223297 0.047577 0.051270
0.252991 0.043182 0.053162
0.285187 0.036316 0.055328
0.319916 0.027069 0.057556
0.357117 0.014191 0.059784
0.396515 0.000092 0.061676
0.437744 0.000000 0.064209
0.480133 0.000000 0.066711
0.523102 0.000000 0.069183
0.565674 0.000000 0.071991
0.607544 0.000000 0.074768
0.648682 0.000000 0.078003
0.689941 0.000000 0.081696
0.730743 0.000000 0.086243
0.769257 0.000000 0.091797
0.803864 0.000000 0.098206
0.835480 0.000000 0.105652
0.864685 0.000000 0.114319
0.891876 0.000000 0.124481
0.917419 0.005127 0.136292
0.941498 0.081512 0.150757
0.027100 0.060394 0.046417
0.032990 0.059601 0.047546
0.037018 0.059906 0.047821
0.043976 0.061127 0.046417
0.054504 0.062500 0.045654
0.066589 0.063110 0.045044
0.080383 0.063629 0.045288
0.095367 0.064056 0.045807
0.111877 0.064240 0.046844
0.130310 0.064209 0.048004
0.150787 0.064056 0.049103
0.173401 0.063477 0.050293
0.198212 0.062225 0.051880
0.225311 0.060242 0.053802
0.254700 0.057190 0.055511
0.286713 0.052185 0.057526
0.321075 0.044983 0.059723
0.357941 0.033630 0.061707
0.396698 0.018921 0.063782
0.437469 0.001099 0.066162
0.479187 0.000031 0.068604
0.521545 0.000000 0.071136
0.563690 0.000000 0.073822
0.605530 0.000000 0.076660
0.646912 0.000000 0.079712
0.688965 0.000000 0.083496
0.730103 0.000000 0.088043
0.768158 0.000000 0.093597
0.802643 0.000000 0.099884
0.834259 0.000000 0.107300
0.863464 0.000000 0.116150
0.890503 0.007111 0.126373
0.915741 0.051544 0.138184
0.939423 0.111206 0.152557
0.028900 0.072510 0.053558
0.035492 0.071716 0.054901
0.041168 0.070892 0.056183
0.046326 0.071777 0.055359
0.054962 0.073364 0.053619
0.067627 0.074951 0.052185
0.081390 0.075500 0.051300
0.096588 0.075989 0.050903
0.113373 0.076538 0.051117
0.131836 0.076904 0.051941
0.152466 0.077057 0.052917
0.175171 0.077087 0.054077
0.200043 0.076630 0.055450
0.227234 0.075500 0.057129
0.256622 0.073608 0.058899
0.288696 0.070374 0.060669
0.323242 0.065186 0.062836
0.360046 0.057495 0.064575
0.399109 0.045807 0.066742
0.439514 0.030273 0.069122
0.481110 0.010986 0.071503
0.523102 0.000427 0.073792
0.564819 0.000000 0.076416
0.606293 0.000000 0.079254
0.648163 0.000000 0.082367
0.690308 0.000000 0.086060
0.731079 0.000000 0.090668
0.768341 0.000000 0.096191
0.802277 0.000000 0.102600
0.833435 0.000000 0.110046
0.862274 0.010986 0.118835
0.888947 0.051727 0.129028
0.913879 0.099884 0.140961
0.937195 0.143494 0.155334
0.030884 0.086639 0.062134
0.037689 0.085938 0.063171
0.044678 0.084808 0.064758
0.051575 0.084381 0.065704
0.057983 0.086060 0.064178
0.068634 0.087830 0.062195
0.083221 0.089783 0.060303
0.098724 0.090668 0.059509
0.115906 0.091309 0.058838
0.135010 0.092102 0.058472
0.155792 0.092804 0.058502
0.178772 0.093323 0.059143
0.203918 0.093597 0.060272
0.231415 0.093353 0.061493
0.261108 0.092407 0.063263
0.293274 0.090424 0.064941
0.328186 0.087128 0.066895
0.365204 0.082001 0.068756
0.404358 0.074310 0.070801
0.444824 0.064270 0.073029
0.486145 0.050934 0.075104
0.527771 0.034271 0.077515
0.569244 0.017059 0.079987
0.626282 0.007080 0.084534
0.672852 0.004059 0.088501
0.715424 0.009155 0.093140
0.754974 0.022919 0.098572
0.790222 0.041290 0.104889
0.821991 0.060944 0.112183
0.850891 0.080444 0.120728
0.877533 0.099518 0.130463
0.902130 0.137360 0.141693
0.925110 0.171570 0.154938
0.946564 0.203644 0.170349
0.033356 0.105530 0.073517
0.041321 0.104645 0.074585
0.049469 0.103638 0.075989
0.058350 0.102417 0.077728
0.065735 0.102692 0.077972
0.074158 0.104797 0.075836
0.086609 0.106903 0.073425
0.103973 0.109406 0.071381
0.122009 0.110687 0.070251
0.141937 0.111755 0.069550
0.163971 0.112946 0.069000
0.188141 0.114044 0.068634
0.214386 0.114929 0.068542
0.242584 0.115387 0.068420
0.273041 0.115173 0.069519
0.305908 0.113922 0.071106
0.341248 0.111816 0.072784
0.378448 0.108673 0.074524
0.417664 0.103790 0.076355
0.458160 0.097626 0.078339
0.499603 0.090118 0.080353
0.541443 0.081055 0.082947
0.583313 0.071472 0.085358
0.627869 0.062561 0.088684
0.681427 0.059265 0.093536
0.724792 0.063873 0.098267
0.763519 0.076721 0.104248
0.797699 0.096832 0.110992
0.828156 0.119415 0.118500
0.855743 0.143280 0.127350
0.881104 0.167297 0.137604
0.904572 0.192352 0.149384
0.926453 0.218079 0.163208
0.947052 0.244202 0.178925
0.036652 0.125519 0.086029
0.045227 0.124664 0.087067
0.053925 0.123810 0.088287
0.064087 0.122528 0.090118
0.073975 0.121277 0.092102
0.081940 0.122589 0.090973
0.092224 0.124969 0.088562
0.106628 0.127441 0.085785
0.126465 0.130524 0.083679
0.146881 0.132385 0.082367
0.169617 0.134155 0.081696
0.194611 0.135834 0.081146
0.222015 0.137329 0.080566
0.251251 0.138458 0.079529
0.282501 0.139160 0.079102
0.315674 0.139008 0.079010
0.351013 0.138000 0.079498
0.388153 0.136414 0.080872
0.427063 0.133698 0.082489
0.467194 0.130280 0.084259
0.508118 0.126221 0.086273
0.549591 0.121948 0.088562
0.593231 0.118652 0.091278
0.637787 0.118103 0.094482
0.682068 0.120239 0.098572
0.723969 0.127563 0.103394
0.761444 0.138672 0.109039
0.794678 0.153320 0.115906
0.824463 0.169891 0.123474
0.851532 0.187988 0.132202
0.876526 0.207458 0.142548
0.899719 0.228180 0.154449
0.921478 0.250305 0.168335
0.941986 0.273376 0.184052
0.040283 0.146790 0.099548
0.049103 0.146118 0.100342
0.058624 0.145264 0.101562
0.069458 0.144104 0.103333
0.081085 0.142517 0.105591
0.091522 0.141785 0.106964
0.100250 0.144043 0.105011
0.112396 0.146606 0.102295
0.128845 0.149384 0.099121
0.150482 0.153137 0.096649
0.173340 0.155762 0.095459
0.198853 0.158234 0.094727
0.226471 0.160522 0.094055
0.256531 0.162415 0.093323
0.288879 0.163940 0.092407
0.322754 0.165100 0.091156
0.358124 0.165344 0.089996
0.394958 0.165039 0.089264
0.433380 0.164368 0.089539
0.473083 0.163025 0.090912
0.513306 0.161591 0.092926
0.556061 0.161072 0.095093
0.599457 0.161835 0.097717
0.643433 0.164642 0.100983
0.686188 0.170410 0.105103
0.725616 0.178467 0.109955
0.761169 0.189148 0.115662
0.793152 0.201599 0.122223
0.821991 0.215759 0.130005
0.848419 0.231171 0.139038
0.872925 0.247742 0.149597
0.895752 0.265839 0.161713
0.917236 0.285126 0.175812
0.937531 0.305664 0.191925
0.044586 0.170929 0.114349
0.054108 0.170135 0.115082
0.063843 0.169312 0.116241
0.075592 0.168182 0.117981
0.088409 0.166626 0.120026
0.101074 0.165009 0.122528
0.111359 0.165222 0.122955
0.121521 0.167908 0.120270
0.135345 0.170776 0.117340
0.153595 0.173950 0.113800
0.177124 0.178284 0.110901
0.202911 0.181732 0.109558
0.230988 0.184875 0.108673
0.261292 0.187775 0.107880
0.294220 0.190186 0.106995
0.329529 0.192474 0.106201
0.365875 0.194092 0.104828
0.403687 0.195496 0.102875
0.441925 0.196350 0.100983
0.482300 0.197601 0.100220
0.523315 0.198883 0.100983
0.565369 0.200867 0.103241
0.608063 0.204193 0.105621
0.649902 0.209106 0.108704
0.689636 0.215729 0.112579
0.726654 0.224243 0.117432
0.760406 0.234314 0.123291
0.791077 0.245605 0.130066
0.819061 0.258331 0.137726
0.844910 0.271942 0.147095
0.868958 0.286865 0.158051
0.891510 0.303040 0.170624
0.912811 0.320251 0.185120
0.932922 0.338837 0.201935
0.049286 0.196991 0.130005
0.059387 0.196198 0.130737
0.069366 0.195465 0.131897
0.081940 0.194397 0.133514
0.095734 0.192993 0.135590
0.110077 0.191223 0.138214
0.123352 0.189880 0.140839
0.133698 0.191437 0.139801
0.145508 0.194397 0.136780
0.161224 0.197723 0.133514
0.181244 0.201324 0.129791
0.206818 0.205933 0.126434
0.235474 0.210327 0.124695
0.266113 0.214142 0.123657
0.299255 0.217743 0.122742
0.334991 0.221069 0.121857
0.372864 0.224365 0.121094
0.412781 0.227875 0.120117
0.452789 0.230865 0.118011
0.494049 0.234253 0.115845
0.535187 0.237732 0.113892
0.576050 0.241547 0.113159
0.616455 0.246246 0.115112
0.655670 0.252167 0.118042
0.692841 0.259247 0.121704
0.727203 0.267548 0.126343
0.759003 0.276917 0.132233
0.788300 0.287354 0.139252
0.815460 0.298706 0.147552
0.840790 0.311096 0.156952
0.864563 0.324707 0.168335
0.886932 0.339508 0.181427
0.908142 0.355286 0.196564
0.928192 0.372223 0.214233
0.053223 0.225494 0.146820
0.063446 0.224945 0.147461
0.074646 0.224274 0.148621
0.088318 0.223297 0.150238
0.103088 0.222076 0.152344
0.118744 0.220520 0.154968
0.134552 0.218719 0.158325
0.148407 0.218170 0.160400
0.159363 0.221008 0.158142
0.173126 0.224487 0.154999
0.191040 0.228302 0.151245
0.213379 0.232452 0.147278
0.245819 0.241425 0.145416
0.279053 0.247955 0.144104
0.313538 0.253204 0.143066
0.350189 0.257996 0.142151
0.389343 0.263031 0.141449
0.430664 0.268341 0.140778
0.473022 0.273712 0.139801
0.514893 0.278870 0.138519
0.555786 0.283936 0.136383
0.594635 0.289032 0.133026
0.632263 0.294891 0.131226
0.668549 0.301636 0.131897
0.702759 0.309082 0.136078
0.734711 0.317200 0.141083
0.764221 0.325989 0.147308
0.791626 0.335236 0.154846
0.817291 0.345306 0.163361
0.841400 0.356354 0.173645
0.864136 0.368408 0.185516
0.885712 0.381256 0.199158
0.906189 0.395294 0.214996
0.925690 0.410126 0.233398
0.057281 0.259979 0.166473
0.068085 0.259369 0.167023
0.080627 0.258575 0.168091
0.095490 0.257599 0.169708
0.111816 0.256317 0.171753
0.128876 0.254944 0.174377
0.146637 0.253357 0.177734
0.163940 0.251862 0.181488
0.178162 0.252686 0.182465
0.191040 0.256683 0.179596
0.207672 0.261139 0.176392
0.228607 0.265991 0.172668
0.254425 0.271454 0.168518
0.297668 0.287994 0.169830
0.335205 0.295868 0.168182
0.374512 0.303040 0.167358
0.414917 0.309662 0.166534
0.456390 0.315948 0.165680
0.498413 0.322144 0.164825
0.539978 0.328583 0.164001
0.580872 0.335266 0.163330
0.619415 0.342010 0.161560
0.655243 0.349213 0.159088
0.688202 0.356354 0.156036
0.719208 0.363953 0.155823
0.748047 0.371704 0.161011
0.774963 0.379700 0.167877
0.800049 0.388000 0.176056
0.823517 0.396484 0.185394
0.845703 0.405579 0.196014
0.866699 0.415527 0.208832
0.886841 0.426331 0.222931
0.906067 0.437958 0.239685
0.924652 0.450531 0.258606
0.063446 0.301331 0.189667
0.075409 0.300659 0.190186
0.088959 0.299774 0.191132
0.104919 0.298584 0.192596
0.123108 0.296997 0.194519
0.142090 0.295441 0.197083
0.161560 0.293854 0.200439
0.181610 0.292236 0.204681
0.200226 0.291626 0.208496
0.215057 0.294678 0.208282
0.231262 0.300140 0.205536
0.251740 0.306152 0.202484
0.276703 0.312805 0.199127
0.306366 0.319794 0.195190
0.341064 0.327301 0.190857
0.380402 0.335754 0.188812
0.420258 0.343262 0.187866
0.460327 0.350067 0.186890
0.500488 0.356476 0.186188
0.540405 0.362915 0.185181
0.579285 0.369507 0.184479
0.617096 0.376831 0.183990
0.653137 0.384949 0.183807
0.686127 0.392822 0.182465
0.716217 0.400269 0.180084
0.744263 0.407928 0.179596
0.770477 0.415527 0.184265
0.795013 0.423218 0.192627
0.818115 0.431213 0.202362
0.840118 0.439636 0.213562
0.861023 0.448730 0.226593
0.881104 0.458710 0.241760
0.900330 0.469330 0.258911
0.918884 0.480927 0.278381
0.073700 0.342438 0.213165
0.086029 0.341888 0.213623
0.100189 0.340912 0.214508
0.116852 0.339783 0.215942
0.135895 0.338135 0.217773
0.156433 0.336243 0.220123
0.177216 0.334290 0.223236
0.198364 0.332306 0.227142
0.219604 0.330383 0.231873
0.238251 0.330566 0.234985
0.253265 0.335114 0.233154
0.271729 0.340912 0.230133
0.294189 0.347229 0.226776
0.320557 0.353851 0.222961
0.351044 0.360596 0.218445
0.385254 0.367096 0.213043
0.423981 0.375122 0.210510
0.463043 0.382568 0.209259
0.501709 0.389282 0.208405
0.540070 0.395874 0.207520
0.577789 0.402679 0.206970
0.614288 0.410187 0.206787
0.649323 0.418396 0.207367
0.682495 0.427002 0.208466
0.713409 0.435547 0.209381
0.741608 0.443634 0.209290
0.767365 0.451111 0.209106
0.791595 0.458496 0.213135
0.814209 0.465881 0.223358
0.835785 0.473572 0.235260
0.856384 0.481812 0.248688
0.876129 0.490875 0.264496
0.895233 0.500580 0.281891
0.913605 0.511292 0.302216
0.090851 0.383820 0.237762
0.102203 0.383331 0.238251
0.115967 0.382355 0.238983
0.132874 0.381012 0.240204
0.151855 0.379120 0.241821
0.172821 0.376892 0.243927
0.194427 0.374695 0.246765
0.216583 0.372620 0.250458
0.239105 0.370667 0.255066
0.260620 0.369354 0.260040
0.278839 0.371033 0.262146
0.294952 0.376556 0.259460
0.314941 0.382599 0.256226
0.338593 0.388947 0.252686
0.365753 0.395325 0.248413
0.395691 0.401093 0.242981
0.429016 0.406616 0.236725
0.466553 0.413879 0.233337
0.503845 0.421082 0.232117
0.540680 0.427979 0.231598
0.576843 0.434998 0.231201
0.612091 0.442474 0.231445
0.645844 0.450500 0.232361
0.677948 0.458710 0.234192
0.708435 0.467224 0.236725
0.737244 0.475983 0.239838
0.763824 0.484253 0.242249
0.788055 0.491608 0.243500
0.810699 0.498779 0.247650
0.831940 0.506104 0.260101
0.852356 0.514008 0.274506
0.872009 0.522705 0.290924
0.891022 0.532166 0.309814
0.909363 0.542542 0.331085
0.114685 0.423340 0.262756
0.125000 0.423218 0.263184
0.137543 0.422546 0.264069
0.153595 0.421570 0.265381
0.172302 0.420135 0.267242
0.193359 0.418427 0.269653
0.215759 0.416687 0.272705
0.238586 0.415100 0.276611
0.261810 0.413574 0.281372
0.285095 0.411987 0.286987
0.306122 0.411652 0.291473
0.323334 0.414520 0.291718
0.340271 0.419617 0.288391
0.360382 0.424652 0.284302
0.383331 0.429626 0.279510
0.409088 0.434204 0.273987
0.437622 0.438538 0.267456
0.468658 0.442810 0.260620
0.504333 0.449707 0.256775
0.540070 0.456940 0.255981
0.575287 0.464600 0.256195
0.609619 0.472504 0.257202
0.642609 0.480591 0.258820
0.674072 0.488800 0.261322
0.703918 0.497070 0.264648
0.732208 0.505463 0.268860
0.759003 0.514069 0.273987
0.784210 0.522675 0.279572
0.807587 0.530731 0.284210
0.828949 0.537811 0.289154
0.848785 0.545135 0.303589
0.867920 0.553040 0.320282
0.886383 0.561432 0.338867
0.904144 0.570740 0.359863
0.143677 0.460693 0.288116
0.152130 0.460358 0.288300
0.163727 0.459717 0.289154
0.178406 0.458832 0.290466
0.196075 0.457672 0.292328
0.215698 0.456299 0.294800
0.237396 0.454773 0.297791
0.260101 0.453278 0.301544
0.283203 0.451782 0.306183
0.306458 0.450287 0.311584
0.329407 0.448761 0.317719
0.349274 0.449036 0.321320
0.364990 0.452881 0.319305
0.382385 0.457458 0.315552
0.402466 0.462097 0.311066
0.425171 0.466370 0.305817
0.450256 0.470398 0.299866
0.477539 0.474335 0.293091
0.506989 0.478119 0.286041
0.540833 0.484802 0.281952
0.574860 0.492706 0.282410
0.607849 0.500610 0.283966
0.639801 0.508575 0.286499
0.670380 0.516541 0.289703
0.699554 0.524689 0.293884
0.727234 0.532867 0.298859
0.753571 0.541138 0.304749
0.778564 0.549652 0.311768
0.802246 0.558289 0.319550
0.824615 0.566772 0.327515
0.845245 0.574463 0.336243
0.863983 0.581909 0.352386
0.882019 0.589966 0.371216
0.899506 0.598694 0.392334
0.179047 0.498413 0.316254
0.186523 0.498291 0.316315
0.213928 0.513184 0.330078
0.227448 0.512970 0.331879
0.243134 0.511871 0.333679
0.261353 0.510437 0.335876
0.281555 0.508759 0.338715
0.302826 0.507080 0.342163
0.325073 0.505432 0.346466
0.347900 0.503754 0.351562
0.370575 0.502136 0.357422
0.392181 0.500793 0.363556
0.409882 0.501526 0.365601
0.424377 0.505066 0.361542
0.441101 0.508545 0.356842
0.459961 0.511719 0.351318
0.480957 0.514648 0.345093
0.503815 0.517303 0.338348
0.528076 0.519806 0.330811
0.554565 0.522461 0.322968
0.584259 0.527466 0.318573
0.614410 0.534027 0.319336
0.644073 0.541138 0.321930
0.672791 0.548370 0.325500
0.700256 0.555664 0.329895
0.726471 0.562866 0.335114
0.751373 0.570068 0.340912
0.775055 0.577454 0.347626
0.797729 0.585052 0.355408
0.819489 0.592987 0.364288
0.840393 0.601257 0.374298
0.860199 0.609680 0.387390
0.877899 0.617371 0.405823
0.894958 0.625549 0.426544
0.225586 0.539093 0.350281
0.232758 0.540039 0.351318
0.243805 0.541321 0.353790
0.258636 0.543823 0.357849
0.273712 0.543640 0.360260
0.290710 0.542725 0.362732
0.309448 0.541321 0.365479
0.329254 0.539795 0.368774
0.350098 0.538177 0.372620
0.371674 0.536530 0.377350
0.393402 0.534882 0.382843
0.414856 0.533234 0.389008
0.434113 0.532288 0.393982
0.449127 0.533783 0.393616
0.463287 0.536835 0.389252
0.479309 0.539703 0.384338
0.497253 0.542480 0.378906
0.516876 0.545044 0.372925
0.538483 0.547699 0.366516
0.561615 0.550446 0.359772
0.586456 0.553375 0.352539
0.613739 0.558075 0.348877
0.641968 0.564606 0.350647
0.669678 0.571838 0.354736
0.696381 0.579041 0.359772
0.721832 0.586182 0.365601
0.746094 0.593201 0.371979
0.769226 0.600311 0.379150
0.791412 0.607635 0.387329
0.812744 0.615234 0.396515
0.833344 0.623291 0.407379
0.853394 0.631744 0.419617
0.872345 0.640381 0.434875
0.889496 0.649475 0.458618
0.267578 0.570038 0.379669
0.273865 0.570953 0.380707
0.283081 0.571869 0.383026
0.294678 0.572388 0.385437
0.308258 0.572510 0.388062
0.323761 0.571930 0.390686
0.340637 0.570923 0.393433
0.358734 0.569550 0.396515
0.377869 0.568115 0.400238
0.397827 0.566559 0.404602
0.418060 0.565033 0.409790
0.438232 0.563538 0.415619
0.457764 0.561951 0.421906
0.474365 0.561584 0.425598
0.486969 0.563904 0.423004
0.500427 0.566559 0.418793
0.515594 0.569153 0.414124
0.532257 0.571655 0.408783
0.550720 0.574158 0.403076
0.570801 0.576721 0.397125
0.592438 0.579468 0.390961
0.615540 0.582367 0.384430
0.640533 0.586700 0.381317
0.666718 0.593048 0.383850
0.692474 0.600220 0.389069
0.717255 0.607330 0.395233
0.740845 0.614349 0.402191
0.763428 0.621307 0.409760
0.785126 0.628448 0.418274
0.806091 0.635895 0.427917
0.826385 0.643768 0.439026
0.846100 0.652100 0.451508
0.865387 0.660828 0.465576
0.883789 0.669983 0.483734
0.311584 0.598145 0.410217
0.316895 0.599030 0.411377
0.325256 0.599792 0.413574
0.335358 0.600342 0.416046
0.347229 0.600464 0.418549
0.360443 0.600067 0.421051
0.375275 0.599121 0.423676
0.391327 0.597900 0.426636
0.408356 0.596558 0.430023
0.426300 0.595215 0.434143
0.444672 0.593811 0.438812
0.463135 0.592407 0.444153
0.481293 0.590942 0.450012
0.498505 0.589508 0.456146
0.512177 0.589966 0.458099
0.523315 0.592499 0.454468
0.536011 0.595093 0.450439
0.550323 0.597748 0.446228
0.566345 0.600555 0.441742
0.584076 0.603546 0.437164
0.603241 0.606689 0.432556
0.623810 0.610046 0.427856
0.645630 0.613464 0.422852
0.668762 0.617828 0.420807
0.692902 0.624146 0.424438
0.716827 0.631470 0.431335
0.739838 0.638794 0.439270
0.761780 0.645996 0.447845
0.782867 0.653229 0.457031
0.803284 0.660645 0.467255
0.823212 0.668457 0.478607
0.842590 0.676636 0.491241
0.861572 0.685150 0.505066
0.880249 0.693970 0.520203
0.365417 0.628967 0.448547
0.369293 0.629425 0.449158
0.375244 0.629639 0.450684
0.382874 0.629639 0.452332
0.392151 0.629303 0.454132
0.402954 0.628662 0.456055
0.415253 0.627747 0.458344
0.428833 0.626648 0.460968
0.443481 0.625519 0.464142
0.459229 0.624359 0.467957
0.475555 0.623169 0.472382
0.492065 0.622009 0.477295
0.508545 0.620758 0.482697
0.524567 0.619415 0.488525
0.539124 0.618530 0.493683
0.550018 0.619812 0.493225
0.560242 0.622162 0.489746
0.571960 0.624542 0.486023
0.585205 0.627075 0.482239
0.599915 0.629730 0.478210
0.616028 0.632568 0.474152
0.633514 0.635529 0.469971
0.652100 0.638611 0.465607
0.671997 0.641754 0.460907
0.692780 0.645508 0.458893
0.714661 0.651245 0.462463
0.736786 0.658417 0.470032
0.758240 0.665802 0.478973
0.778931 0.673187 0.488617
0.798981 0.680756 0.499176
0.818542 0.688568 0.510681
0.837708 0.696686 0.523224
0.856506 0.705048 0.536713
0.875031 0.713684 0.551086
0.413055 0.655548 0.484161
0.415894 0.655762 0.484436
0.420380 0.655823 0.485535
0.426483 0.655609 0.486816
0.433655 0.655243 0.488312
0.442383 0.654572 0.489899
0.452484 0.653687 0.491852
0.464020 0.652679 0.494171
0.476654 0.651703 0.496979
0.490112 0.650757 0.500458
0.504547 0.649811 0.504517
0.519287 0.648773 0.509033
0.534027 0.647827 0.514069
0.548645 0.646759 0.519409
0.562775 0.645660 0.525146
0.574829 0.645447 0.528748
0.583832 0.647278 0.526855
0.593414 0.649536 0.523712
0.604340 0.651917 0.520630
0.616608 0.654327 0.517273
0.630066 0.656952 0.513733
0.644867 0.659637 0.510254
0.660736 0.662445 0.506500
0.677643 0.665283 0.502625
0.695648 0.668152 0.498260
0.713348 0.670135 0.494263
0.733002 0.674957 0.496918
0.753632 0.682007 0.504974
0.773987 0.689545 0.514648
0.793762 0.697205 0.525177
0.813049 0.705109 0.536743
0.832031 0.713287 0.549194
0.850739 0.721741 0.562622
0.869202 0.730438 0.576904
0.456787 0.680573 0.519348
0.459229 0.680878 0.519745
0.462860 0.680908 0.520691
0.467621 0.680634 0.521667
0.473358 0.680115 0.522675
0.480133 0.679382 0.523865
0.488129 0.678436 0.525238
0.497314 0.677368 0.527008
0.507721 0.676270 0.529205
0.519165 0.675201 0.531891
0.531250 0.674133 0.535126
0.543976 0.673096 0.538849
0.556946 0.672058 0.543121
0.569885 0.671021 0.547791
0.582642 0.669922 0.552704
0.594940 0.668823 0.557922
0.604523 0.669220 0.559448
0.612244 0.671204 0.556641
0.621307 0.673340 0.553894
0.631622 0.675659 0.551178
0.643097 0.678223 0.548462
0.655762 0.680939 0.545746
0.669525 0.683685 0.542786
0.684143 0.686401 0.539612
0.699585 0.688995 0.535919
0.716034 0.691559 0.531860
0.732056 0.693207 0.527893
0.750214 0.697693 0.530457
0.769653 0.704651 0.538788
0.788971 0.712311 0.549011
0.807922 0.720215 0.560272
0.826691 0.728394 0.572571
0.845276 0.736908 0.585876
0.863647 0.745728 0.600128
0.494476 0.703247 0.551697
0.496582 0.703674 0.552216
0.499695 0.703735 0.553101
0.503662 0.703522 0.554016
0.508453 0.703033 0.554901
0.514191 0.702362 0.555908
0.520905 0.701599 0.557220
0.528687 0.700714 0.558807
0.537506 0.699799 0.560791
0.547241 0.698853 0.563202
0.557648 0.697876 0.566010
0.568634 0.696869 0.569183
0.579987 0.695892 0.572815
0.591492 0.694916 0.576874
0.602844 0.693848 0.581116
0.614044 0.692688 0.585632
0.624420 0.691833 0.589844
0.631836 0.692841 0.589172
0.639221 0.694733 0.586700
0.647705 0.696869 0.584351
0.657379 0.699249 0.582153
0.668121 0.701843 0.579956
0.679901 0.704498 0.577667
0.692566 0.707123 0.575104
0.706024 0.709717 0.572296
0.720215 0.712158 0.568970
0.735321 0.714478 0.565216
0.750946 0.717010 0.563049
0.767639 0.721039 0.565216
0.785980 0.728027 0.573914
