core-styles/PB.cube
#Created by: Adobe Photoshop Export Color Lookup Plugin
#Copyright: (C) Copyright 2026 汉图
TITLE "mint本征源文件-适配lut筛选.psd"
#LUT size
LUT_3D_SIZE 4
#data domain
DOMAIN_MIN 0.0 0.0 0.0
DOMAIN_MAX 1.0 1.0 1.0
#LUT data points
0.020538 0.032379 0.028870
0.170502 0.036316 0.044067
0.568695 0.000000 0.069427
0.948395 0.042023 0.151428
0.053223 0.225494 0.146820
0.213379 0.232452 0.147278
0.632263 0.294891 0.131226
0.925690 0.410126 0.233398
0.365417 0.628967 0.448547
0.492065 0.622009 0.477295
0.652100 0.638611 0.465607
0.875031 0.713684 0.551086
0.729553 0.873901 0.792572
0.755859 0.873535 0.800964
0.821106 0.877350 0.829590
0.901154 0.908813 0.846985
0.024292 0.067749 0.147644
0.176727 0.091766 0.165619
0.591858 0.000000 0.164429
0.937164 0.199371 0.167480
0.017426 0.247559 0.256531
0.262665 0.281555 0.275879
0.636139 0.323303 0.278320
0.918976 0.429138 0.267242
0.348358 0.637451 0.506592
0.489410 0.635437 0.521332
0.653320 0.644165 0.531921
0.870514 0.719055 0.603668
0.715210 0.875153 0.796417
0.745605 0.876465 0.804596
0.819641 0.878601 0.834045
0.900360 0.908356 0.851135
0.000000 0.144073 0.400635
0.234436 0.165894 0.439789
0.587250 0.222076 0.483246
0.890930 0.333221 0.514771
0.039062 0.282104 0.450806
0.283417 0.315430 0.494293
0.621429 0.403076 0.542419
0.889130 0.459900 0.552246
0.289246 0.613159 0.617584
0.421539 0.623840 0.626190
0.671631 0.673126 0.668732
0.880066 0.704895 0.677002
0.616699 0.887238 0.819794
0.657532 0.887299 0.819519
0.797363 0.890015 0.843964
0.903931 0.912659 0.872345
0.238739 0.297058 0.731018
0.415466 0.322205 0.745667
0.701324 0.436279 0.783264
0.867706 0.552460 0.790985
0.182648 0.377350 0.738586
0.389557 0.402985 0.750763
0.686615 0.507721 0.786255
0.866547 0.617737 0.807007
0.109711 0.617188 0.787903
0.217163 0.601624 0.781281
0.649048 0.660278 0.824707
0.875885 0.754547 0.853058
0.640167 0.909149 0.918427
0.664978 0.911530 0.919861
0.746552 0.918243 0.923737
0.934052 0.941864 0.944885
