core-styles/PB.cube
#Created by: Adobe Photoshop Export Color Lookup Plugin
#Copyright: (C) Copyright 2026 汉图
TITLE "mint本征源文件-适配lut筛选.psd"
#LUT size
LUT_3D_SIZE 7
#data domain
#LUT data points
DOMAIN_MIN 0.000000 0.000000 0.000000
DOMAIN_MAX 0.909091 0.909091 0.909091
0.020538 0.032379 0.028870
0.065826 0.036865 0.034363
0.148041 0.037872 0.042450
0.285431 0.014252 0.052155
0.482361 0.000000 0.064026
0.692993 0.000000 0.079315
0.872192 0.000000 0.113983
0.030884 0.086639 0.062134
0.068634 0.087830 0.062195
0.155792 0.092804 0.058502
0.293274 0.090424 0.064941
0.486145 0.050934 0.075104
0.715424 0.009155 0.093140
0.877533 0.099518 0.130463
0.049286 0.196991 0.130005
0.110077 0.191223 0.138214
0.181244 0.201324 0.129791
0.334991 0.221069 0.121857
0.535187 0.237732 0.113892
0.727203 0.267548 0.126343
0.864563 0.324707 0.168335
0.090851 0.383820 0.237762
0.172821 0.376892 0.243927
0.278839 0.371033 0.262146
0.395691 0.401093 0.242981
0.576843 0.434998 0.231201
0.737244 0.475983 0.239838
0.852356 0.514008 0.274506
0.267578 0.570038 0.379669
0.323761 0.571930 0.390686
0.418060 0.565033 0.409790
0.500427 0.566559 0.418793
0.592438 0.579468 0.390961
0.717255 0.607330 0.395233
0.826385 0.643768 0.439026
0.494476 0.703247 0.551697
0.514191 0.702362 0.555908
0.557648 0.697876 0.566010
0.614044 0.692688 0.585632
0.657379 0.699249 0.582153
0.720215 0.712158 0.568970
0.804596 0.735931 0.584930
0.647003 0.810486 0.705658
0.655060 0.809937 0.707489
0.678375 0.809723 0.715790
0.706055 0.803925 0.721832
0.743011 0.805634 0.739471
0.774597 0.817139 0.738525
0.820282 0.827698 0.733368
0.026367 0.045105 0.066040
0.061157 0.049591 0.066284
0.155334 0.052795 0.069092
0.295868 0.057831 0.077393
0.485809 0.010010 0.076813
0.691681 0.000000 0.086700
0.860504 0.004059 0.116913
0.029877 0.095764 0.097656
0.079376 0.101715 0.099854
0.167694 0.109192 0.100311
0.303864 0.113251 0.099884
0.496246 0.101349 0.095825
0.712494 0.093231 0.099365
0.867462 0.157318 0.133514
0.038116 0.210510 0.162170
0.113037 0.209869 0.165009
0.193481 0.213776 0.165283
0.347443 0.235229 0.163239
0.537811 0.250763 0.156311
0.719421 0.282013 0.143402
0.856079 0.334381 0.169067
0.092865 0.388428 0.263092
0.168274 0.385925 0.264008
0.289215 0.378540 0.285431
0.398254 0.403381 0.271301
0.573792 0.436676 0.264832
0.731781 0.477264 0.275635
0.848480 0.515381 0.281708
0.277222 0.569885 0.400024
0.320374 0.573639 0.404755
0.416290 0.566071 0.421112
0.501648 0.564270 0.434967
0.588776 0.577026 0.408325
0.712952 0.606110 0.415314
0.823090 0.644531 0.459229
0.501007 0.703369 0.564423
0.511444 0.702911 0.562592
0.556274 0.699158 0.572449
0.615021 0.694855 0.592590
0.658783 0.699982 0.592285
0.720184 0.713165 0.580109
0.804840 0.738342 0.597900
0.645020 0.808075 0.707336
0.649200 0.807831 0.706146
0.672455 0.807404 0.713531
0.708405 0.807648 0.728180
0.745941 0.808350 0.745880
0.775787 0.818329 0.743591
0.820953 0.828735 0.738251
0.025360 0.062927 0.129730
0.070282 0.069122 0.137177
0.149597 0.082794 0.143066
0.287567 0.085205 0.152252
0.503021 0.000000 0.144165
0.706451 0.000000 0.153412
0.860962 0.121643 0.146149
0.040192 0.112518 0.158752
0.087189 0.118469 0.167023
0.170807 0.130493 0.171661
0.315063 0.127289 0.174194
0.521057 0.107788 0.174072
0.718445 0.140320 0.182281
0.863495 0.214905 0.170319
0.025452 0.215210 0.223816
0.097809 0.222198 0.227509
0.219971 0.241516 0.238220
0.375580 0.255035 0.239349
0.554108 0.270660 0.238861
0.721588 0.300964 0.235596
0.854095 0.355438 0.227570
0.000000 0.410828 0.327972
0.123688 0.410339 0.326721
0.297150 0.412170 0.335114
0.416260 0.420410 0.339325
0.582520 0.452454 0.342590
0.727234 0.485321 0.349365
0.842896 0.521667 0.355408
0.248596 0.577972 0.440338
0.311005 0.581329 0.447510
0.415314 0.580261 0.456726
0.519989 0.572998 0.482910
0.595581 0.585907 0.462524
0.713867 0.615570 0.474152
0.821106 0.653259 0.513184
0.480865 0.704865 0.578522
0.504120 0.704254 0.582123
0.550354 0.703522 0.588837
0.614532 0.699707 0.607666
0.663269 0.702728 0.617035
0.720276 0.715607 0.605682
0.804413 0.742004 0.624298
0.634064 0.810150 0.713318
0.645599 0.810181 0.716583
0.667450 0.810944 0.721222
0.705597 0.811035 0.734924
0.746460 0.810791 0.753052
0.776703 0.819244 0.753204
0.821136 0.829712 0.747803
0.014191 0.090515 0.224335
0.070465 0.097107 0.233704
0.180756 0.111145 0.254700
0.297272 0.126373 0.259949
0.468658 0.139038 0.273651
0.697845 0.018707 0.271118
0.864929 0.046844 0.262482
0.036438 0.137177 0.252960
0.090637 0.141846 0.259796
0.199219 0.155945 0.278290
0.320038 0.171875 0.284058
0.489838 0.185486 0.295532
0.711029 0.124969 0.289429
0.862976 0.192139 0.288239
0.039551 0.224365 0.297485
0.103912 0.232727 0.303223
0.230927 0.258148 0.332581
0.378571 0.286743 0.347992
0.547791 0.291931 0.350128
0.729004 0.291351 0.339844
0.854645 0.352570 0.340729
0.016663 0.394073 0.399078
0.129639 0.400360 0.402618
0.274139 0.418030 0.413666
0.445465 0.449524 0.434540
0.594482 0.465851 0.436005
0.726868 0.490601 0.438629
0.840546 0.522827 0.441650
0.137939 0.594666 0.518127
0.229309 0.595551 0.518280
0.375977 0.595398 0.518097
0.525726 0.597168 0.531860
0.607849 0.601654 0.535309
0.719482 0.631531 0.551361
0.821045 0.660797 0.572449
0.432404 0.710541 0.610077
0.461304 0.711487 0.612915
0.525024 0.710968 0.618439
0.607178 0.711731 0.633087
0.672699 0.709717 0.654938
0.722687 0.721558 0.644012
0.806854 0.749023 0.662933
0.598846 0.814148 0.721436
0.613464 0.814423 0.724304
0.648193 0.814850 0.731873
0.694153 0.816437 0.743744
0.742615 0.815582 0.761108
0.778717 0.821533 0.769165
0.822510 0.832367 0.763855
0.000000 0.126495 0.343018
0.061737 0.132294 0.352753
0.191162 0.145386 0.375305
0.371521 0.165314 0.416443
0.500610 0.185150 0.413422
0.659058 0.236481 0.429779
0.829224 0.242859 0.444305
0.009338 0.165802 0.364502
0.086731 0.171326 0.372864
0.209778 0.185089 0.393555
0.384277 0.209473 0.429932
0.513153 0.232361 0.429291
0.663879 0.284424 0.445496
0.830231 0.288635 0.456451
0.044556 0.250092 0.397369
0.116364 0.258942 0.410126
0.241150 0.277527 0.435303
0.417053 0.313568 0.469696
0.549774 0.344208 0.476105
0.680908 0.384796 0.486420
0.833221 0.385040 0.485596
0.068726 0.382111 0.463440
0.142944 0.387512 0.466400
0.262848 0.403656 0.475922
0.440063 0.447296 0.516876
0.586700 0.491364 0.540009
0.707153 0.507355 0.544708
0.839233 0.508484 0.532715
0.216095 0.562134 0.563446
0.264832 0.565430 0.565857
0.365631 0.574646 0.572968
0.492920 0.592712 0.587585
0.623108 0.621490 0.611572
0.726135 0.634460 0.614563
0.824524 0.650848 0.616943
0.375702 0.718079 0.670929
0.400085 0.719360 0.671936
0.464111 0.720642 0.672089
0.563324 0.723328 0.674194
0.668976 0.725769 0.686707
0.727966 0.731750 0.692169
0.814514 0.759857 0.711700
0.545959 0.821564 0.750031
0.559753 0.821533 0.750031
0.594482 0.821564 0.750610
0.656097 0.822540 0.757019
0.729523 0.824860 0.773651
0.783569 0.825897 0.792755
0.824799 0.836334 0.786194
0.000000 0.173492 0.493683
0.069153 0.178802 0.502441
0.227905 0.191040 0.522430
0.412262 0.213348 0.556366
0.608795 0.262177 0.597443
0.695343 0.298340 0.582153
0.788147 0.381561 0.582581
0.000000 0.204468 0.500427
0.092621 0.209930 0.508728
0.237885 0.223083 0.527344
0.415344 0.248535 0.558807
0.608826 0.303497 0.601471
0.697205 0.340881 0.591125
0.786591 0.416473 0.591797
0.026855 0.282501 0.525421
0.112396 0.284729 0.532471
0.258850 0.302795 0.550812
0.433472 0.336151 0.579468
0.611633 0.395966 0.616760
0.697968 0.429291 0.610077
0.781525 0.487000 0.612061
0.000000 0.380768 0.535828
0.096191 0.385834 0.541168
0.253052 0.406555 0.565735
0.437317 0.446930 0.602692
0.610352 0.507965 0.639648
0.703461 0.543579 0.646149
0.782867 0.574066 0.647705
0.166351 0.537537 0.612000
0.215118 0.540009 0.613708
0.310059 0.545166 0.616974
0.431915 0.555664 0.622986
0.598083 0.600220 0.661865
0.711945 0.644196 0.688477
0.800964 0.655243 0.691528
0.377502 0.681061 0.692841
0.399963 0.682709 0.694244
0.453217 0.686920 0.697693
0.533020 0.695557 0.704773
0.628876 0.711975 0.718597
0.733948 0.743286 0.746063
0.821564 0.756592 0.751404
0.501709 0.819733 0.791260
0.513702 0.820557 0.791718
0.546234 0.823883 0.794189
0.600220 0.828979 0.797333
0.678741 0.831818 0.797638
0.774567 0.835785 0.810303
0.829224 0.842773 0.816895
0.108185 0.238495 0.646423
0.183807 0.244110 0.652191
0.311340 0.256226 0.663055
0.472900 0.283417 0.683746
0.631958 0.338989 0.709686
0.756256 0.423492 0.735016
0.810730 0.453156 0.715759
0.110229 0.262848 0.646820
0.183502 0.267944 0.651703
0.310211 0.280884 0.662537
0.469513 0.308960 0.682587
0.627899 0.365448 0.709320
0.753418 0.451172 0.737000
0.808167 0.477264 0.719086
0.078094 0.318024 0.652008
0.168610 0.324738 0.657349
0.306610 0.341797 0.669647
0.469971 0.375763 0.690552
0.623138 0.431702 0.715118
0.748352 0.512482 0.744171
0.802856 0.529175 0.727814
0.000000 0.398987 0.651184
0.058350 0.402771 0.656464
0.260803 0.419159 0.672180
0.439697 0.449554 0.692688
0.604065 0.503815 0.718079
0.736145 0.576111 0.750732
0.798981 0.597839 0.744629
0.000000 0.517548 0.673309
0.000000 0.516632 0.673157
0.159149 0.512512 0.671387
0.358795 0.524780 0.689148
0.572235 0.577820 0.727020
0.724915 0.647583 0.766510
0.801453 0.679352 0.773773
0.293671 0.668427 0.746674
0.315308 0.667969 0.746307
0.367798 0.667084 0.745544
0.448669 0.666962 0.745331
0.546844 0.668671 0.745575
0.703735 0.714783 0.783051
0.812683 0.765350 0.812408
0.490448 0.791687 0.814056
0.500732 0.792114 0.814240
0.529114 0.794159 0.815491
0.577698 0.798920 0.818665
0.643341 0.806610 0.823517
0.727783 0.821198 0.833527
0.836578 0.852386 0.858490
