core-styles/usa.cube
#Created by: Adobe Photoshop Export Color Lookup Plugin
#Copyright: (C) Copyright 2026 小米
TITLE "复古胶片-暖棕"
#LUT size
LUT_3D_SIZE 36
#data domain
DOMAIN_MIN 0.0 0.0 0.0
DOMAIN_MAX 1.0 1.0 1.0
#LUT data points
0.083862 0.045166 0.048218
0.083862 0.045166 0.048218
0.094818 0.043365 0.048096
0.119873 0.037933 0.048065
0.148132 0.031281 0.047913
0.177032 0.026428 0.047241
0.208832 0.023468 0.045776
0.243988 0.020569 0.043610
0.281097 0.018372 0.040527
0.318359 0.019806 0.036194
0.355591 0.025696 0.030731
0.393494 0.036011 0.023956
0.433197 0.047882 0.015442
0.474792 0.060760 0.005646
0.517700 0.073456 0.000000
0.561218 0.084778 0.000000
0.604675 0.094635 0.000000
0.647125 0.103577 0.000000
0.687958 0.112854 0.000000
0.726440 0.122437 0.000000
0.764191 0.132965 0.000000
0.798706 0.143066 0.000000
0.829376 0.152863 0.000000
0.856781 0.162292 0.000000
0.881805 0.171295 0.000000
0.905304 0.180328 0.000000
0.927856 0.188965 0.000000
0.949463 0.197784 0.000000
0.970306 0.207062 0.000000
0.990753 0.216034 0.000000
0.999115 0.224884 0.000000
1.000000 0.234039 0.000000
1.000000 0.243561 0.000000
1.000000 0.253174 0.000000
1.000000 0.262756 0.000000
1.000000 0.272552 0.000000
0.083862 0.045166 0.048218
0.083923 0.045868 0.048492
0.098236 0.046906 0.047852
0.121399 0.046265 0.047302
0.147888 0.044464 0.046661
0.175873 0.042358 0.045685
0.207123 0.040649 0.044128
0.241913 0.039459 0.041718
0.278748 0.039612 0.038361
0.315643 0.042786 0.033722
0.352661 0.049438 0.027802
0.390503 0.058380 0.021301
0.430054 0.069214 0.012268
0.471649 0.080200 0.004211
0.514587 0.090485 0.000000
0.558167 0.099640 0.000000
0.601654 0.108154 0.000000
0.644226 0.116577 0.000000
0.685211 0.125092 0.000000
0.723907 0.133789 0.000000
0.761841 0.143494 0.000000
0.796173 0.152832 0.000000
0.826630 0.161987 0.000000
0.853943 0.170929 0.000000
0.878937 0.179352 0.000000
0.902435 0.187561 0.000000
0.924957 0.195953 0.000000
0.946594 0.204315 0.000000
0.967560 0.212891 0.000000
0.988068 0.221497 0.000000
0.998169 0.230255 0.000000
1.000000 0.239075 0.000000
1.000000 0.248108 0.000000
1.000000 0.257355 0.000000
1.000000 0.266785 0.000000
1.000000 0.276489 0.000000
0.084900 0.055817 0.048523
0.087097 0.058167 0.048431
0.102570 0.059357 0.047119
0.121552 0.059418 0.045807
0.146637 0.058350 0.045044
0.174347 0.057373 0.043976
0.205414 0.056915 0.042206
0.239868 0.057312 0.039551
0.276398 0.058899 0.035919
0.313416 0.062836 0.031036
0.350220 0.069916 0.025177
0.388000 0.078217 0.017761
0.427551 0.087769 0.009521
0.469055 0.097198 0.003021
0.512054 0.105988 0.000000
0.555634 0.114197 0.000000
0.599152 0.122314 0.000000
0.641815 0.130096 0.000000
0.682831 0.137848 0.000000
0.721924 0.145721 0.000000
0.759888 0.154724 0.000000
0.794128 0.163544 0.000000
0.824493 0.171967 0.000000
0.851776 0.180206 0.000000
0.876831 0.188110 0.000000
0.900360 0.195892 0.000000
0.922882 0.203766 0.000000
0.944580 0.211456 0.000000
0.965576 0.219635 0.000000
0.986206 0.227844 0.000000
0.997437 0.236328 0.000000
1.000000 0.244904 0.000000
1.000000 0.253540 0.000000
1.000000 0.262512 0.000000
1.000000 0.271790 0.000000
1.000000 0.281097 0.000000
0.085724 0.070343 0.048737
0.092773 0.071503 0.048676
0.108551 0.071503 0.048889
0.125916 0.074493 0.044678
0.145081 0.074066 0.042816
0.171661 0.073669 0.041504
0.202850 0.074219 0.039551
0.237579 0.076050 0.036530
0.274139 0.079041 0.032471
0.310822 0.084076 0.027283
0.347595 0.091003 0.021545
0.385376 0.099030 0.014771
0.425018 0.107361 0.007355
0.466492 0.115753 0.002106
0.509308 0.123840 0.000000
0.552795 0.131531 0.000000
0.596252 0.139160 0.000000
0.638885 0.146271 0.000000
0.679932 0.153290 0.000000
0.719513 0.160950 0.000000
0.757019 0.168640 0.000000
0.790985 0.176819 0.000000
0.821228 0.184540 0.000000
0.848480 0.191895 0.000000
0.873627 0.199066 0.000000
0.897339 0.206329 0.000000
0.920074 0.213654 0.000000
0.942108 0.220978 0.000000
0.963470 0.228699 0.000000
0.984344 0.236603 0.000000
0.996826 0.244659 0.000000
1.000000 0.252991 0.000000
1.000000 0.261261 0.000000
1.000000 0.269775 0.000000
1.000000 0.278748 0.000000
1.000000 0.287720 0.000000
0.087219 0.085083 0.049133
0.099396 0.085480 0.049225
0.114838 0.085236 0.049469
0.132111 0.086792 0.047272
0.151245 0.090942 0.041138
0.169312 0.090240 0.039429
0.198242 0.091614 0.037445
0.232727 0.094666 0.034271
0.269623 0.098907 0.030090
0.306976 0.105011 0.025238
0.344177 0.112427 0.019318
0.381866 0.120209 0.012970
0.421417 0.128296 0.005371
0.462982 0.136047 0.001465
0.505859 0.143616 0.000000
0.549316 0.151001 0.000000
0.592773 0.158112 0.000000
0.635498 0.164825 0.000000
0.676697 0.171448 0.000000
0.717010 0.178741 0.000000
0.754395 0.186005 0.000000
0.788055 0.193024 0.000000
0.818176 0.199921 0.000000
0.845367 0.206604 0.000000
0.870514 0.213013 0.000000
0.894470 0.219635 0.000000
0.917419 0.226440 0.000000
0.939728 0.233276 0.000000
0.961304 0.240540 0.000000
0.982452 0.247772 0.000000
0.996094 0.255341 0.000000
1.000000 0.263184 0.000000
1.000000 0.271240 0.000000
1.000000 0.279358 0.000000
1.000000 0.287811 0.000000
1.000000 0.296356 0.000000
0.092194 0.100952 0.051392
0.106415 0.101227 0.051392
0.121643 0.101227 0.051483
0.139526 0.101776 0.050873
0.157532 0.105164 0.046631
0.179230 0.110443 0.038727
0.196259 0.109222 0.037201
0.227020 0.112762 0.034027
0.263000 0.118134 0.029724
0.300995 0.125031 0.025146
0.338928 0.133331 0.019135
0.377869 0.141937 0.012329
0.417816 0.149994 0.004303
0.459259 0.157745 0.000793
0.502289 0.165070 0.000000
0.545868 0.172302 0.000000
0.589417 0.178894 0.000000
0.632385 0.185394 0.000000
0.674072 0.191895 0.000000
0.714661 0.198883 0.000000
0.752106 0.205780 0.000000
0.785706 0.212036 0.000000
0.815735 0.218201 0.000000
0.843018 0.223969 0.000000
0.871735 0.231445 0.000000
0.898102 0.238495 0.000000
0.921051 0.244720 0.000000
0.943146 0.250977 0.000000
0.964569 0.257599 0.000000
0.985443 0.264313 0.000000
0.995270 0.271118 0.000000
1.000000 0.278168 0.000000
1.000000 0.285553 0.000000
1.000000 0.293304 0.000000
1.000000 0.301270 0.000000
1.000000 0.309265 0.000000
0.099945 0.120667 0.054993
0.114288 0.121033 0.054840
0.129242 0.121307 0.054810
0.147644 0.121582 0.054840
0.168060 0.122986 0.053314
0.187469 0.128204 0.046906
0.211060 0.134552 0.037292
0.227661 0.132965 0.034973
0.258698 0.138214 0.030457
0.294434 0.145203 0.025391
0.332764 0.154358 0.019012
0.372711 0.163910 0.011353
0.414459 0.172974 0.003784
0.457672 0.181427 0.000000
0.500732 0.188751 0.000000
0.544495 0.195679 0.000000
0.588074 0.202240 0.000000
0.631256 0.208435 0.000000
0.673920 0.215088 0.000000
0.714508 0.221832 0.000000
0.751709 0.228394 0.000000
0.785309 0.234161 0.000000
0.815491 0.239594 0.000000
0.843018 0.244965 0.000000
0.868591 0.250092 0.000000
0.902344 0.259979 0.000000
0.925323 0.265594 0.000000
0.947510 0.271393 0.000000
0.968903 0.277435 0.000000
0.989624 0.283539 0.000000
0.999268 0.289795 0.000000
1.000000 0.296265 0.000000
1.000000 0.302856 0.000000
1.000000 0.309753 0.000000
1.000000 0.317139 0.000000
1.000000 0.324646 0.000000
0.106506 0.145081 0.057404
0.121765 0.145538 0.057373
0.137207 0.145996 0.057251
0.156128 0.146454 0.057037
0.178162 0.147125 0.056671
0.200684 0.149780 0.053558
0.221466 0.156311 0.044647
0.245941 0.163269 0.033478
0.262970 0.162323 0.029968
0.291534 0.167389 0.024261
0.326477 0.175446 0.017517
0.366333 0.185608 0.008911
0.408783 0.195557 0.002625
0.453827 0.205170 0.000000
0.499817 0.213928 0.000000
0.544495 0.221039 0.000000
0.588531 0.227631 0.000000
0.631653 0.233765 0.000000
0.675323 0.240753 0.000000
0.715820 0.247253 0.000000
0.752777 0.253418 0.000000
0.786163 0.258850 0.000000
0.816437 0.263763 0.000000
0.844177 0.268646 0.000000
0.870300 0.273468 0.000000
0.895416 0.278442 0.000000
0.919434 0.283905 0.000000
0.942383 0.289307 0.000000
0.964355 0.294861 0.000000
0.985474 0.300507 0.000000
0.997314 0.306213 0.000000
1.000000 0.312164 0.000000
1.000000 0.318420 0.000000
1.000000 0.324768 0.000000
1.000000 0.331421 0.000000
1.000000 0.338348 0.000000
0.111694 0.171448 0.058838
0.127563 0.171753 0.058777
0.143677 0.172272 0.058594
0.163330 0.172821 0.058075
0.185944 0.173584 0.057770
0.209778 0.175171 0.056610
0.232635 0.179047 0.051239
0.254272 0.185822 0.039612
0.278595 0.193298 0.026154
0.296753 0.193451 0.021118
0.320740 0.196259 0.014709
0.356079 0.204590 0.006195
0.397797 0.215088 0.001404
0.442200 0.225159 0.000000
0.488708 0.234741 0.000000
0.536285 0.243774 0.000000
0.583496 0.251831 0.000000
0.628418 0.258881 0.000000
0.671173 0.265442 0.000000
0.711090 0.271667 0.000000
0.747772 0.277283 0.000000
0.780945 0.282318 0.000000
0.811096 0.286743 0.000000
0.838898 0.290924 0.000000
0.865112 0.295288 0.000000
0.890381 0.299896 0.000000
0.914642 0.304474 0.000000
0.937775 0.309448 0.000000
0.959991 0.314301 0.000000
0.981415 0.319458 0.000000
0.995392 0.324707 0.000000
1.000000 0.330017 0.000000
1.000000 0.335663 0.000000
1.000000 0.341614 0.000000
1.000000 0.347565 0.000000
1.000000 0.354095 0.000000
0.115601 0.200623 0.059509
0.132477 0.201050 0.059326
0.149384 0.201477 0.059326
0.169525 0.202057 0.058807
0.192841 0.202881 0.058167
0.218231 0.203888 0.057678
0.242981 0.206238 0.054932
0.264984 0.211304 0.046204
0.286621 0.218170 0.031494
0.310852 0.225494 0.015198
0.330750 0.226929 0.007477
0.350250 0.226257 0.002167
0.386414 0.234192 0.000275
0.430359 0.244843 0.000000
0.476471 0.255005 0.000000
0.524353 0.265015 0.000000
0.573608 0.274841 0.000000
0.621948 0.283722 0.000000
0.666931 0.291473 0.000000
0.706573 0.297485 0.000000
0.743042 0.302856 0.000000
0.776093 0.307556 0.000000
0.806244 0.311646 0.000000
0.834167 0.315399 0.000000
0.860596 0.319153 0.000000
0.886017 0.323120 0.000000
0.910461 0.327301 0.000000
0.933838 0.331604 0.000000
0.956268 0.335968 0.000000
0.977844 0.340454 0.000000
0.993805 0.345093 0.000000
1.000000 0.349915 0.000000
1.000000 0.354950 0.000000
1.000000 0.360229 0.000000
1.000000 0.365753 0.000000
1.000000 0.371552 0.000000
0.118774 0.231812 0.060089
0.137177 0.232117 0.059845
0.154541 0.232452 0.059814
0.175079 0.233002 0.059448
0.198608 0.233795 0.058960
0.224060 0.234741 0.058319
0.250732 0.236053 0.057739
0.275696 0.239075 0.053528
0.296326 0.244873 0.039764
0.318542 0.251709 0.020569
0.343323 0.258606 0.002136
0.364746 0.260406 0.000854
0.382019 0.257080 0.000061
0.418091 0.263977 0.000000
0.463684 0.274963 0.000000
0.511597 0.285797 0.000000
0.560303 0.296204 0.000000
0.608704 0.305878 0.000000
0.655548 0.315002 0.000000
0.700012 0.323578 0.000000
0.738129 0.329865 0.000000
0.771454 0.334290 0.000000
0.801514 0.337830 0.000000
0.829376 0.341064 0.000000
0.855743 0.344269 0.000000
0.881012 0.347504 0.000000
0.905334 0.350952 0.000000
0.928619 0.354614 0.000000
0.951141 0.358276 0.000000
0.972900 0.362274 0.000000
0.992126 0.366333 0.000000
1.000000 0.370667 0.000000
1.000000 0.375244 0.000000
1.000000 0.380035 0.000000
1.000000 0.385132 0.000000
1.000000 0.390442 0.000000
0.121704 0.263367 0.061005
0.140228 0.263611 0.061035
0.158234 0.264069 0.060608
0.179169 0.264618 0.060394
0.202576 0.265381 0.060120
0.228088 0.266479 0.059875
0.255005 0.267883 0.059235
0.282806 0.269867 0.058167
0.307648 0.273529 0.051025
0.328156 0.279694 0.030762
0.351563 0.286194 0.007782
0.377838 0.292755 0.000000
0.400970 0.294769 0.000000
0.417267 0.289642 0.000000
0.452118 0.295197 0.000000
0.497467 0.305725 0.000000
0.545929 0.316772 0.000000
0.594055 0.327148 0.000000
0.641144 0.337036 0.000000
0.686035 0.346283 0.000000
0.727692 0.354523 0.000000
0.764465 0.360962 0.000000
0.795654 0.364807 0.000000
0.823822 0.367676 0.000000
0.850342 0.370361 0.000000
0.875763 0.373199 0.000000
0.900208 0.376282 0.000000
0.923737 0.379272 0.000000
0.946503 0.382324 0.000000
0.968475 0.385773 0.000000
0.989838 0.389374 0.000000
0.999664 0.393158 0.000000
1.000000 0.397217 0.000000
1.000000 0.401520 0.000000
1.000000 0.406097 0.000000
1.000000 0.410889 0.000000
0.124054 0.296051 0.063110
0.143250 0.296356 0.062866
0.160431 0.296814 0.063110
0.181793 0.297485 0.062653
0.205170 0.298340 0.062531
0.230988 0.299438 0.062256
0.258240 0.300903 0.062042
0.286804 0.302795 0.061523
0.315643 0.305176 0.059570
0.340057 0.309814 0.046387
0.362579 0.316254 0.020203
0.387787 0.322693 0.001648
0.415283 0.328949 0.000000
0.444366 0.335083 0.000000
0.460541 0.328796 0.000000
0.493256 0.332367 0.000000
0.537781 0.342224 0.000000
0.586395 0.353546 0.000000
0.633728 0.364288 0.000000
0.678680 0.374298 0.000000
0.720367 0.382965 0.000000
0.758209 0.389801 0.000000
0.792389 0.395355 0.000000
0.822662 0.399200 0.000000
0.850128 0.401917 0.000000
0.875488 0.403992 0.000000
0.899811 0.406342 0.000000
0.923157 0.408539 0.000000
0.945831 0.410919 0.000000
0.967682 0.413391 0.000000
0.988892 0.416199 0.000000
0.999451 0.419220 0.000000
1.000000 0.422546 0.000000
1.000000 0.426117 0.000000
1.000000 0.429962 0.000000
1.000000 0.434174 0.000000
0.125092 0.331635 0.067230
0.144012 0.332001 0.067017
0.161804 0.332336 0.067017
0.182953 0.332916 0.066986
0.207275 0.333679 0.066803
0.233124 0.334961 0.066956
0.261200 0.336609 0.066803
0.290527 0.338654 0.066711
0.321686 0.340942 0.066589
0.352234 0.344391 0.062225
0.377106 0.349945 0.041412
0.401337 0.356323 0.011047
0.427826 0.362671 0.000000
0.456421 0.368958 0.000000
0.485840 0.374451 0.000000
0.499603 0.365051 0.000000
0.529572 0.366577 0.000000
0.572266 0.375519 0.000000
0.619965 0.387268 0.000000
0.665558 0.398102 0.000000
0.707825 0.407623 0.000000
0.746307 0.415131 0.000000
0.781250 0.420898 0.000000
0.813385 0.425690 0.000000
0.843597 0.429932 0.000000
0.870514 0.432526 0.000000
0.895996 0.435028 0.000000
0.919556 0.436676 0.000000
0.942322 0.438568 0.000000
0.964417 0.440460 0.000000
0.985809 0.442657 0.000000
0.999237 0.445038 0.000000
1.000000 0.447693 0.000000
1.000000 0.450653 0.000000
1.000000 0.453857 0.000000
1.000000 0.457550 0.000000
0.123352 0.368317 0.073364
0.142181 0.368774 0.073273
0.160583 0.369141 0.073334
0.182312 0.369690 0.073273
0.207062 0.370483 0.073212
0.234070 0.371490 0.073273
0.262817 0.373138 0.073700
0.293121 0.375244 0.073883
0.325562 0.377625 0.074066
0.359833 0.380493 0.074280
0.390991 0.384644 0.065643
0.415131 0.390411 0.036346
0.440186 0.396545 0.003876
0.467194 0.402618 0.000000
0.496002 0.408539 0.000000
0.520935 0.409424 0.000000
0.533508 0.398407 0.000000
0.559967 0.397736 0.000000
0.598907 0.404816 0.000000
0.645172 0.416656 0.000000
0.688721 0.427185 0.000000
0.728210 0.435669 0.000000
0.764404 0.442322 0.000000
0.797638 0.447632 0.000000
0.828949 0.452301 0.000000
0.858612 0.456482 0.000000
0.886353 0.460114 0.000000
0.911682 0.462616 0.000000
0.935577 0.464752 0.000000
0.958069 0.466339 0.000000
0.979858 0.468018 0.000000
0.996033 0.470001 0.000000
1.000000 0.472198 0.000000
1.000000 0.474701 0.000000
1.000000 0.477509 0.000000
1.000000 0.480743 0.000000
0.117920 0.404602 0.081390
0.137207 0.405151 0.081421
0.156464 0.405609 0.081696
0.179047 0.406158 0.081696
0.204651 0.406952 0.081696
0.232513 0.407990 0.081726
0.262390 0.409302 0.081909
0.293884 0.411041 0.082520
0.327087 0.413086 0.082947
0.361877 0.415527 0.083405
0.398102 0.418671 0.084045
0.427277 0.423279 0.068390
0.450775 0.428864 0.031921
0.475922 0.434540 0.000000
0.502716 0.440002 0.000000
0.530762 0.445129 0.000000
0.555054 0.445190 0.000000
0.567291 0.433441 0.000000
0.588623 0.429169 0.000000
0.624573 0.434570 0.000000
0.668335 0.445648 0.000000
0.709442 0.455353 0.000000
0.746887 0.463013 0.000000
0.781494 0.469177 0.000000
0.813782 0.474396 0.000000
0.844513 0.478943 0.000000
0.873657 0.483185 0.000000
0.901367 0.487213 0.000000
0.927277 0.490387 0.000000
0.951477 0.492828 0.000000
0.973938 0.494446 0.000000
0.992584 0.495941 0.000000
1.000000 0.497742 0.000000
1.000000 0.499878 0.000000
1.000000 0.502228 0.000000
1.000000 0.505066 0.000000
0.108307 0.441681 0.091278
0.128723 0.442261 0.091400
0.149017 0.442719 0.091736
0.172852 0.443176 0.091888
0.200043 0.443787 0.091888
0.229370 0.444641 0.091980
0.260468 0.445770 0.092163
0.293365 0.447205 0.092499
0.327332 0.449188 0.093140
0.362823 0.451477 0.093872
0.399231 0.454407 0.094818
0.434937 0.458038 0.092651
0.462463 0.462677 0.070770
0.485535 0.467773 0.031586
0.510376 0.472717 0.000000
0.536621 0.477325 0.000000
0.563629 0.481476 0.000000
0.587128 0.480957 0.000000
0.600189 0.469421 0.000000
0.616913 0.461273 0.000000
0.648987 0.464355 0.000000
0.689270 0.473907 0.000000
0.728485 0.482910 0.000000
0.764618 0.490051 0.000000
0.798096 0.495972 0.000000
0.829742 0.501007 0.000000
0.859741 0.505585 0.000000
0.888428 0.509766 0.000000
0.915894 0.513763 0.000000
0.942261 0.517578 0.000000
0.966827 0.520508 0.000000
0.988525 0.522614 0.000000
1.000000 0.524078 0.000000
1.000000 0.525848 0.000000
1.000000 0.527893 0.000000
1.000000 0.530396 0.000000
0.092926 0.478333 0.102264
0.117615 0.478912 0.102173
0.139923 0.479340 0.102386
0.165131 0.479889 0.102814
0.193878 0.480621 0.103088
0.225067 0.481537 0.103302
0.257660 0.482727 0.103638
0.291779 0.484253 0.104004
0.327393 0.486145 0.104736
0.363007 0.488434 0.105743
0.399963 0.491150 0.106873
0.437592 0.494232 0.108337
0.470703 0.497894 0.101196
0.496368 0.502014 0.073944
0.518799 0.506134 0.032318
0.542664 0.509888 0.000000
0.567749 0.513275 0.000000
0.593445 0.516144 0.000000
0.616180 0.514984 0.000000
0.630066 0.504242 0.000000
0.644226 0.493378 0.000000
0.671570 0.493439 0.000000
0.708527 0.501373 0.000000
0.746399 0.509888 0.000000
0.781525 0.516724 0.000000
0.814270 0.522522 0.000000
0.845398 0.527557 0.000000
0.875061 0.532135 0.000000
0.903442 0.536438 0.000000
0.930695 0.540466 0.000000
0.956848 0.544250 0.000000
0.981873 0.547821 0.000000
0.998322 0.550690 0.000000
1.000000 0.552338 0.000000
1.000000 0.553894 0.001312
1.000000 0.555847 0.001312
0.076935 0.513824 0.114349
0.104034 0.514313 0.114807
0.129517 0.514648 0.114807
0.157562 0.515167 0.114838
0.187927 0.515869 0.115234
0.220245 0.516815 0.115662
0.254120 0.517944 0.116150
0.289093 0.519348 0.116852
0.324677 0.521088 0.117523
0.361481 0.523163 0.118561
0.398315 0.525543 0.119934
0.435791 0.528229 0.121765
0.473602 0.531281 0.123596
0.503632 0.534729 0.111267
0.526855 0.538269 0.079498
0.548798 0.541626 0.035522
0.571930 0.544525 0.000000
0.595886 0.547028 0.000000
0.620392 0.549133 0.000000
0.642395 0.547668 0.000000
0.657410 0.538147 0.000000
0.670105 0.525726 0.000000
0.693237 0.522705 0.000000
0.726776 0.528534 0.000000
0.763458 0.536560 0.000000
0.797852 0.543152 0.000000
0.830200 0.548859 0.000000
0.860840 0.553955 0.000000
0.890259 0.558563 0.000000
0.918427 0.562866 0.000000
0.945465 0.566833 0.000000
0.971436 0.570587 0.000000
0.991638 0.574158 0.000000
1.000000 0.577545 0.000000
1.000000 0.580566 0.002594
1.000000 0.582092 0.021362
0.061829 0.549133 0.128113
0.093536 0.549591 0.128510
0.121429 0.556488 0.132172
0.151154 0.557465 0.132690
0.184204 0.558014 0.133148
0.218353 0.558746 0.133881
0.253265 0.559662 0.134583
0.289185 0.560852 0.135345
0.325714 0.562256 0.136261
0.362946 0.563904 0.137512
0.400238 0.565826 0.139221
0.437744 0.568054 0.141296
0.475159 0.570435 0.143555
0.512573 0.572906 0.145966
0.539337 0.575531 0.129456
0.559235 0.578094 0.093384
0.580139 0.580292 0.046173
0.602051 0.582062 0.000000
0.624695 0.583466 0.000000
0.647766 0.584381 0.000000
0.669128 0.582306 0.000000
0.684937 0.573883 0.000000
0.696503 0.560150 0.000000
0.716095 0.554077 0.000000
0.746338 0.557495 0.000000
0.781952 0.564880 0.000000
0.815521 0.571136 0.000000
0.847198 0.576477 0.000000
0.877441 0.581177 0.000000
0.906342 0.585602 0.000000
0.934113 0.589630 0.000000
0.960815 0.593384 0.000000
0.985382 0.596985 0.000000
1.000000 0.600525 0.000000
1.000000 0.604034 0.005646
1.000000 0.607178 0.044678
0.052277 0.585297 0.145660
0.087646 0.586151 0.146301
0.116394 0.587372 0.147369
0.147858 0.590088 0.149017
0.181396 0.590881 0.149567
0.216461 0.591644 0.150269
0.251709 0.592438 0.151215
0.287628 0.593353 0.152283
0.324066 0.594482 0.153625
0.360901 0.595795 0.155121
0.397827 0.597351 0.157013
0.434937 0.599091 0.159027
0.471863 0.601044 0.161499
0.508423 0.603119 0.164124
0.542664 0.605225 0.164001
0.565674 0.607361 0.143494
0.584534 0.609253 0.107239
0.604614 0.610809 0.056854
0.625641 0.612030 0.000732
0.647491 0.612854 0.000000
0.669952 0.613617 0.000000
0.691010 0.611603 0.000000
0.707703 0.604523 0.000000
0.718658 0.590240 0.000000
0.735474 0.582031 0.000000
0.763123 0.583618 0.000000
0.798004 0.590820 0.000000
0.831116 0.596924 0.000000
0.862671 0.602173 0.000000
0.892731 0.606903 0.000000
0.921417 0.611237 0.000000
0.949036 0.615173 0.000000
0.975586 0.618896 0.000000
0.995758 0.622528 0.000000
1.000000 0.626099 0.003571
1.000000 0.629669 0.036377
0.057281 0.617371 0.164093
0.090027 0.618164 0.165070
0.119690 0.619019 0.165680
0.150024 0.619843 0.166565
0.182770 0.620697 0.167664
0.217316 0.621490 0.168457
0.252380 0.622223 0.169403
0.287903 0.623016 0.170563
0.323730 0.623901 0.172028
0.359619 0.625031 0.173706
0.395874 0.626190 0.175995
0.432007 0.627655 0.178162
0.468018 0.629211 0.180786
0.503815 0.630951 0.183838
0.539185 0.632813 0.186890
0.569153 0.634705 0.182495
0.589386 0.636475 0.159271
0.607605 0.637909 0.123566
0.626953 0.639069 0.069855
0.647308 0.639923 0.018829
0.668549 0.640564 0.000000
0.690430 0.641083 0.000000
0.711212 0.639191 0.000000
0.728668 0.633392 0.000000
0.739166 0.618866 0.000000
0.753906 0.609100 0.000000
0.780334 0.609924 0.000000
0.813477 0.616058 0.000000
0.846405 0.622070 0.000000
0.877960 0.627319 0.000000
0.907898 0.632050 0.000000
0.936523 0.636353 0.000000
0.964081 0.640320 0.000000
0.988678 0.644104 0.000000
1.000000 0.647736 0.000885
1.000000 0.651398 0.017120
0.077057 0.646729 0.184418
0.105042 0.647430 0.185211
0.131195 0.648163 0.185974
0.159576 0.648956 0.186951
0.190338 0.649689 0.187897
0.222626 0.650391 0.189087
0.256378 0.651001 0.190186
0.290894 0.651672 0.191406
0.325684 0.652344 0.192841
0.360535 0.653290 0.194611
0.395630 0.654266 0.197052
0.430664 0.655457 0.199310
0.465637 0.656799 0.202026
0.500244 0.658203 0.205231
0.534698 0.659821 0.208618
0.568726 0.661560 0.212067
0.594421 0.663269 0.203033
0.612244 0.664673 0.177368
0.629883 0.665894 0.142792
0.648712 0.666870 0.093262
0.668640 0.667725 0.042816
0.689484 0.668365 0.000000
0.711029 0.668823 0.000000
0.731720 0.667206 0.000000
0.749725 0.662415 0.000000
0.759949 0.647980 0.000000
0.774200 0.638092 0.000000
0.799225 0.637817 0.000000
0.830414 0.642670 0.000000
0.863342 0.648712 0.000000
0.894867 0.653992 0.000000
0.924957 0.658661 0.000000
0.953552 0.662933 0.000000
0.981110 0.666901 0.000000
0.999908 0.670685 0.000000
1.000000 0.674408 0.003967
0.109100 0.676208 0.208191
0.131287 0.676727 0.208740
0.152649 0.677277 0.209412
0.176697 0.677826 0.210480
0.204376 0.678375 0.211334
0.234039 0.678864 0.212311
0.265137 0.679352 0.213470
0.297638 0.679871 0.214874
0.330719 0.680450 0.216400
0.364197 0.681183 0.218231
0.397919 0.682037 0.220612
0.431671 0.683105 0.222992
0.465424 0.684204 0.225616
0.498840 0.685486 0.228790
0.532013 0.686798 0.232422
0.564972 0.688324 0.235931
0.597473 0.690002 0.239594
0.619019 0.691437 0.225708
0.634796 0.692688 0.198486
0.651978 0.693726 0.164825
0.670349 0.694641 0.121216
0.689850 0.695404 0.066925
0.710327 0.695953 0.000000
0.731537 0.696350 0.000000
0.752136 0.694977 0.000000
0.770325 0.690704 0.000000
0.780975 0.677063 0.000000
0.795410 0.667603 0.000000
0.818237 0.665649 0.000000
0.847839 0.669342 0.000000
0.880829 0.675476 0.000000
0.912476 0.680756 0.000000
0.942749 0.685333 0.000000
0.971436 0.689575 0.000000
0.996796 0.693512 0.000000
1.000000 0.697327 0.000000
0.147369 0.705475 0.234253
0.163696 0.705750 0.234894
0.180725 0.706024 0.235352
0.200623 0.706360 0.236145
0.224274 0.706635 0.236938
0.250763 0.706909 0.237701
0.278870 0.707214 0.238831
0.308533 0.707581 0.240265
0.339386 0.708069 0.241791
0.370941 0.708710 0.243652
0.402924 0.709473 0.245972
0.435181 0.710419 0.248444
0.467499 0.711426 0.251221
0.499603 0.712524 0.254333
0.531433 0.713776 0.257813
0.563202 0.715057 0.261688
0.594757 0.716522 0.265533
