core-styles/usa.cube
#Created by: Adobe Photoshop Export Color Lookup Plugin
#Copyright: (C) Copyright 2026 小米
TITLE "复古胶片-暖棕"
#LUT size
LUT_3D_SIZE 6
#data domain
DOMAIN_MIN 0.0 0.0 0.0
DOMAIN_MAX 1.0 1.0 1.0
#LUT data points
0.083862 0.045166 0.048218
0.243988 0.020569 0.043610
0.517700 0.073456 0.000000
0.798706 0.143066 0.000000
0.970306 0.207062 0.000000
1.000000 0.272552 0.000000
0.106506 0.145081 0.057404
0.245941 0.163269 0.033478
0.499817 0.213928 0.000000
0.786163 0.258850 0.000000
0.964355 0.294861 0.000000
1.000000 0.338348 0.000000
0.123352 0.368317 0.073364
0.293121 0.375244 0.073883
0.496002 0.408539 0.000000
0.728210 0.435669 0.000000
0.935577 0.464752 0.000000
1.000000 0.480743 0.000000
0.057281 0.617371 0.164093
0.287903 0.623016 0.170563
0.539185 0.632813 0.186890
0.690430 0.641083 0.000000
0.846405 0.622070 0.000000
1.000000 0.651398 0.017120
0.297546 0.805817 0.345337
0.383240 0.806824 0.350952
0.547485 0.809998 0.367554
0.717010 0.815887 0.372650
0.832031 0.820404 0.097687
0.975769 0.802795 0.000000
0.556763 0.953430 0.576874
0.586548 0.953156 0.579834
0.667480 0.953888 0.592621
0.783691 0.954437 0.614014
0.889893 0.960602 0.600861
0.996124 0.974243 0.464661
0.084930 0.074585 0.121216
0.216217 0.021210 0.128571
0.512238 0.000000 0.142365
0.792358 0.000854 0.116821
0.963928 0.163574 0.105377
1.000000 0.263947 0.114014
0.112030 0.146606 0.140839
0.233276 0.149689 0.149658
0.497620 0.169769 0.140747
0.780426 0.212219 0.120117
0.955231 0.269348 0.111877
1.000000 0.333069 0.127197
0.000000 0.360352 0.177002
0.243866 0.372498 0.181122
0.484680 0.397095 0.122925
0.732300 0.423309 0.100037
0.926178 0.451965 0.134674
1.000000 0.479156 0.163086
0.000000 0.610809 0.199402
0.244537 0.613770 0.248413
0.518738 0.623657 0.261719
0.682922 0.632019 0.096680
0.849060 0.617920 0.007233
1.000000 0.653534 0.209167
0.207062 0.802155 0.355194
0.371277 0.800995 0.388855
0.539276 0.805420 0.405243
0.716797 0.813141 0.422455
0.828064 0.816864 0.210236
0.975616 0.799561 0.019684
0.523102 0.952759 0.573242
0.577820 0.952576 0.593323
0.659576 0.953033 0.604645
0.777557 0.953613 0.624786
0.887878 0.958771 0.615845
0.994415 0.973083 0.483643
0.000000 0.091583 0.315216
0.268280 0.000000 0.314362
0.458435 0.000000 0.323944
0.750275 0.000000 0.361603
0.960083 0.012085 0.336914
1.000000 0.315643 0.371277
0.136261 0.209717 0.338409
0.234436 0.151062 0.341827
0.471924 0.116241 0.341949
0.757538 0.122345 0.362488
0.947052 0.260254 0.361511
1.000000 0.373413 0.375275
0.059906 0.374695 0.358978
0.229004 0.377747 0.363342
0.463440 0.376465 0.367432
0.734558 0.413147 0.374756
0.917236 0.461578 0.383850
1.000000 0.509216 0.393616
0.000000 0.593536 0.392242
0.114563 0.601074 0.389740
0.470367 0.616638 0.409241
0.677948 0.629272 0.351746
0.862549 0.631653 0.350311
1.000000 0.678436 0.431763
0.000000 0.798828 0.426636
0.194916 0.800873 0.434570
0.519867 0.803223 0.498199
0.707764 0.812683 0.519928
0.825653 0.816895 0.387482
0.986420 0.803955 0.313995
0.352203 0.959106 0.550873
0.437195 0.957825 0.568604
0.636536 0.954315 0.642212
0.763214 0.955444 0.661835
0.890045 0.959137 0.671600
0.993652 0.973450 0.549194
0.000000 0.110291 0.540161
0.266418 0.024872 0.536102
0.500641 0.000000 0.528503
0.712250 0.000000 0.533447
0.887451 0.147614 0.532593
1.000000 0.319061 0.545135
0.002777 0.197418 0.553589
0.235962 0.173279 0.551697
0.490936 0.108124 0.543427
0.715698 0.065308 0.542389
0.886078 0.261078 0.539886
1.000000 0.398163 0.556641
0.229553 0.487854 0.574768
0.331085 0.472473 0.574219
0.466339 0.389313 0.570679
0.706909 0.364594 0.558136
0.881104 0.459503 0.563873
1.000000 0.559540 0.588501
0.079041 0.618530 0.572906
0.255676 0.619049 0.573822
0.469177 0.619629 0.575287
0.658783 0.612793 0.569977
0.861450 0.658569 0.587891
1.000000 0.693970 0.599121
0.000000 0.781464 0.579834
0.000000 0.784088 0.579285
0.388611 0.791748 0.580841
0.656067 0.805511 0.614777
0.817169 0.812836 0.560944
0.994354 0.816223 0.558838
0.000000 0.962585 0.584808
0.000000 0.962250 0.589233
0.406311 0.961029 0.623596
0.720551 0.957214 0.715729
0.880829 0.958801 0.742828
0.990784 0.973083 0.642975
0.000000 0.211304 0.733765
0.222473 0.176025 0.731812
0.497375 0.001465 0.724426
0.719940 0.000000 0.712341
0.899933 0.000000 0.713928
1.000000 0.361908 0.694092
0.029999 0.233063 0.737823
0.252747 0.222565 0.735931
0.486847 0.184509 0.729950
0.713562 0.046936 0.716339
0.897003 0.163330 0.717651
1.000000 0.423981 0.699432
0.339294 0.509216 0.745544
0.362091 0.479004 0.744690
0.479858 0.420288 0.742554
0.692139 0.367859 0.728424
0.879364 0.394501 0.722046
0.993530 0.544922 0.712616
0.406738 0.713379 0.751678
0.460052 0.716858 0.752869
0.567810 0.715729 0.754669
0.656982 0.632477 0.744843
0.842194 0.606140 0.727722
0.995605 0.686096 0.740173
0.222412 0.805023 0.746063
0.309143 0.804810 0.746124
0.465363 0.805908 0.747955
0.634705 0.808014 0.751221
0.796570 0.800934 0.745361
0.993713 0.838776 0.772736
0.000000 0.953278 0.764893
0.000000 0.953278 0.764923
0.008942 0.955261 0.762085
0.497498 0.959412 0.756378
0.828461 0.960663 0.814850
0.984192 0.971741 0.770325
0.201385 0.398071 0.891602
0.301300 0.381744 0.891724
0.481934 0.326996 0.891632
0.689178 0.182373 0.889221
0.890961 0.000000 0.886139
1.000000 0.275146 0.891083
0.206512 0.401825 0.893555
0.302246 0.385376 0.893524
0.479614 0.330231 0.892578
0.684631 0.214691 0.889557
0.885468 0.150238 0.885925
1.000000 0.341370 0.892273
0.268677 0.481995 0.897095
0.301361 0.456787 0.898163
0.465485 0.435669 0.897003
0.662476 0.405060 0.893433
0.870911 0.352783 0.890839
1.000000 0.479828 0.898499
0.483643 0.751160 0.895782
0.511047 0.744598 0.895660
0.529083 0.694489 0.898773
0.624634 0.622833 0.902313
0.832672 0.586060 0.903534
1.000000 0.629852 0.906342
0.401947 0.863037 0.908295
0.446503 0.864258 0.908844
0.555756 0.869141 0.911499
0.701263 0.876923 0.917450
0.789246 0.815186 0.924133
0.996948 0.795166 0.921661
0.000000 0.964111 0.931061
0.000000 0.964478 0.931702
0.261414 0.964355 0.933105
0.541748 0.964386 0.936066
0.775055 0.965881 0.943054
0.971252 0.971222 0.957184
