core-styles/usa.cube
#Created by: Adobe Photoshop Export Color Lookup Plugin
#Copyright: (C) Copyright 2026 小米
TITLE "复古胶片-暖棕"
#LUT size
LUT_3D_SIZE 8
#data domain
DOMAIN_MIN 0.0 0.0 0.0
DOMAIN_MAX 1.0 1.0 1.0
#LUT data points
0.083862 0.045166 0.048218
0.177032 0.026428 0.047241
0.355591 0.025696 0.030731
0.561218 0.084778 0.000000
0.764191 0.132965 0.000000
0.905304 0.180328 0.000000
0.999115 0.224884 0.000000
1.000000 0.272552 0.000000
0.092194 0.100952 0.051392
0.179230 0.110443 0.038727
0.338928 0.133331 0.019135
0.545868 0.172302 0.000000
0.752106 0.205780 0.000000
0.898102 0.238495 0.000000
0.995270 0.271118 0.000000
1.000000 0.309265 0.000000
0.118774 0.231812 0.060089
0.224060 0.234741 0.058319
0.343323 0.258606 0.002136
0.511597 0.285797 0.000000
0.738129 0.329865 0.000000
0.881012 0.347504 0.000000
0.992126 0.366333 0.000000
1.000000 0.390442 0.000000
0.117920 0.404602 0.081390
0.232513 0.407990 0.081726
0.398102 0.418671 0.084045
0.530762 0.445129 0.000000
0.668335 0.445648 0.000000
0.844513 0.478943 0.000000
0.973938 0.494446 0.000000
1.000000 0.505066 0.000000
0.052277 0.585297 0.145660
0.216461 0.591644 0.150269
0.397827 0.597351 0.157013
0.565674 0.607361 0.143494
0.669952 0.613617 0.000000
0.763123 0.583618 0.000000
0.921417 0.611237 0.000000
1.000000 0.629669 0.036377
0.183777 0.731812 0.259888
0.270538 0.733002 0.263489
0.410034 0.735168 0.271576
0.562286 0.740051 0.287079
0.678711 0.746124 0.245056
0.771393 0.748474 0.000000
0.854645 0.717743 0.000000
0.999420 0.739349 0.000000
0.376587 0.851776 0.410614
0.411774 0.852173 0.413513
0.490723 0.853790 0.422302
0.597473 0.856781 0.437897
0.714935 0.859955 0.457855
0.792206 0.865204 0.392944
0.878571 0.868652 0.202118
0.971313 0.853271 0.000000
0.556763 0.953430 0.576874
0.573212 0.953186 0.578369
0.615295 0.953369 0.583954
0.682312 0.953979 0.595093
0.765564 0.954315 0.610138
0.857819 0.955322 0.630371
0.914307 0.964508 0.572357
0.996124 0.974243 0.464661
0.085724 0.063782 0.089783
0.162933 0.029785 0.094269
0.348694 0.000000 0.103088
0.553284 0.000000 0.081329
0.757263 0.048035 0.046967
0.896729 0.138702 0.019867
0.995392 0.204315 0.012970
1.000000 0.264008 0.019958
0.102417 0.101135 0.098999
0.172607 0.103058 0.104797
0.338165 0.108124 0.099426
0.541626 0.133179 0.079681
0.748352 0.167999 0.041382
0.891388 0.211517 0.021820
0.992706 0.256378 0.020935
1.000000 0.303253 0.028809
0.081024 0.228699 0.121368
0.194550 0.236145 0.120117
0.339081 0.254395 0.089447
0.521942 0.278168 0.062073
0.734039 0.312073 0.034729
0.876129 0.332947 0.023438
0.988556 0.357300 0.025726
1.000000 0.387085 0.041504
0.000000 0.401001 0.118927
0.195404 0.404663 0.147156
0.379364 0.414032 0.150818
0.522827 0.436859 0.032928
0.670776 0.439148 0.000000
0.842438 0.471558 0.019318
0.968048 0.488159 0.052429
1.000000 0.502808 0.100372
0.000000 0.581177 0.170685
0.182037 0.585236 0.201050
0.380371 0.590729 0.206726
0.559814 0.600494 0.206940
0.665039 0.607574 0.010132
0.765228 0.581024 0.000000
0.921417 0.609100 0.016449
1.000000 0.630890 0.160095
0.091217 0.728760 0.274994
0.256561 0.728760 0.294769
0.400726 0.730896 0.301941
0.555389 0.736023 0.316406
0.676758 0.742554 0.287567
0.768494 0.745422 0.076996
0.855621 0.716919 0.000000
0.999817 0.738861 0.055908
0.357819 0.850952 0.419983
0.409607 0.850922 0.432343
0.488190 0.852478 0.440308
0.594757 0.855621 0.454926
0.711823 0.858887 0.473419
0.790771 0.863129 0.415894
0.875946 0.866394 0.241394
0.968750 0.850372 0.048981
0.544128 0.952423 0.578583
0.567596 0.952545 0.585205
0.613281 0.953888 0.593689
0.680481 0.954407 0.604309
0.764343 0.954926 0.619446
0.857056 0.955811 0.639526
0.914612 0.964569 0.584900
0.995911 0.974274 0.479767
0.065582 0.086395 0.191864
0.182861 0.034210 0.194946
0.315399 0.000092 0.202972
0.520325 0.000000 0.239105
0.760040 0.000000 0.216736
0.896393 0.012695 0.212097
0.995239 0.184662 0.221191
1.000000 0.269379 0.228119
0.120789 0.136353 0.207184
0.178101 0.102753 0.212738
0.326752 0.079956 0.216949
0.530457 0.038452 0.235687
0.752106 0.031647 0.217590
0.887115 0.160889 0.221069
0.992676 0.242218 0.224182
1.000000 0.308197 0.231567
0.108337 0.235443 0.224640
0.188446 0.237946 0.229187
0.324524 0.239868 0.235657
0.531189 0.255829 0.235901
0.732483 0.280151 0.232361
0.872040 0.313843 0.231659
0.984802 0.353149 0.235291
1.000000 0.394867 0.245209
0.000000 0.387543 0.260834
0.126404 0.395294 0.257050
0.329498 0.410400 0.260834
0.514435 0.428253 0.220947
0.688934 0.438446 0.207001
0.844971 0.471039 0.248169
0.964569 0.490204 0.257141
1.000000 0.512878 0.272400
0.000000 0.571167 0.279602
0.000000 0.576477 0.273193
0.336121 0.583740 0.301178
0.542908 0.593750 0.311859
0.659485 0.601685 0.212982
0.776031 0.581635 0.144226
0.924500 0.613434 0.240356
1.000000 0.641235 0.311096
0.000000 0.726105 0.313782
0.020935 0.727234 0.318939
0.383392 0.727631 0.373322
0.542908 0.733398 0.386475
0.678680 0.741241 0.383118
0.765656 0.743622 0.244904
0.858215 0.715118 0.096497
0.999969 0.741211 0.249329
0.215424 0.851044 0.415161
0.324615 0.850464 0.437134
0.479309 0.850311 0.482025
0.586853 0.854034 0.495117
0.704193 0.857849 0.511200
0.791931 0.862671 0.476196
0.873993 0.865417 0.330353
0.969116 0.849121 0.171661
0.478180 0.956421 0.567108
0.520660 0.955444 0.582733
0.601868 0.953918 0.613281
0.671143 0.954529 0.623352
0.757111 0.955170 0.637909
0.852325 0.955963 0.657867
0.913971 0.964020 0.612335
0.994965 0.973938 0.512421
0.000000 0.090210 0.348511
0.199707 0.036255 0.347565
0.356873 0.000000 0.347168
0.496613 0.000000 0.355164
0.690918 0.000000 0.383728
0.877228 0.000000 0.380463
0.994873 0.137817 0.372925
1.000000 0.337677 0.408325
0.055511 0.131836 0.361023
0.188019 0.106018 0.362061
0.350067 0.057343 0.360809
0.503143 0.015198 0.363770
0.690643 0.056671 0.384552
0.875397 0.046387 0.380341
0.991455 0.239258 0.384888
1.000000 0.365662 0.408600
0.144012 0.310608 0.380463
0.218689 0.300720 0.382751
0.320343 0.242126 0.385406
0.512848 0.222839 0.383118
0.705231 0.250427 0.394989
0.866547 0.290833 0.391113
0.975159 0.380524 0.407928
1.000000 0.433685 0.412506
0.033539 0.410553 0.392242
0.165527 0.412384 0.394501
0.325012 0.414703 0.398590
0.497650 0.411530 0.399261
0.692535 0.438538 0.405640
0.835236 0.471802 0.412994
0.954407 0.506439 0.420349
1.000000 0.538483 0.427277
0.000000 0.553314 0.415405
0.000244 0.558868 0.415070
0.275543 0.570679 0.412933
0.499878 0.586426 0.426605
0.653320 0.597137 0.385437
0.790741 0.595215 0.372253
0.923828 0.638458 0.436859
1.000000 0.657928 0.452576
0.000000 0.714661 0.428223
0.000000 0.716675 0.427704
0.271301 0.721710 0.430756
0.517334 0.727203 0.473663
0.673309 0.737915 0.490295
0.760620 0.740509 0.392151
0.869171 0.719330 0.315033
1.000000 0.752899 0.422821
0.000000 0.847137 0.463806
0.142242 0.847717 0.469727
0.346863 0.849884 0.486420
0.561493 0.851044 0.546906
0.685516 0.855927 0.561310
0.792603 0.861755 0.554169
0.870819 0.864014 0.437012
0.972778 0.848145 0.318481
0.314026 0.959106 0.551788
0.366425 0.958588 0.559296
0.484344 0.957428 0.588104
0.646301 0.954407 0.650452
0.739349 0.955414 0.664734
0.840027 0.956421 0.683685
0.912262 0.962982 0.655090
0.993134 0.973236 0.559448
0.000000 0.103577 0.509430
0.190125 0.060242 0.507324
0.369812 0.000000 0.502289
0.529694 0.000000 0.497314
0.679871 0.000000 0.505341
0.822052 0.008911 0.510651
0.958038 0.172699 0.513977
1.000000 0.315277 0.521362
0.021240 0.132507 0.516693
0.191711 0.120178 0.516205
0.356873 0.080017 0.512634
0.528442 0.000000 0.505035
0.681580 0.000000 0.509827
0.817596 0.138519 0.511566
0.955719 0.238892 0.517487
1.000000 0.361786 0.527649
0.169281 0.332275 0.533875
0.205811 0.306519 0.534271
0.323700 0.255157 0.533173
0.519196 0.214417 0.524323
0.685455 0.210663 0.522949
0.811707 0.297729 0.520508
0.951324 0.365051 0.530151
1.000000 0.469055 0.549133
0.188019 0.492981 0.546875
0.264435 0.494659 0.548279
0.392853 0.488647 0.549530
0.500702 0.422150 0.546539
0.674438 0.403198 0.536133
0.804993 0.461121 0.539551
0.940857 0.517944 0.553741
1.000000 0.584625 0.573730
0.033997 0.587646 0.546265
0.180695 0.588226 0.547028
0.340057 0.588837 0.548218
0.498108 0.588837 0.549164
0.637421 0.582581 0.544464
0.789490 0.615448 0.556580
0.918274 0.646301 0.566956
1.000000 0.670868 0.573456
0.000000 0.700684 0.551483
0.000000 0.701904 0.551544
0.233612 0.705353 0.551270
0.444672 0.714966 0.551666
0.631958 0.728821 0.572235
0.753021 0.736328 0.533569
0.881622 0.737396 0.519348
1.000000 0.775970 0.587250
0.000000 0.838745 0.558075
0.000000 0.839661 0.558258
0.205200 0.842621 0.560486
0.437958 0.848114 0.572540
0.648163 0.853333 0.621460
0.787201 0.861572 0.639221
0.866364 0.862274 0.546722
0.979675 0.848846 0.471893
0.000000 0.962372 0.566162
0.000000 0.961609 0.572174
0.246399 0.960541 0.592468
0.492218 0.959961 0.627838
0.706421 0.956512 0.703094
0.818787 0.957672 0.720917
0.910583 0.961823 0.715912
0.991119 0.972931 0.626343
0.000000 0.156006 0.654083
0.145325 0.130066 0.652588
0.363678 0.016144 0.647827
0.534180 0.000000 0.641998
0.690002 0.000000 0.635712
0.825562 0.000000 0.638855
0.923431 0.179840 0.622986
1.000000 0.358215 0.635010
0.030182 0.160156 0.656616
0.189789 0.151672 0.655792
0.356903 0.123657 0.652802
0.527496 0.037750 0.646545
0.687744 0.000000 0.638031
0.824097 0.006622 0.640747
0.919830 0.242126 0.625061
1.000000 0.392242 0.638794
0.128326 0.327606 0.667938
0.172729 0.302307 0.667755
0.335480 0.278809 0.664825
0.514221 0.247711 0.658020
0.683167 0.192230 0.646759
0.821014 0.231598 0.647888
0.911316 0.363159 0.633209
1.000000 0.470306 0.650421
0.337311 0.543610 0.676392
0.376465 0.536591 0.675385
0.427948 0.502563 0.674652
0.508026 0.440857 0.672699
0.666504 0.398163 0.659637
0.806091 0.414154 0.655212
0.894318 0.502014 0.646027
1.000000 0.566467 0.665802
0.323120 0.655609 0.679199
0.368378 0.657349 0.679840
0.460388 0.662201 0.681427
0.567474 0.665405 0.684479
0.640442 0.600555 0.674835
0.775818 0.580414 0.661163
0.890198 0.630249 0.667480
1.000000 0.678406 0.686584
0.201355 0.732788 0.675262
0.265198 0.733398 0.676056
0.377502 0.734009 0.676910
0.503326 0.734833 0.678101
0.624420 0.734100 0.677765
0.737946 0.726044 0.670380
0.886322 0.759766 0.689789
1.000000 0.781921 0.701141
0.000000 0.830444 0.678040
0.000000 0.830597 0.678650
0.147858 0.831177 0.680328
0.381836 0.834045 0.681671
0.559509 0.842926 0.681946
0.742859 0.855499 0.708099
0.858429 0.858887 0.666199
0.988495 0.858734 0.654663
0.000000 0.958282 0.685028
0.000000 0.958282 0.684265
0.000000 0.958862 0.682983
0.256958 0.960602 0.681732
0.526062 0.961975 0.694061
0.779449 0.959290 0.769226
0.904724 0.960938 0.788879
0.988007 0.972748 0.712463
0.000000 0.251160 0.777893
0.116638 0.236908 0.777985
0.335876 0.190887 0.775177
0.521027 0.046570 0.770355
0.682251 0.000000 0.765411
0.820221 0.000000 0.760986
0.944977 0.034180 0.761353
1.000000 0.331024 0.734222
0.000000 0.246216 0.779358
0.173920 0.231201 0.778442
0.353363 0.184692 0.775085
0.516693 0.137665 0.770660
0.674408 0.029419 0.763062
0.814667 0.003418 0.758209
0.939819 0.128845 0.759094
1.000000 0.360748 0.733032
0.090515 0.325012 0.785248
0.194183 0.317841 0.784241
0.348602 0.306732 0.781799
0.508545 0.284546 0.777588
0.664978 0.242188 0.769836
0.810089 0.212128 0.763367
0.934235 0.283630 0.763306
1.000000 0.443146 0.739136
0.366547 0.545532 0.787384
0.374939 0.530029 0.787018
0.405945 0.491547 0.787567
0.507019 0.456116 0.786346
0.649780 0.425385 0.778900
0.796356 0.382568 0.768127
0.919006 0.432648 0.766357
0.991852 0.542999 0.748993
0.453064 0.719543 0.795135
0.475616 0.717804 0.796021
0.522156 0.707367 0.795258
0.575226 0.675385 0.794220
0.632202 0.608307 0.790619
0.767548 0.562775 0.776886
0.897186 0.579102 0.772583
0.982971 0.655334 0.767151
0.385590 0.783752 0.794952
0.414703 0.785004 0.795776
0.479523 0.787903 0.797607
0.570892 0.793610 0.801331
0.671539 0.797668 0.805450
0.736694 0.740601 0.796967
0.870819 0.719879 0.784271
0.983765 0.766479 0.793243
0.202728 0.849121 0.793213
0.256500 0.849274 0.793579
0.359253 0.850769 0.795746
0.481262 0.853790 0.799927
0.606445 0.856781 0.804443
0.729340 0.858337 0.807892
0.840820 0.849579 0.799866
0.986023 0.876984 0.823425
0.000000 0.951294 0.807709
0.000000 0.951324 0.808044
0.000000 0.951691 0.809235
0.093079 0.952789 0.811340
0.418304 0.954865 0.811768
0.634705 0.959320 0.808594
0.864349 0.961884 0.849152
0.981842 0.970795 0.813782
0.201385 0.398071 0.891602
0.261963 0.389648 0.891937
0.372803 0.364227 0.891571
0.510559 0.314301 0.891510
0.658600 0.215088 0.889709
0.811493 0.000000 0.886841
0.938965 0.079895 0.886627
1.000000 0.275146 0.891083
0.200623 0.397247 0.891205
0.260040 0.388367 0.891205
0.371002 0.363770 0.891144
0.508362 0.313904 0.890839
0.656128 0.214417 0.888611
0.806091 0.088104 0.885773
0.935211 0.152008 0.885345
1.000000 0.310608 0.890930
0.238464 0.425171 0.903229
0.276215 0.410889 0.902496
0.375977 0.383453 0.900604
0.507019 0.334808 0.897644
0.649658 0.301086 0.893127
0.796600 0.253235 0.889587
0.930573 0.279480 0.889282
1.000000 0.401428 0.895874
0.302094 0.519470 0.895264
0.317780 0.506866 0.895752
0.360535 0.473724 0.896729
0.487701 0.458466 0.895630
0.627533 0.437531 0.893250
0.777954 0.414703 0.895447
0.920227 0.416534 0.895538
1.000000 0.503143 0.900574
0.485138 0.728210 0.896454
0.496368 0.722626 0.896667
0.498444 0.694366 0.897766
0.516876 0.641998 0.901154
0.605713 0.598999 0.902191
0.746918 0.575562 0.901672
0.902954 0.557587 0.904999
1.000000 0.609955 0.906097
0.472260 0.833252 0.903748
0.491760 0.833862 0.903717
0.538025 0.834442 0.904633
0.603607 0.827820 0.907959
0.665955 0.802277 0.911285
0.720459 0.742126 0.917328
0.871857 0.710571 0.918762
1.000000 0.729706 0.917389
0.349670 0.891174 0.917297
0.391693 0.894470 0.920502
0.459198 0.895996 0.921570
0.556763 0.899139 0.923706
0.667267 0.903137 0.925812
0.783020 0.908325 0.929779
0.846161 0.868164 0.934509
0.991943 0.852997 0.934448
0.000000 0.964111 0.931061
0.000000 0.964478 0.931488
0.000000 0.964386 0.932129
0.309906 0.964355 0.933441
0.506683 0.964386 0.935516
0.675995 0.964691 0.938934
0.836273 0.966461 0.945709
0.971252 0.971222 0.957184
